(G-CODE GENERATED BY FLATCAM v8.99 - www.flatcam.org - Version Date: 2019/12/15)

(Name: copper_bottom.gbr_iso_cnc_0.29)
(Type: G-code from Geometry)
(Units: MM)

(Created on Saturday, 14 March 2020 at 12:00)

(TOOL DIAMETER: 0.29 mm)
(Feedrate: 40.0 mm/min)
(Feedrate_Z: 50.0 mm/min)
(Feedrate rapids 1500.0 mm/min)

(Z_Cut: -0.15 mm)
(Z_Move: 2.0 mm)
(Z Toolchange: 15.0 mm)
(X,Y Toolchange: 0.0000, 0.0000 mm)
(Z Start: None mm)
(Z End: 15.0 mm)
(Steps per circle: 64)
(Preprocessor Geometry: default)

(X range:    0.7245 ...   47.7987  mm)
(Y range:    0.1562 ...   50.2944  mm)

(Spindle Speed: None RPM)
G21
G90
G94




G01 F40.00
G00 Z2.0000

M03
G00 X7.8306 Y8.6338
G01 F50.00
G01 Z-0.1500
G01 F40.00
G01 X7.8306 Y7.8762
G01 X7.8314 Y7.8611
G01 X7.8338 Y7.8461
G01 X7.8377 Y7.8315
G01 X7.8431 Y7.8174
G01 X7.8513 Y7.8017
G01 X7.8613 Y7.7871
G01 X7.8731 Y7.7737
G01 X8.4087 Y7.2381
G01 X8.4221 Y7.2263
G01 X8.4367 Y7.2163
G01 X8.4524 Y7.2081
G01 X8.4665 Y7.2027
G01 X8.4811 Y7.1988
G01 X8.4961 Y7.1964
G01 X8.5112 Y7.1956
G01 X9.1419 Y7.1956
G01 X12.7937 Y3.5437
G01 X12.8353 Y3.5059
G01 X12.8463 Y3.4968
G01 X12.8916 Y3.4634
G01 X12.9101 Y3.4521
G01 X12.9103 Y2.8885
G01 X12.9153 Y2.7915
G01 X12.9293 Y2.6958
G01 X12.9321 Y2.6819
G01 X12.9557 Y2.5884
G01 X12.9883 Y2.4967
G01 X12.9937 Y2.4835
G01 X13.0335 Y2.3995
G01 X13.0388 Y2.3898
G01 X13.0887 Y2.3069
G01 X13.1463 Y2.2288
G01 X13.1554 Y2.2178
G01 X13.2157 Y2.1513
G01 X13.2257 Y2.1413
G01 X13.2953 Y2.0783
G01 X13.3032 Y2.0719
G01 X13.3813 Y2.0143
G01 X13.4642 Y1.9644
G01 X13.4739 Y1.9591
G01 X13.5610 Y1.9179
G01 X13.5711 Y1.9139
G01 X13.6628 Y1.8813
G01 X13.7601 Y1.8568
G01 X13.7702 Y1.8549
G01 X13.8659 Y1.8409
G01 X13.9700 Y1.8357
G01 X14.0741 Y1.8409
G01 X14.1698 Y1.8549
G01 X14.1799 Y1.8568
G01 X14.2772 Y1.8813
G01 X14.3689 Y1.9139
G01 X14.3790 Y1.9179
G01 X14.4661 Y1.9591
G01 X14.4758 Y1.9644
G01 X14.5587 Y2.0143
G01 X14.6368 Y2.0719
G01 X14.6447 Y2.0783
G01 X14.7143 Y2.1413
G01 X14.7243 Y2.1513
G01 X14.7873 Y2.2209
G01 X14.7937 Y2.2288
G01 X14.8513 Y2.3069
G01 X14.9012 Y2.3898
G01 X14.9065 Y2.3995
G01 X14.9463 Y2.4835
G01 X14.9517 Y2.4967
G01 X14.9820 Y2.5812
G01 X14.9861 Y2.5948
G01 X15.0088 Y2.6857
G01 X15.0107 Y2.6958
G01 X15.0247 Y2.7915
G01 X15.0299 Y2.8956
G01 X15.0299 Y4.7244
G01 X15.0247 Y4.8285
G01 X15.0107 Y4.9242
G01 X15.0088 Y4.9343
G01 X14.9843 Y5.0316
G01 X14.9517 Y5.1233
G01 X14.9477 Y5.1334
G01 X14.9065 Y5.2205
G01 X14.9012 Y5.2302
G01 X14.8513 Y5.3131
G01 X14.7937 Y5.3912
G01 X14.7873 Y5.3991
G01 X14.7243 Y5.4687
G01 X14.7143 Y5.4787
G01 X14.6447 Y5.5417
G01 X14.6368 Y5.5481
G01 X14.5646 Y5.6015
G01 X14.5528 Y5.6094
G01 X14.4758 Y5.6556
G01 X14.4633 Y5.6623
G01 X14.3790 Y5.7021
G01 X14.3689 Y5.7061
G01 X14.2772 Y5.7387
G01 X14.1837 Y5.7623
G01 X14.1698 Y5.7651
G01 X14.0741 Y5.7791
G01 X13.9771 Y5.7841
G01 X13.9629 Y5.7841
G01 X13.8659 Y5.7791
G01 X13.7702 Y5.7651
G01 X13.7601 Y5.7632
G01 X13.6692 Y5.7405
G01 X13.6556 Y5.7364
G01 X13.5711 Y5.7061
G01 X13.5610 Y5.7021
G01 X13.4767 Y5.6623
G01 X13.4642 Y5.6556
G01 X13.3813 Y5.6057
G01 X13.3032 Y5.5481
G01 X13.2953 Y5.5417
G01 X13.2206 Y5.4738
G01 X13.1554 Y5.4022
G01 X13.1463 Y5.3912
G01 X13.0929 Y5.3190
G01 X13.0850 Y5.3072
G01 X13.0388 Y5.2302
G01 X13.0335 Y5.2205
G01 X13.0041 Y5.1584
G01 X9.9494 Y8.2131
G01 X9.9494 Y8.6338
G01 X9.9486 Y8.6489
G01 X9.9462 Y8.6639
G01 X9.9423 Y8.6785
G01 X9.9369 Y8.6926
G01 X9.9287 Y8.7083
G01 X9.9187 Y8.7229
G01 X9.9069 Y8.7363
G01 X9.3713 Y9.2719
G01 X9.3579 Y9.2837
G01 X9.3433 Y9.2937
G01 X9.3276 Y9.3019
G01 X9.3135 Y9.3073
G01 X9.2989 Y9.3112
G01 X9.2839 Y9.3136
G01 X9.2688 Y9.3144
G01 X8.5112 Y9.3144
G01 X8.4961 Y9.3136
G01 X8.4811 Y9.3112
G01 X8.4665 Y9.3073
G01 X8.4524 Y9.3019
G01 X8.4367 Y9.2937
G01 X8.4221 Y9.2837
G01 X8.4087 Y9.2719
G01 X7.8731 Y8.7363
G01 X7.8613 Y8.7229
G01 X7.8513 Y8.7083
G01 X7.8431 Y8.6926
G01 X7.8377 Y8.6785
G01 X7.8338 Y8.6639
G01 X7.8314 Y8.6489
G01 X7.8306 Y8.6338
G00 Z2.0000
G00 X10.9982 Y13.2233
G01 F50.00
G01 Z-0.1500
G01 F40.00
G01 X11.0100 Y13.2099
G01 X11.9399 Y12.2800
G01 X11.9533 Y12.2682
G01 X11.9678 Y12.2582
G01 X11.9835 Y12.2500
G01 X11.9977 Y12.2446
G01 X12.0123 Y12.2407
G01 X12.0273 Y12.2383
G01 X12.0424 Y12.2375
G01 X13.3576 Y12.2375
G01 X13.3727 Y12.2383
G01 X13.3877 Y12.2407
G01 X13.4023 Y12.2446
G01 X13.4165 Y12.2500
G01 X13.4322 Y12.2582
G01 X13.4467 Y12.2682
G01 X13.4601 Y12.2800
G01 X14.3900 Y13.2099
G01 X14.4018 Y13.2233
G01 X14.4118 Y13.2378
G01 X14.4200 Y13.2535
G01 X14.4254 Y13.2677
G01 X14.4293 Y13.2823
G01 X14.4317 Y13.2973
G01 X14.4325 Y13.3124
G01 X14.4325 Y14.6276
G01 X14.4317 Y14.6427
G01 X14.4293 Y14.6577
G01 X14.4254 Y14.6723
G01 X14.4200 Y14.6865
G01 X14.4118 Y14.7022
G01 X14.4018 Y14.7167
G01 X14.3900 Y14.7301
G01 X13.7663 Y15.3538
G01 X17.6731 Y19.2606
G01 X18.1588 Y19.2606
G01 X18.1739 Y19.2614
G01 X18.1889 Y19.2638
G01 X18.2035 Y19.2677
G01 X18.2176 Y19.2731
G01 X18.2333 Y19.2813
G01 X18.2479 Y19.2913
G01 X18.2613 Y19.3031
G01 X18.7969 Y19.8387
G01 X18.8087 Y19.8521
G01 X18.8187 Y19.8667
G01 X18.8269 Y19.8824
G01 X18.8323 Y19.8965
G01 X18.8362 Y19.9111
G01 X18.8386 Y19.9261
G01 X18.8394 Y19.9412
G01 X18.8394 Y20.6988
G01 X18.8386 Y20.7139
G01 X18.8362 Y20.7289
G01 X18.8323 Y20.7435
G01 X18.8269 Y20.7576
G01 X18.8187 Y20.7733
G01 X18.8087 Y20.7879
G01 X18.7969 Y20.8013
G01 X18.2613 Y21.3369
G01 X18.2479 Y21.3487
G01 X18.2333 Y21.3587
G01 X18.2176 Y21.3669
G01 X18.2035 Y21.3723
G01 X18.1889 Y21.3762
G01 X18.1739 Y21.3786
G01 X18.1588 Y21.3794
G01 X17.7831 Y21.3794
G01 X15.0803 Y24.0822
G01 X15.1007 Y24.1638
G01 X15.1026 Y24.1740
G01 X15.1171 Y24.2719
G01 X15.1185 Y24.2860
G01 X15.1235 Y24.3920
G01 X15.1235 Y26.4080
G01 X15.1185 Y26.5140
G01 X15.1171 Y26.5281
G01 X15.1026 Y26.6260
G01 X15.1007 Y26.6362
G01 X15.0757 Y26.7360
G01 X15.0716 Y26.7496
G01 X15.0383 Y26.8428
G01 X15.0328 Y26.8559
G01 X14.9891 Y26.9483
G01 X14.9838 Y26.9580
G01 X14.9329 Y27.0428
G01 X14.9250 Y27.0547
G01 X14.8660 Y27.1342
G01 X14.8597 Y27.1422
G01 X14.7906 Y27.2185
G01 X14.7805 Y27.2286
G01 X14.7042 Y27.2977
G01 X14.6962 Y27.3040
G01 X14.6167 Y27.3630
G01 X14.6048 Y27.3709
G01 X14.5200 Y27.4218
G01 X14.5103 Y27.4271
G01 X14.4148 Y27.4722
G01 X14.4048 Y27.4763
G01 X14.3116 Y27.5096
G01 X14.2980 Y27.5137
G01 X14.1982 Y27.5387
G01 X14.1880 Y27.5406
G01 X14.0833 Y27.5559
G01 X13.9771 Y27.5613
G01 X13.9629 Y27.5613
G01 X13.8640 Y27.5565
G01 X13.8499 Y27.5551
G01 X13.7520 Y27.5406
G01 X13.7418 Y27.5387
G01 X13.6356 Y27.5120
G01 X13.5352 Y27.4763
G01 X13.5252 Y27.4722
G01 X13.4297 Y27.4271
G01 X13.4200 Y27.4218
G01 X13.3293 Y27.3672
G01 X13.2438 Y27.3040
G01 X13.2358 Y27.2977
G01 X13.1543 Y27.2237
G01 X13.0830 Y27.1452
G01 X13.0740 Y27.1342
G01 X13.0150 Y27.0547
G01 X13.0071 Y27.0428
G01 X12.9562 Y26.9580
G01 X12.9509 Y26.9483
G01 X12.9072 Y26.8559
G01 X12.9017 Y26.8428
G01 X12.8660 Y26.7424
G01 X12.8393 Y26.6362
G01 X12.8374 Y26.6260
G01 X12.8221 Y26.5213
G01 X12.8165 Y26.4080
G01 X12.8165 Y24.3920
G01 X12.8221 Y24.2787
G01 X12.8374 Y24.1740
G01 X12.8402 Y24.1600
G01 X12.8643 Y24.0640
G01 X12.8684 Y24.0504
G01 X12.9017 Y23.9572
G01 X12.9058 Y23.9472
G01 X12.9509 Y23.8517
G01 X12.9562 Y23.8420
G01 X13.0108 Y23.7513
G01 X13.0740 Y23.6658
G01 X13.0830 Y23.6548
G01 X13.1494 Y23.5815
G01 X13.1595 Y23.5714
G01 X13.2358 Y23.5023
G01 X13.2438 Y23.4960
G01 X13.3293 Y23.4328
G01 X13.4200 Y23.3782
G01 X13.4297 Y23.3729
G01 X13.5252 Y23.3278
G01 X13.5352 Y23.3237
G01 X13.6356 Y23.2880
G01 X13.7380 Y23.2622
G01 X13.7520 Y23.2594
G01 X13.8567 Y23.2441
G01 X13.9629 Y23.2387
G01 X13.9771 Y23.2387
G01 X14.0760 Y23.2435
G01 X14.0922 Y23.2452
G01 X16.7206 Y20.6169
G01 X16.7206 Y20.1331
G01 X12.2903 Y15.7025
G01 X12.0424 Y15.7025
G01 X12.0273 Y15.7017
G01 X12.0123 Y15.6993
G01 X11.9977 Y15.6954
G01 X11.9835 Y15.6900
G01 X11.9678 Y15.6818
G01 X11.9533 Y15.6718
G01 X11.9399 Y15.6600
G01 X11.0100 Y14.7301
G01 X10.9982 Y14.7167
G01 X10.9882 Y14.7022
G01 X10.9800 Y14.6865
G01 X10.9746 Y14.6723
G01 X10.9707 Y14.6577
G01 X10.9683 Y14.6427
G01 X10.9675 Y14.6276
G01 X10.9675 Y13.3124
G01 X10.9683 Y13.2973
G01 X10.9707 Y13.2823
G01 X10.9746 Y13.2677
G01 X10.9800 Y13.2535
G01 X10.9882 Y13.2378
G01 X10.9982 Y13.2233
G00 Z2.0000
G00 X7.8613 Y15.4071
G01 F50.00
G01 Z-0.1500
G01 F40.00
G01 X7.8731 Y15.3937
G01 X8.4087 Y14.8581
G01 X8.4221 Y14.8463
G01 X8.4367 Y14.8363
G01 X8.4524 Y14.8281
G01 X8.4665 Y14.8227
G01 X8.4811 Y14.8188
G01 X8.4961 Y14.8164
G01 X8.5112 Y14.8156
G01 X9.2688 Y14.8156
G01 X9.2839 Y14.8164
G01 X9.2989 Y14.8188
G01 X9.3135 Y14.8227
G01 X9.3276 Y14.8281
G01 X9.3433 Y14.8363
G01 X9.3579 Y14.8463
G01 X9.3713 Y14.8581
G01 X9.9069 Y15.3937
G01 X9.9187 Y15.4071
G01 X9.9287 Y15.4217
G01 X9.9369 Y15.4374
G01 X9.9423 Y15.4515
G01 X9.9462 Y15.4661
G01 X9.9486 Y15.4811
G01 X9.9494 Y15.4962
G01 X9.9494 Y15.5373
G01 X9.9563 Y15.5437
G01 X11.8562 Y17.4437
G01 X11.9399 Y17.3600
G01 X11.9533 Y17.3482
G01 X11.9678 Y17.3382
G01 X11.9835 Y17.3300
G01 X11.9977 Y17.3246
G01 X12.0123 Y17.3207
G01 X12.0273 Y17.3183
G01 X12.0424 Y17.3175
G01 X13.3576 Y17.3175
G01 X13.3727 Y17.3183
G01 X13.3877 Y17.3207
G01 X13.4023 Y17.3246
G01 X13.4165 Y17.3300
G01 X13.4322 Y17.3382
G01 X13.4467 Y17.3482
G01 X13.4601 Y17.3600
G01 X14.3900 Y18.2899
G01 X14.4018 Y18.3033
G01 X14.4118 Y18.3178
G01 X14.4200 Y18.3335
G01 X14.4254 Y18.3477
G01 X14.4293 Y18.3623
G01 X14.4317 Y18.3773
G01 X14.4325 Y18.3924
G01 X14.4325 Y19.7076
G01 X14.4317 Y19.7227
G01 X14.4293 Y19.7377
G01 X14.4254 Y19.7523
G01 X14.4200 Y19.7665
G01 X14.4118 Y19.7822
G01 X14.4018 Y19.7967
G01 X14.3900 Y19.8101
G01 X13.4601 Y20.7400
G01 X13.4467 Y20.7518
G01 X13.4322 Y20.7618
G01 X13.4165 Y20.7700
G01 X13.4023 Y20.7754
G01 X13.3877 Y20.7793
G01 X13.3727 Y20.7817
G01 X13.3576 Y20.7825
G01 X12.1453 Y20.7825
G01 X12.1453 Y23.4879
G01 X12.1642 Y23.5023
G01 X12.2457 Y23.5763
G01 X12.3197 Y23.6578
G01 X12.3260 Y23.6658
G01 X12.3892 Y23.7513
G01 X12.4438 Y23.8420
G01 X12.4505 Y23.8546
G01 X12.4942 Y23.9472
G01 X12.4983 Y23.9572
G01 X12.5340 Y24.0576
G01 X12.5607 Y24.1638
G01 X12.5626 Y24.1740
G01 X12.5771 Y24.2719
G01 X12.5785 Y24.2860
G01 X12.5835 Y24.3920
G01 X12.5835 Y26.4080
G01 X12.5785 Y26.5140
G01 X12.5771 Y26.5281
G01 X12.5626 Y26.6260
G01 X12.5598 Y26.6400
G01 X12.5340 Y26.7424
G01 X12.4983 Y26.8428
G01 X12.4942 Y26.8528
G01 X12.4491 Y26.9483
G01 X12.4438 Y26.9580
G01 X12.3929 Y27.0428
G01 X12.3850 Y27.0547
G01 X12.3260 Y27.1342
G01 X12.3197 Y27.1422
G01 X12.2457 Y27.2237
G01 X12.1672 Y27.2950
G01 X12.1562 Y27.3040
G01 X12.0707 Y27.3672
G01 X11.9800 Y27.4218
G01 X11.9703 Y27.4271
G01 X11.8779 Y27.4708
G01 X11.8648 Y27.4763
G01 X11.7644 Y27.5120
G01 X11.6582 Y27.5387
G01 X11.6480 Y27.5406
G01 X11.5501 Y27.5551
G01 X11.5360 Y27.5565
G01 X11.4300 Y27.5615
G01 X11.3240 Y27.5565
G01 X11.3099 Y27.5551
G01 X11.2120 Y27.5406
G01 X11.1980 Y27.5378
G01 X11.0956 Y27.5120
G01 X10.9952 Y27.4763
G01 X10.9852 Y27.4722
G01 X10.8897 Y27.4271
G01 X10.8800 Y27.4218
G01 X10.7893 Y27.3672
G01 X10.7038 Y27.3040
G01 X10.6958 Y27.2977
G01 X10.6143 Y27.2237
G01 X10.5403 Y27.1422
G01 X10.5340 Y27.1342
G01 X10.4750 Y27.0547
G01 X10.4671 Y27.0428
G01 X10.4162 Y26.9580
G01 X10.4109 Y26.9483
G01 X10.3672 Y26.8559
G01 X10.3617 Y26.8428
G01 X10.3284 Y26.7496
G01 X10.3243 Y26.7360
G01 X10.2993 Y26.6362
G01 X10.2974 Y26.6260
G01 X10.2821 Y26.5213
G01 X10.2765 Y26.4080
G01 X10.2765 Y24.3920
G01 X10.2821 Y24.2787
G01 X10.2974 Y24.1740
G01 X10.3002 Y24.1600
G01 X10.3260 Y24.0576
G01 X10.3617 Y23.9572
G01 X10.3658 Y23.9472
G01 X10.4109 Y23.8517
G01 X10.4162 Y23.8420
G01 X10.4671 Y23.7572
G01 X10.4750 Y23.7453
G01 X10.5340 Y23.6658
G01 X10.5403 Y23.6578
G01 X10.6094 Y23.5815
G01 X10.6195 Y23.5714
G01 X10.6928 Y23.5050
G01 X10.7038 Y23.4960
G01 X10.7893 Y23.4328
G01 X10.8547 Y23.3934
G01 X10.8547 Y20.5000
G01 X10.8579 Y20.4365
G01 X10.8659 Y20.3811
G01 X10.8678 Y20.3710
G01 X10.8824 Y20.3131
G01 X10.9013 Y20.2597
G01 X10.9053 Y20.2497
G01 X10.9277 Y20.2022
G01 X10.9344 Y20.1896
G01 X10.9634 Y20.1416
G01 X10.9968 Y20.0963
G01 X11.0032 Y20.0883
G01 X11.0437 Y20.0437
G01 X11.1437 Y19.9438
G01 X11.0100 Y19.8101
G01 X10.9982 Y19.7967
G01 X10.9882 Y19.7822
G01 X10.9800 Y19.7665
G01 X10.9746 Y19.7523
G01 X10.9707 Y19.7377
G01 X10.9683 Y19.7227
G01 X10.9675 Y19.7076
G01 X10.9675 Y18.3924
G01 X10.9681 Y18.3806
G01 X9.4253 Y16.8379
G01 X9.3713 Y16.8919
G01 X9.3579 Y16.9037
G01 X9.3433 Y16.9137
G01 X9.3276 Y16.9219
G01 X9.3135 Y16.9273
G01 X9.2989 Y16.9312
G01 X9.2839 Y16.9336
G01 X9.2688 Y16.9344
G01 X8.5112 Y16.9344
G01 X8.4961 Y16.9336
G01 X8.4811 Y16.9312
G01 X8.4665 Y16.9273
G01 X8.4524 Y16.9219
G01 X8.4367 Y16.9137
G01 X8.4221 Y16.9037
G01 X8.4087 Y16.8919
G01 X7.8731 Y16.3563
G01 X7.8613 Y16.3429
G01 X7.8513 Y16.3283
G01 X7.8431 Y16.3126
G01 X7.8377 Y16.2985
G01 X7.8338 Y16.2839
G01 X7.8314 Y16.2689
G01 X7.8306 Y16.2538
G01 X7.8306 Y15.4962
G01 X7.8314 Y15.4811
G01 X7.8338 Y15.4661
G01 X7.8377 Y15.4515
G01 X7.8431 Y15.4374
G01 X7.8513 Y15.4217
G01 X7.8613 Y15.4071
G00 Z2.0000
G00 X0.7271 Y15.4871
G01 F50.00
G01 Z-0.1500
G01 F40.00
G01 X0.7261 Y15.4746
G01 X0.7245 Y15.4302
G01 X0.7277 Y13.7800
G01 X0.7294 Y13.7498
G01 X0.7301 Y13.7291
G01 X0.7319 Y13.7101
G01 X0.7345 Y13.6894
G01 X0.7385 Y13.6689
G01 X0.7418 Y13.6482
G01 X0.7459 Y13.6300
G01 X0.7511 Y13.6101
G01 X0.7577 Y13.5899
G01 X0.7637 Y13.5696
G01 X0.7701 Y13.5520
G01 X0.7778 Y13.5327
G01 X0.7869 Y13.5135
G01 X0.7954 Y13.4942
G01 X0.8055 Y13.4747
G01 X0.8138 Y13.4598
G01 X0.8253 Y13.4420
G01 X0.8361 Y13.4239
G01 X0.8463 Y13.4089
G01 X0.8590 Y13.3917
G01 X0.8725 Y13.3756
G01 X0.8854 Y13.3591
G01 X0.8971 Y13.3460
G01 X0.9119 Y13.3303
G01 X0.9277 Y13.3157
G01 X0.9430 Y13.3006
G01 X0.9562 Y13.2892
G01 X0.9723 Y13.2760
G01 X0.9898 Y13.2633
G01 X1.0071 Y13.2502
G01 X1.0400 Y13.2290
G01 X1.0585 Y13.2191
G01 X1.0766 Y13.2085
G01 X1.0951 Y13.1994
G01 X1.1123 Y13.1915
G01 X1.1320 Y13.1840
G01 X1.1514 Y13.1758
G01 X1.1700 Y13.1693
G01 X1.1886 Y13.1634
G01 X1.2092 Y13.1583
G01 X1.2297 Y13.1526
G01 X1.2474 Y13.1489
G01 X1.2679 Y13.1452
G01 X1.2890 Y13.1427
G01 X1.3101 Y13.1396
G01 X1.3314 Y13.1379
G01 X1.3493 Y13.1370
G01 X1.3703 Y13.1373
G01 X1.3912 Y13.1368
G01 X1.4103 Y13.1377
G01 X1.4309 Y13.1392
G01 X1.4518 Y13.1422
G01 X1.4727 Y13.1444
G01 X1.4894 Y13.1472
G01 X1.5114 Y13.1517
G01 X1.5317 Y13.1573
G01 X1.5521 Y13.1621
G01 X1.5731 Y13.1685
G01 X1.5898 Y13.1743
G01 X1.6091 Y13.1823
G01 X1.6286 Y13.1896
G01 X1.6474 Y13.1980
G01 X1.6623 Y13.2053
G01 X1.6441 Y13.1852
G01 X1.6378 Y13.1772
G01 X1.5783 Y13.0971
G01 X1.5704 Y13.0853
G01 X1.5191 Y12.9997
G01 X1.5138 Y12.9900
G01 X1.4684 Y12.8939
G01 X1.4643 Y12.8838
G01 X1.4307 Y12.7899
G01 X1.4266 Y12.7763
G01 X1.4015 Y12.6758
G01 X1.3996 Y12.6656
G01 X1.3841 Y12.5601
G01 X1.3785 Y12.4460
G01 X1.3785 Y10.4140
G01 X1.3841 Y10.2999
G01 X1.3996 Y10.1944
G01 X1.4015 Y10.1842
G01 X1.4284 Y10.0773
G01 X1.4643 Y9.9762
G01 X1.4698 Y9.9630
G01 X1.5138 Y9.8700
G01 X1.5191 Y9.8603
G01 X1.5704 Y9.7747
G01 X1.5783 Y9.7629
G01 X1.6378 Y9.6828
G01 X1.6441 Y9.6748
G01 X1.6671 Y9.6494
G01 X1.6589 Y9.6538
G01 X1.6430 Y9.6611
G01 X1.6254 Y9.6685
G01 X1.6043 Y9.6759
G01 X1.5834 Y9.6840
G01 X1.5660 Y9.6894
G01 X1.5481 Y9.6945
G01 X1.5263 Y9.6992
G01 X1.5044 Y9.7045
G01 X1.4863 Y9.7078
G01 X1.4678 Y9.7105
G01 X1.4458 Y9.7123
G01 X1.4239 Y9.7148
G01 X1.4049 Y9.7158
G01 X1.3870 Y9.7162
G01 X1.3646 Y9.7153
G01 X1.3423 Y9.7150
G01 X1.3242 Y9.7136
G01 X1.3055 Y9.7116
G01 X1.2834 Y9.7079
G01 X1.2613 Y9.7048
G01 X1.2433 Y9.7012
G01 X1.2256 Y9.6970
G01 X1.2037 Y9.6904
G01 X1.1818 Y9.6844
G01 X1.1642 Y9.6783
G01 X1.1477 Y9.6721
G01 X1.1274 Y9.6630
G01 X1.1069 Y9.6546
G01 X1.0902 Y9.6464
G01 X1.0736 Y9.6377
G01 X1.0546 Y9.6260
G01 X1.0353 Y9.6150
G01 X1.0208 Y9.6056
G01 X1.0046 Y9.5943
G01 X0.9872 Y9.5803
G01 X0.9694 Y9.5669
G01 X0.9551 Y9.5546
G01 X0.9419 Y9.5426
G01 X0.9262 Y9.5265
G01 X0.9101 Y9.5107
G01 X0.8984 Y9.4978
G01 X0.8859 Y9.4833
G01 X0.8724 Y9.4654
G01 X0.8585 Y9.4479
G01 X0.8475 Y9.4321
G01 X0.8381 Y9.4176
G01 X0.8270 Y9.3981
G01 X0.8153 Y9.3789
G01 X0.7986 Y9.3460
G01 X0.7901 Y9.3254
G01 X0.7810 Y9.3049
G01 X0.7685 Y9.2698
G01 X0.7628 Y9.2486
G01 X0.7564 Y9.2272
G01 X0.7522 Y9.2095
G01 X0.7484 Y9.1909
G01 X0.7455 Y9.1691
G01 X0.7418 Y9.1473
G01 X0.7399 Y9.1302
G01 X0.7385 Y9.1108
G01 X0.7384 Y9.0994
G01 X0.7373 Y9.0777
G01 X0.7445 Y5.3345
G01 X0.7463 Y5.3029
G01 X0.7471 Y5.2804
G01 X0.7488 Y5.2629
G01 X0.7513 Y5.2439
G01 X0.7556 Y5.2219
G01 X0.7592 Y5.1998
G01 X0.7632 Y5.1825
G01 X0.7678 Y5.1649
G01 X0.7816 Y5.1209
G01 X0.7874 Y5.1050
G01 X0.7947 Y5.0869
G01 X0.8042 Y5.0669
G01 X0.8132 Y5.0466
G01 X0.8306 Y5.0142
G01 X0.8428 Y4.9952
G01 X0.8545 Y4.9759
G01 X0.8758 Y4.9461
G01 X0.8901 Y4.9291
G01 X0.9039 Y4.9116
G01 X0.9291 Y4.8844
G01 X0.9455 Y4.8693
G01 X0.9614 Y4.8537
G01 X0.9760 Y4.8411
G01 X0.9895 Y4.8301
G01 X1.0079 Y4.8169
G01 X1.0260 Y4.8033
G01 X1.0416 Y4.7929
G01 X1.0567 Y4.7836
G01 X1.0766 Y4.7729
G01 X1.0961 Y4.7617
G01 X1.1108 Y4.7543
G01 X1.1290 Y4.7460
G01 X1.1498 Y4.7381
G01 X1.1703 Y4.7294
G01 X1.2057 Y4.7178
G01 X1.2275 Y4.7125
G01 X1.2491 Y4.7066
G01 X1.2848 Y4.6996
G01 X1.3072 Y4.6971
G01 X1.3294 Y4.6939
G01 X1.3476 Y4.6924
G01 X1.3659 Y4.6915
G01 X1.3884 Y4.6918
G01 X1.4109 Y4.6914
G01 X1.4294 Y4.6923
G01 X1.4476 Y4.6937
G01 X1.4696 Y4.6968
G01 X1.4920 Y4.6993
G01 X1.5108 Y4.7026
G01 X1.5280 Y4.7062
G01 X1.5497 Y4.7120
G01 X1.5717 Y4.7174
G01 X1.5889 Y4.7227
G01 X1.6062 Y4.7286
G01 X1.6271 Y4.7373
G01 X1.6481 Y4.7453
G01 X1.6705 Y4.7556
G01 X0.8500 Y3.9351
G01 X0.8382 Y3.9217
G01 X0.8282 Y3.9072
G01 X0.8200 Y3.8915
G01 X0.8146 Y3.8773
G01 X0.8107 Y3.8627
G01 X0.8083 Y3.8477
G01 X0.8075 Y3.8326
G01 X0.8075 Y2.5174
G01 X0.8083 Y2.5023
G01 X0.8107 Y2.4873
G01 X0.8146 Y2.4727
G01 X0.8200 Y2.4585
G01 X0.8282 Y2.4428
G01 X0.8382 Y2.4283
G01 X0.8500 Y2.4149
G01 X1.6795 Y1.5854
G01 X1.6602 Y1.5946
G01 X1.6441 Y1.6015
G01 X1.6218 Y1.6094
G01 X1.5998 Y1.6179
G01 X1.5665 Y1.6279
G01 X1.5436 Y1.6329
G01 X1.5207 Y1.6385
G01 X1.5026 Y1.6418
G01 X1.4872 Y1.6441
G01 X1.4635 Y1.6463
G01 X1.4397 Y1.6490
G01 X1.4253 Y1.6497
G01 X1.4054 Y1.6503
G01 X1.3819 Y1.6494
G01 X1.3584 Y1.6491
G01 X1.3412 Y1.6479
G01 X1.3247 Y1.6461
G01 X1.2771 Y1.6389
G01 X1.2442 Y1.6317
G01 X1.2213 Y1.6249
G01 X1.1984 Y1.6186
G01 X1.1661 Y1.6072
G01 X1.1445 Y1.5976
G01 X1.1228 Y1.5886
G01 X1.1067 Y1.5808
G01 X1.0923 Y1.5733
G01 X1.0717 Y1.5609
G01 X1.0510 Y1.5489
G01 X1.0371 Y1.5399
G01 X1.0232 Y1.5302
G01 X1.0045 Y1.5154
G01 X0.9853 Y1.5009
G01 X0.9726 Y1.4901
G01 X0.9602 Y1.4789
G01 X0.9260 Y1.4448
G01 X0.9146 Y1.4323
G01 X0.9035 Y1.4193
G01 X0.8895 Y1.4006
G01 X0.8748 Y1.3823
G01 X0.8645 Y1.3677
G01 X0.8555 Y1.3538
G01 X0.8437 Y1.3333
G01 X0.8313 Y1.3129
G01 X0.8232 Y1.2976
G01 X0.8160 Y1.2829
G01 X0.8067 Y1.2608
G01 X0.7970 Y1.2390
G01 X0.7913 Y1.2236
G01 X0.7856 Y1.2071
G01 X0.7793 Y1.1842
G01 X0.7724 Y1.1613
G01 X0.7682 Y1.1432
G01 X0.7651 Y1.1281
G01 X0.7617 Y1.1048
G01 X0.7577 Y1.0814
G01 X0.7558 Y1.0635
G01 X0.7546 Y1.0471
G01 X0.7531 Y1.0043
G01 X0.7535 Y0.7998
G01 X0.7548 Y0.7763
G01 X0.7549 Y0.7619
G01 X0.7562 Y0.7439
G01 X0.7603 Y0.7093
G01 X0.7630 Y0.6952
G01 X0.7650 Y0.6811
G01 X0.7687 Y0.6629
G01 X0.7768 Y0.6301
G01 X0.7814 Y0.6159
G01 X0.7853 Y0.6017
G01 X0.7964 Y0.5704
G01 X0.8036 Y0.5523
G01 X0.8098 Y0.5394
G01 X0.8152 Y0.5262
G01 X0.8235 Y0.5092
G01 X0.8396 Y0.4795
G01 X0.8474 Y0.4674
G01 X0.8546 Y0.4548
G01 X0.8649 Y0.4392
G01 X0.8846 Y0.4116
G01 X0.8940 Y0.4004
G01 X0.9028 Y0.3887
G01 X0.9150 Y0.3746
G01 X0.9379 Y0.3499
G01 X0.9487 Y0.3399
G01 X0.9590 Y0.3294
G01 X0.9723 Y0.3174
G01 X0.9986 Y0.2954
G01 X1.0104 Y0.2869
G01 X1.0217 Y0.2779
G01 X1.0494 Y0.2591
G01 X1.0657 Y0.2489
G01 X1.0784 Y0.2420
G01 X1.0907 Y0.2346
G01 X1.1070 Y0.2260
G01 X1.1378 Y0.2114
G01 X1.1513 Y0.2062
G01 X1.1644 Y0.2003
G01 X1.1825 Y0.1936
G01 X1.2150 Y0.1831
G01 X1.2287 Y0.1797
G01 X1.2423 Y0.1756
G01 X1.2603 Y0.1714
G01 X1.2938 Y0.1650
G01 X1.3084 Y0.1633
G01 X1.3230 Y0.1609
G01 X1.3392 Y0.1591
G01 X1.3745 Y0.1568
G01 X1.3993 Y0.1562
G01 X42.8235 Y0.2130
G01 X42.8835 Y0.2161
G01 X42.9140 Y0.2198
G01 X42.9389 Y0.2246
G01 X42.9640 Y0.2289
G01 X42.9938 Y0.2364
G01 X43.0178 Y0.2443
G01 X43.0422 Y0.2518
G01 X43.0705 Y0.2628
G01 X43.1172 Y0.2845
G01 X43.1327 Y0.2927
G01 X43.1439 Y0.2990
G01 X43.1652 Y0.3128
G01 X43.1867 Y0.3259
G01 X43.2117 Y0.3439
G01 X43.2511 Y0.3763
G01 X43.2618 Y0.3859
G01 X43.2734 Y0.3971
G01 X43.3088 Y0.4346
G01 X43.3279 Y0.4576
G01 X43.3583 Y0.4993
G01 X43.3647 Y0.5090
G01 X43.3746 Y0.5249
G01 X43.3992 Y0.5697
G01 X43.4123 Y0.5974
G01 X43.4213 Y0.6209
G01 X43.4309 Y0.6442
G01 X43.4404 Y0.6737
G01 X43.4530 Y0.7231
G01 X43.4556 Y0.7359
G01 X43.4586 Y0.7528
G01 X43.4650 Y0.8037
G01 X43.4669 Y0.8346
G01 X43.4665 Y0.8598
G01 X43.4667 Y0.8851
G01 X43.4659 Y0.9015
G01 X43.4647 Y0.9156
G01 X43.4582 Y0.9662
G01 X43.4522 Y0.9965
G01 X43.4456 Y1.0208
G01 X43.4395 Y1.0452
G01 X43.4361 Y1.0558
G01 X43.4299 Y1.0744
G01 X43.4106 Y1.1223
G01 X43.3976 Y1.1495
G01 X43.3851 Y1.1715
G01 X43.3729 Y1.1939
G01 X43.3562 Y1.2198
G01 X43.3258 Y1.2609
G01 X43.3154 Y1.2736
G01 X43.3063 Y1.2842
G01 X43.2887 Y1.3022
G01 X43.2715 Y1.3207
G01 X43.2623 Y1.3294
G01 X43.2489 Y1.3416
G01 X43.2089 Y1.3741
G01 X43.1837 Y1.3920
G01 X43.1741 Y1.3978
G01 X43.1519 Y1.4123
G01 X42.8697 Y1.5754
G01 X42.3754 Y2.0697
G01 X42.0258 Y2.6752
G01 X41.8449 Y3.3505
G01 X41.8449 Y4.0495
G01 X42.0258 Y4.7248
G01 X42.3754 Y5.3303
G01 X42.8697 Y5.8246
G01 X43.4752 Y6.1742
G01 X44.1505 Y6.3551
G01 X44.8495 Y6.3551
G01 X45.5248 Y6.1742
G01 X46.1303 Y5.8246
G01 X46.6377 Y5.3171
G01 X46.6462 Y5.3059
G01 X46.6805 Y5.2656
G01 X46.7003 Y5.2452
G01 X46.7397 Y5.2093
G01 X46.7617 Y5.1917
G01 X46.8056 Y5.1609
G01 X46.8294 Y5.1464
G01 X46.8770 Y5.1212
G01 X46.9028 Y5.1096
G01 X46.9276 Y5.1006
G01 X46.9522 Y5.0911
G01 X46.9797 Y5.0827
G01 X47.0053 Y5.0769
G01 X47.0310 Y5.0705
G01 X47.0592 Y5.0657
G01 X47.1125 Y5.0601
G01 X47.1405 Y5.0589
G01 X47.1939 Y5.0600
G01 X47.2107 Y5.0612
G01 X47.2220 Y5.0624
G01 X47.2742 Y5.0701
G01 X47.2851 Y5.0720
G01 X47.3021 Y5.0761
G01 X47.3531 Y5.0903
G01 X47.3639 Y5.0939
G01 X47.3800 Y5.0998
G01 X47.4291 Y5.1205
G01 X47.4546 Y5.1332
G01 X47.5007 Y5.1601
G01 X47.5239 Y5.1756
G01 X47.5666 Y5.2083
G01 X47.5799 Y5.2192
G01 X47.5878 Y5.2266
G01 X47.6259 Y5.2644
G01 X47.6377 Y5.2771
G01 X47.6446 Y5.2854
G01 X47.6772 Y5.3270
G01 X47.6829 Y5.3350
G01 X47.6933 Y5.3505
G01 X47.7205 Y5.3961
G01 X47.7336 Y5.4215
G01 X47.7548 Y5.4701
G01 X47.7645 Y5.4968
G01 X47.7794 Y5.5478
G01 X47.7832 Y5.5634
G01 X47.7856 Y5.5753
G01 X47.7941 Y5.6279
G01 X47.7959 Y5.6453
G01 X47.7968 Y5.6564
G01 X47.7987 Y5.7047
G01 X47.7178 Y46.4929
G01 X47.7168 Y46.5231
G01 X47.7147 Y46.5439
G01 X47.7134 Y46.5649
G01 X47.7106 Y46.5861
G01 X47.7077 Y46.6039
G01 X47.7030 Y46.6247
G01 X47.6989 Y46.6455
G01 X47.6947 Y46.6620
G01 X47.6890 Y46.6819
G01 X47.6744 Y46.7237
G01 X47.6703 Y46.7343
G01 X47.6317 Y46.8277
G01 X47.6215 Y46.8493
G01 X47.6155 Y46.8631
G01 X47.6078 Y46.8786
G01 X47.6037 Y46.8857
G01 X47.6000 Y46.8931
G01 X47.5908 Y46.9092
G01 X47.5829 Y46.9210
G01 X47.5758 Y46.9334
G01 X47.5561 Y46.9617
G01 X47.5455 Y46.9758
G01 X47.5357 Y46.9873
G01 X47.5265 Y46.9992
G01 X47.5045 Y47.0237
G01 X47.4909 Y47.0377
G01 X47.4802 Y47.0473
G01 X47.4701 Y47.0574
G01 X47.4568 Y47.0693
G01 X47.4300 Y47.0911
G01 X47.4178 Y47.0997
G01 X47.4060 Y47.1088
G01 X47.3913 Y47.1188
G01 X47.3622 Y47.1370
G01 X47.3495 Y47.1436
G01 X47.3369 Y47.1511
G01 X47.3206 Y47.1594
G01 X47.2895 Y47.1737
G01 X47.2760 Y47.1787
G01 X47.2628 Y47.1845
G01 X47.2447 Y47.1909
G01 X47.2129 Y47.2009
G01 X47.1985 Y47.2043
G01 X47.1841 Y47.2084
G01 X47.1673 Y47.2121
G01 X47.1333 Y47.2182
G01 X47.1188 Y47.2197
G01 X47.1044 Y47.2220
G01 X47.0861 Y47.2237
G01 X47.0524 Y47.2255
G01 X47.0374 Y47.2251
G01 X47.0225 Y47.2255
G01 X46.9890 Y47.2240
G01 X46.9704 Y47.2223
G01 X46.9559 Y47.2201
G01 X46.9415 Y47.2187
G01 X46.9237 Y47.2158
G01 X46.8906 Y47.2091
G01 X46.8763 Y47.2051
G01 X46.8618 Y47.2018
G01 X46.8456 Y47.1971
G01 X46.8356 Y47.1935
G01 X46.8295 Y47.1918
G01 X46.7890 Y47.1769
G01 X46.2292 Y46.9449
G01 X45.5707 Y46.9449
G01 X45.2109 Y47.0940
G01 X45.1898 Y47.1015
G01 X45.1768 Y47.1068
G01 X45.1606 Y47.1122
G01 X45.1514 Y47.1147
G01 X45.1424 Y47.1178
G01 X45.1248 Y47.1225
G01 X45.1119 Y47.1252
G01 X45.0990 Y47.1286
G01 X45.0811 Y47.1322
G01 X45.0716 Y47.1335
G01 X45.0623 Y47.1353
G01 X45.0446 Y47.1378
G01 X45.0318 Y47.1388
G01 X45.0190 Y47.1405
G01 X45.0001 Y47.1419
G01 X44.9640 Y47.1428
G01 X44.9504 Y47.1422
G01 X44.9367 Y47.1423
G01 X44.9005 Y47.1397
G01 X44.8819 Y47.1376
G01 X44.8688 Y47.1352
G01 X44.8556 Y47.1336
G01 X44.8384 Y47.1305
G01 X44.8292 Y47.1282
G01 X44.8198 Y47.1265
G01 X44.8020 Y47.1222
G01 X44.7891 Y47.1181
G01 X44.7760 Y47.1148
G01 X44.7422 Y47.1034
G01 X44.7242 Y47.0965
G01 X44.7125 Y47.0911
G01 X44.7004 Y47.0864
G01 X44.6837 Y47.0787
G01 X44.6758 Y47.0744
G01 X44.6676 Y47.0706
G01 X44.6509 Y47.0617
G01 X44.6393 Y47.0545
G01 X44.6274 Y47.0479
G01 X44.6131 Y47.0389
G01 X44.6052 Y47.0333
G01 X44.5971 Y47.0282
G01 X44.5823 Y47.0176
G01 X44.5722 Y47.0094
G01 X44.5616 Y47.0018
G01 X44.5468 Y46.9896
G01 X44.5404 Y46.9835
G01 X44.5335 Y46.9779
G01 X44.5198 Y46.9653
G01 X44.5106 Y46.9557
G01 X44.5049 Y46.9503
G01 X44.5335 Y47.0307
G01 X44.5602 Y47.1369
G01 X44.5621 Y47.1471
G01 X44.5774 Y47.2518
G01 X44.5828 Y47.3579
G01 X44.5828 Y47.3721
G01 X44.5780 Y47.4709
G01 X44.5766 Y47.4851
G01 X44.5621 Y47.5829
G01 X44.5602 Y47.5931
G01 X44.5335 Y47.6993
G01 X44.4978 Y47.7996
G01 X44.4938 Y47.8096
G01 X44.4501 Y47.9022
G01 X44.4433 Y47.9147
G01 X44.3925 Y47.9996
G01 X44.3846 Y48.0114
G01 X44.3257 Y48.0908
G01 X44.3193 Y48.0988
G01 X44.2453 Y48.1803
G01 X44.1638 Y48.2543
G01 X44.1558 Y48.2607
G01 X44.0751 Y48.3205
G01 X44.0758 Y48.6564
G01 X44.0809 Y48.6619
G01 X44.0894 Y48.6699
G01 X44.1024 Y48.6839
G01 X44.1089 Y48.6919
G01 X44.1160 Y48.6994
G01 X44.1275 Y48.7133
G01 X44.1347 Y48.7232
G01 X44.1424 Y48.7326
G01 X44.1527 Y48.7470
G01 X44.1586 Y48.7564
G01 X44.1650 Y48.7653
G01 X44.1741 Y48.7797
G01 X44.1802 Y48.7906
G01 X44.1868 Y48.8012
G01 X44.1946 Y48.8156
G01 X44.2008 Y48.8285
G01 X44.2047 Y48.8358
G01 X44.2204 Y48.8698
G01 X44.4411 Y49.4027
G01 X44.4505 Y49.4295
G01 X44.4574 Y49.4472
G01 X44.4630 Y49.4649
G01 X44.4695 Y49.4886
G01 X44.4734 Y49.5075
G01 X44.4780 Y49.5262
G01 X44.4815 Y49.5459
G01 X44.4849 Y49.5688
G01 X44.4864 Y49.5882
G01 X44.4886 Y49.6075
G01 X44.4895 Y49.6254
G01 X44.4899 Y49.6501
G01 X44.4890 Y49.6696
G01 X44.4887 Y49.6891
G01 X44.4867 Y49.7136
G01 X44.4846 Y49.7317
G01 X44.4812 Y49.7505
G01 X44.4787 Y49.7694
G01 X44.4749 Y49.7877
G01 X44.4692 Y49.8116
G01 X44.4634 Y49.8301
G01 X44.4583 Y49.8488
G01 X44.4526 Y49.8656
G01 X44.4437 Y49.8889
G01 X44.4357 Y49.9065
G01 X44.4284 Y49.9243
G01 X44.4173 Y49.9467
G01 X44.4087 Y49.9627
G01 X44.3986 Y49.9790
G01 X44.3891 Y49.9957
G01 X44.3790 Y50.0111
G01 X44.3650 Y50.0308
G01 X44.3527 Y50.0460
G01 X44.3409 Y50.0617
G01 X44.3250 Y50.0801
G01 X44.3126 Y50.0936
G01 X44.2983 Y50.1073
G01 X44.2844 Y50.1214
G01 X44.2668 Y50.1372
G01 X44.2525 Y50.1492
G01 X44.2370 Y50.1606
G01 X44.2219 Y50.1727
G01 X44.2077 Y50.1827
G01 X44.1865 Y50.1964
G01 X44.1695 Y50.2059
G01 X44.1529 Y50.2161
G01 X44.1355 Y50.2251
G01 X44.1144 Y50.2353
G01 X44.0965 Y50.2425
G01 X44.0788 Y50.2503
G01 X44.0555 Y50.2589
G01 X44.0384 Y50.2645
G01 X44.0197 Y50.2694
G01 X44.0014 Y50.2750
G01 X43.9836 Y50.2791
G01 X43.9597 Y50.2839
G01 X43.9401 Y50.2865
G01 X43.9206 Y50.2898
G01 X43.9050 Y50.2915
G01 X43.8791 Y50.2933
G01 X43.8443 Y50.2944
G01 X4.4763 Y50.2404
G01 X4.4487 Y50.2389
G01 X4.4303 Y50.2385
G01 X4.4035 Y50.2360
G01 X4.3856 Y50.2336
G01 X4.3677 Y50.2301
G01 X4.3496 Y50.2274
G01 X4.3242 Y50.2218
G01 X4.3059 Y50.2170
G01 X4.2883 Y50.2112
G01 X4.2705 Y50.2061
G01 X4.2459 Y50.1972
G01 X4.2289 Y50.1904
G01 X4.2125 Y50.1825
G01 X4.1956 Y50.1754
G01 X4.1716 Y50.1632
G01 X4.1557 Y50.1543
G01 X4.1403 Y50.1444
G01 X4.1246 Y50.1352
G01 X4.1096 Y50.1251
G01 X4.0876 Y50.1091
G01 X4.0738 Y50.0975
G01 X4.0595 Y50.0866
G01 X4.0451 Y50.0739
G01 X4.0264 Y50.0563
G01 X4.0138 Y50.0427
G01 X4.0006 Y50.0297
G01 X3.9836 Y50.0102
G01 X3.9716 Y49.9956
G01 X3.9608 Y49.9804
G01 X3.9494 Y49.9657
G01 X3.9395 Y49.9513
G01 X3.9255 Y49.9289
G01 X3.9165 Y49.9124
G01 X3.9069 Y49.8961
G01 X3.8950 Y49.8724
G01 X3.8876 Y49.8563
G01 X3.8809 Y49.8390
G01 X3.8736 Y49.8219
G01 X3.8651 Y49.7978
G01 X3.8594 Y49.7797
G01 X3.8550 Y49.7620
G01 X3.8499 Y49.7443
G01 X3.8459 Y49.7265
G01 X3.8410 Y49.7000
G01 X3.8390 Y49.6818
G01 X3.8361 Y49.6638
G01 X3.8339 Y49.6379
G01 X3.8329 Y49.6190
G01 X3.8332 Y49.6009
G01 X3.8326 Y49.5830
G01 X3.8332 Y49.5641
G01 X3.8350 Y49.5381
G01 X3.8376 Y49.5197
G01 X3.8394 Y49.5011
G01 X3.8424 Y49.4828
G01 X3.8474 Y49.4573
G01 X3.8523 Y49.4393
G01 X3.8565 Y49.4211
G01 X3.8613 Y49.4048
G01 X3.8697 Y49.3796
G01 X3.8813 Y49.3486
G01 X4.0645 Y48.9062
G01 X4.0680 Y48.8840
G01 X4.0738 Y48.8579
G01 X4.0782 Y48.8410
G01 X4.0841 Y48.8231
G01 X4.0892 Y48.8050
G01 X4.0957 Y48.7867
G01 X4.1046 Y48.7641
G01 X4.1127 Y48.7470
G01 X4.1201 Y48.7296
G01 X4.1285 Y48.7128
G01 X4.1406 Y48.6906
G01 X4.1508 Y48.6747
G01 X4.1603 Y48.6585
G01 X4.1746 Y48.6376
G01 X4.1857 Y48.6224
G01 X4.1978 Y48.6079
G01 X4.2094 Y48.5930
G01 X4.2257 Y48.5746
G01 X4.2388 Y48.5607
G01 X4.2528 Y48.5478
G01 X4.2662 Y48.5344
G01 X4.2857 Y48.5173
G01 X4.2989 Y48.5065
G01 X4.3143 Y48.4954
G01 X4.3294 Y48.4836
G01 X4.3450 Y48.4730
G01 X4.3665 Y48.4595
G01 X4.3826 Y48.4508
G01 X4.3984 Y48.4414
G01 X4.4158 Y48.4325
G01 X4.4388 Y48.4218
G01 X4.4560 Y48.4152
G01 X4.4728 Y48.4078
G01 X4.4913 Y48.4012
G01 X4.5143 Y48.3939
G01 X4.5331 Y48.3891
G01 X4.5519 Y48.3838
G01 X4.5772 Y48.3783
G01 X4.5943 Y48.3753
G01 X4.6129 Y48.3731
G01 X4.6315 Y48.3702
G01 X4.6497 Y48.3685
G01 X4.6750 Y48.3670
G01 X4.6851 Y48.3671
G01 X4.6851 Y48.3206
G01 X4.6042 Y48.2607
G01 X4.5962 Y48.2543
G01 X4.5147 Y48.1803
G01 X4.4407 Y48.0988
G01 X4.4343 Y48.0908
G01 X4.3712 Y48.0054
G01 X4.3167 Y47.9147
G01 X4.3113 Y47.9050
G01 X4.2677 Y47.8127
G01 X4.2622 Y47.7996
G01 X4.2265 Y47.6993
G01 X4.1998 Y47.5931
G01 X4.1979 Y47.5829
G01 X4.1834 Y47.4851
G01 X4.1820 Y47.4709
G01 X4.1772 Y47.3721
G01 X4.1772 Y47.3579
G01 X4.1826 Y47.2518
G01 X4.1979 Y47.1471
G01 X4.1998 Y47.1369
G01 X4.2265 Y47.0307
G01 X4.2622 Y46.9304
G01 X4.2677 Y46.9173
G01 X4.3099 Y46.8278
G01 X4.3167 Y46.8153
G01 X4.3712 Y46.7246
G01 X4.4343 Y46.6392
G01 X4.4407 Y46.6312
G01 X4.5098 Y46.5549
G01 X4.5199 Y46.5448
G01 X4.5962 Y46.4757
G01 X4.6042 Y46.4693
G01 X4.6836 Y46.4104
G01 X4.6954 Y46.4025
G01 X4.7803 Y46.3517
G01 X4.7900 Y46.3463
G01 X4.8823 Y46.3027
G01 X4.8954 Y46.2972
G01 X4.9957 Y46.2615
G01 X5.0981 Y46.2357
G01 X5.1121 Y46.2329
G01 X5.2099 Y46.2184
G01 X5.2241 Y46.2170
G01 X5.3300 Y46.2120
G01 X5.4359 Y46.2170
G01 X5.4501 Y46.2184
G01 X5.5479 Y46.2329
G01 X5.5581 Y46.2348
G01 X5.6578 Y46.2597
G01 X5.6715 Y46.2639
G01 X5.7646 Y46.2972
G01 X5.7777 Y46.3027
G01 X5.8700 Y46.3463
G01 X5.8797 Y46.3517
G01 X5.9704 Y46.4062
G01 X6.0558 Y46.4693
G01 X6.0638 Y46.4757
G01 X6.1453 Y46.5497
G01 X6.2193 Y46.6312
G01 X6.2257 Y46.6392
G01 X6.2846 Y46.7186
G01 X6.2925 Y46.7304
G01 X6.3433 Y46.8153
G01 X6.3501 Y46.8278
G01 X6.3938 Y46.9204
G01 X6.3978 Y46.9304
G01 X6.4311 Y47.0235
G01 X6.4353 Y47.0372
G01 X6.4602 Y47.1369
G01 X6.4621 Y47.1471
G01 X6.4766 Y47.2449
G01 X6.4780 Y47.2591
G01 X6.4828 Y47.3579
G01 X6.4828 Y47.3721
G01 X6.4774 Y47.4782
G01 X6.4663 Y47.5545
G01 X6.4968 Y47.5883
G01 X6.5032 Y47.5963
G01 X6.5366 Y47.6416
G01 X6.5656 Y47.6896
G01 X6.5709 Y47.6993
G01 X6.5947 Y47.7497
G01 X6.5987 Y47.7597
G01 X6.6176 Y47.8131
G01 X6.6322 Y47.8710
G01 X6.6341 Y47.8811
G01 X6.6421 Y47.9365
G01 X6.6444 Y47.9795
G01 X6.6553 Y47.9813
G01 X6.6698 Y47.9828
G01 X6.6882 Y47.9861
G01 X6.7215 Y47.9933
G01 X6.7356 Y47.9975
G01 X6.7500 Y48.0010
G01 X6.7677 Y48.0066
G01 X6.7989 Y48.0176
G01 X6.8127 Y48.0237
G01 X6.8265 Y48.0290
G01 X6.8429 Y48.0365
G01 X6.8731 Y48.0518
G01 X6.8858 Y48.0594
G01 X6.8987 Y48.0663
G01 X6.9272 Y48.0844
G01 X6.9424 Y48.0949
G01 X6.9536 Y48.1038
G01 X6.9655 Y48.1121
G01 X6.9792 Y48.1231
G01 X7.0058 Y48.1466
G01 X7.0099 Y48.1509
G01 X7.0235 Y48.1634
G01 X7.2111 Y48.3510
G01 X7.6386 Y48.5281
G01 X8.1014 Y48.5281
G01 X8.5289 Y48.3510
G01 X8.6840 Y48.1959
G01 X8.7016 Y48.1800
G01 X8.7119 Y48.1699
G01 X8.7264 Y48.1573
G01 X8.7527 Y48.1364
G01 X8.7650 Y48.1282
G01 X8.7766 Y48.1194
G01 X8.7913 Y48.1096
G01 X8.8205 Y48.0920
G01 X8.8337 Y48.0853
G01 X8.8465 Y48.0779
G01 X8.8773 Y48.0631
G01 X8.8942 Y48.0559
G01 X8.9076 Y48.0512
G01 X8.9206 Y48.0457
G01 X8.9396 Y48.0391
G01 X8.9715 Y48.0296
G01 X8.9857 Y48.0265
G01 X8.9998 Y48.0226
G01 X9.0171 Y48.0190
G01 X9.0506 Y48.0134
G01 X9.0654 Y48.0120
G01 X9.0802 Y48.0099
G01 X9.0984 Y48.0085
G01 X9.1324 Y48.0072
G01 X9.1470 Y48.0078
G01 X9.1615 Y48.0075
G01 X9.1805 Y48.0085
G01 X9.2135 Y48.0114
G01 X9.2279 Y48.0138
G01 X9.2424 Y48.0153
G01 X9.2608 Y48.0186
G01 X9.2688 Y48.0205
G01 X9.2768 Y48.0219
G01 X9.2940 Y48.0259
G01 X9.3078 Y48.0300
G01 X9.3218 Y48.0334
G01 X9.3539 Y48.0437
G01 X9.3718 Y48.0503
G01 X9.3852 Y48.0562
G01 X9.3989 Y48.0614
G01 X9.4294 Y48.0758
G01 X9.4461 Y48.0845
G01 X9.4584 Y48.0920
G01 X9.4712 Y48.0988
G01 X9.4869 Y48.1085
G01 X9.5150 Y48.1275
G01 X9.5264 Y48.1366
G01 X9.5383 Y48.1450
G01 X9.5517 Y48.1557
G01 X9.5784 Y48.1791
G01 X9.5960 Y48.1959
G01 X9.7511 Y48.3510
G01 X10.1786 Y48.5281
G01 X10.6414 Y48.5281
G01 X11.0689 Y48.3510
G01 X11.2240 Y48.1959
G01 X11.2416 Y48.1800
G01 X11.2519 Y48.1699
G01 X11.2664 Y48.1573
G01 X11.2927 Y48.1364
G01 X11.3050 Y48.1282
G01 X11.3166 Y48.1194
G01 X11.3313 Y48.1096
G01 X11.3605 Y48.0920
G01 X11.3737 Y48.0853
G01 X11.3865 Y48.0779
G01 X11.4173 Y48.0631
G01 X11.4342 Y48.0559
G01 X11.4476 Y48.0512
G01 X11.4606 Y48.0457
G01 X11.4796 Y48.0391
G01 X11.5115 Y48.0296
G01 X11.5257 Y48.0265
G01 X11.5398 Y48.0226
G01 X11.5571 Y48.0190
G01 X11.5906 Y48.0134
G01 X11.6054 Y48.0120
G01 X11.6202 Y48.0099
G01 X11.6384 Y48.0085
G01 X11.6724 Y48.0072
G01 X11.6870 Y48.0078
G01 X11.7015 Y48.0075
G01 X11.7205 Y48.0085
G01 X11.7535 Y48.0114
G01 X11.7679 Y48.0138
G01 X11.7824 Y48.0153
G01 X11.8008 Y48.0186
G01 X11.8088 Y48.0205
G01 X11.8168 Y48.0219
G01 X11.8340 Y48.0259
G01 X11.8478 Y48.0300
G01 X11.8618 Y48.0334
G01 X11.8939 Y48.0437
G01 X11.9118 Y48.0503
G01 X11.9252 Y48.0562
G01 X11.9389 Y48.0614
G01 X11.9694 Y48.0758
G01 X11.9861 Y48.0845
G01 X11.9984 Y48.0920
G01 X12.0112 Y48.0988
G01 X12.0269 Y48.1085
G01 X12.0550 Y48.1275
G01 X12.0664 Y48.1366
G01 X12.0783 Y48.1450
G01 X12.0917 Y48.1557
G01 X12.1184 Y48.1791
G01 X12.1360 Y48.1959
G01 X12.2911 Y48.3510
G01 X12.7186 Y48.5281
G01 X13.1814 Y48.5281
G01 X13.6089 Y48.3510
G01 X13.7640 Y48.1959
G01 X13.7816 Y48.1800
G01 X13.7919 Y48.1699
G01 X13.8064 Y48.1573
G01 X13.8327 Y48.1364
G01 X13.8450 Y48.1282
G01 X13.8566 Y48.1194
G01 X13.8713 Y48.1096
G01 X13.9005 Y48.0920
G01 X13.9137 Y48.0853
G01 X13.9265 Y48.0779
G01 X13.9573 Y48.0631
G01 X13.9742 Y48.0559
G01 X13.9876 Y48.0512
G01 X14.0006 Y48.0457
G01 X14.0196 Y48.0391
G01 X14.0515 Y48.0296
G01 X14.0657 Y48.0265
G01 X14.0798 Y48.0226
G01 X14.0971 Y48.0190
G01 X14.1306 Y48.0134
G01 X14.1454 Y48.0120
G01 X14.1602 Y48.0099
G01 X14.1784 Y48.0085
G01 X14.2124 Y48.0072
G01 X14.2270 Y48.0078
G01 X14.2415 Y48.0075
G01 X14.2605 Y48.0085
G01 X14.2935 Y48.0114
G01 X14.3079 Y48.0138
G01 X14.3224 Y48.0153
G01 X14.3408 Y48.0186
G01 X14.3488 Y48.0205
G01 X14.3568 Y48.0219
G01 X14.3740 Y48.0259
G01 X14.3878 Y48.0300
G01 X14.4018 Y48.0334
G01 X14.4339 Y48.0437
G01 X14.4518 Y48.0503
G01 X14.4652 Y48.0562
G01 X14.4789 Y48.0614
G01 X14.5094 Y48.0758
G01 X14.5261 Y48.0845
G01 X14.5384 Y48.0920
G01 X14.5512 Y48.0988
G01 X14.5669 Y48.1085
G01 X14.5950 Y48.1275
G01 X14.6064 Y48.1366
G01 X14.6183 Y48.1450
G01 X14.6317 Y48.1557
G01 X14.6584 Y48.1791
G01 X14.6760 Y48.1959
G01 X14.8311 Y48.3510
G01 X15.2586 Y48.5281
G01 X15.7214 Y48.5281
G01 X16.1489 Y48.3510
G01 X16.3040 Y48.1959
G01 X16.3216 Y48.1800
G01 X16.3319 Y48.1699
G01 X16.3464 Y48.1573
G01 X16.3727 Y48.1364
G01 X16.3850 Y48.1282
G01 X16.3966 Y48.1194
G01 X16.4113 Y48.1096
G01 X16.4405 Y48.0920
G01 X16.4537 Y48.0853
G01 X16.4665 Y48.0779
G01 X16.4973 Y48.0631
G01 X16.5142 Y48.0559
G01 X16.5276 Y48.0512
G01 X16.5406 Y48.0457
G01 X16.5596 Y48.0391
G01 X16.5915 Y48.0296
G01 X16.6057 Y48.0265
G01 X16.6198 Y48.0226
G01 X16.6371 Y48.0190
G01 X16.6706 Y48.0134
G01 X16.6854 Y48.0120
G01 X16.7002 Y48.0099
G01 X16.7184 Y48.0085
G01 X16.7524 Y48.0072
G01 X16.7670 Y48.0078
G01 X16.7815 Y48.0075
G01 X16.8005 Y48.0085
G01 X16.8335 Y48.0114
G01 X16.8479 Y48.0138
G01 X16.8624 Y48.0153
G01 X16.8808 Y48.0186
G01 X16.8888 Y48.0205
G01 X16.8968 Y48.0219
G01 X16.9140 Y48.0259
G01 X16.9278 Y48.0300
G01 X16.9418 Y48.0334
G01 X16.9739 Y48.0437
G01 X16.9918 Y48.0503
G01 X17.0052 Y48.0562
G01 X17.0189 Y48.0614
G01 X17.0494 Y48.0758
G01 X17.0661 Y48.0845
G01 X17.0784 Y48.0920
G01 X17.0912 Y48.0988
G01 X17.1069 Y48.1085
G01 X17.1350 Y48.1275
G01 X17.1464 Y48.1366
G01 X17.1583 Y48.1450
G01 X17.1717 Y48.1557
G01 X17.1984 Y48.1791
G01 X17.2160 Y48.1959
G01 X17.3711 Y48.3510
G01 X17.7986 Y48.5281
G01 X18.2614 Y48.5281
G01 X18.6889 Y48.3510
G01 X18.8440 Y48.1959
G01 X18.8616 Y48.1800
G01 X18.8719 Y48.1699
G01 X18.8864 Y48.1573
G01 X18.9127 Y48.1364
G01 X18.9250 Y48.1282
G01 X18.9366 Y48.1194
G01 X18.9513 Y48.1096
G01 X18.9805 Y48.0920
G01 X18.9937 Y48.0853
G01 X19.0065 Y48.0779
G01 X19.0373 Y48.0631
G01 X19.0542 Y48.0559
G01 X19.0676 Y48.0512
G01 X19.0806 Y48.0457
G01 X19.0996 Y48.0391
G01 X19.1315 Y48.0296
G01 X19.1457 Y48.0265
G01 X19.1598 Y48.0226
G01 X19.1771 Y48.0190
G01 X19.2106 Y48.0134
G01 X19.2254 Y48.0120
G01 X19.2402 Y48.0099
G01 X19.2584 Y48.0085
G01 X19.2924 Y48.0072
G01 X19.3070 Y48.0078
G01 X19.3215 Y48.0075
G01 X19.3405 Y48.0085
G01 X19.3735 Y48.0114
G01 X19.3879 Y48.0138
G01 X19.4024 Y48.0153
G01 X19.4208 Y48.0186
G01 X19.4288 Y48.0205
G01 X19.4368 Y48.0219
G01 X19.4540 Y48.0259
G01 X19.4678 Y48.0300
G01 X19.4818 Y48.0334
G01 X19.5139 Y48.0437
G01 X19.5318 Y48.0503
G01 X19.5452 Y48.0562
G01 X19.5589 Y48.0614
G01 X19.5894 Y48.0758
G01 X19.6061 Y48.0845
G01 X19.6184 Y48.0920
G01 X19.6312 Y48.0988
G01 X19.6469 Y48.1085
G01 X19.6750 Y48.1275
G01 X19.6864 Y48.1366
G01 X19.6983 Y48.1450
G01 X19.7117 Y48.1557
G01 X19.7384 Y48.1791
G01 X19.7560 Y48.1959
G01 X19.9111 Y48.3510
G01 X20.3386 Y48.5281
G01 X20.8014 Y48.5281
G01 X21.2289 Y48.3510
G01 X21.3840 Y48.1959
G01 X21.4016 Y48.1800
G01 X21.4119 Y48.1699
G01 X21.4264 Y48.1573
G01 X21.4524 Y48.1367
G01 X21.4649 Y48.1282
G01 X21.4770 Y48.1191
G01 X21.5056 Y48.1007
G01 X21.5202 Y48.0921
G01 X21.5336 Y48.0853
G01 X21.5469 Y48.0777
G01 X21.5773 Y48.0631
G01 X21.5939 Y48.0560
G01 X21.6075 Y48.0512
G01 X21.6208 Y48.0456
G01 X21.6396 Y48.0391
G01 X21.6715 Y48.0296
G01 X21.6857 Y48.0265
G01 X21.6998 Y48.0226
G01 X21.7171 Y48.0190
G01 X21.7506 Y48.0134
G01 X21.7654 Y48.0120
G01 X21.7802 Y48.0099
G01 X21.7984 Y48.0085
G01 X21.8324 Y48.0072
G01 X21.8469 Y48.0078
G01 X21.8614 Y48.0075
G01 X21.8803 Y48.0084
G01 X21.9135 Y48.0114
G01 X21.9279 Y48.0138
G01 X21.9424 Y48.0153
G01 X21.9608 Y48.0186
G01 X21.9688 Y48.0205
G01 X21.9768 Y48.0219
G01 X21.9940 Y48.0259
G01 X22.0078 Y48.0300
G01 X22.0218 Y48.0334
G01 X22.0539 Y48.0437
G01 X22.0718 Y48.0503
G01 X22.0852 Y48.0562
G01 X22.0989 Y48.0614
G01 X22.1290 Y48.0756
G01 X22.1461 Y48.0845
G01 X22.1584 Y48.0920
G01 X22.1712 Y48.0988
G01 X22.1869 Y48.1085
G01 X22.2150 Y48.1275
G01 X22.2264 Y48.1366
G01 X22.2383 Y48.1450
G01 X22.2512 Y48.1552
G01 X22.2776 Y48.1784
G01 X22.2960 Y48.1959
G01 X22.4511 Y48.3510
G01 X22.8786 Y48.5281
G01 X23.3414 Y48.5281
G01 X23.7689 Y48.3510
G01 X23.9240 Y48.1959
G01 X23.9416 Y48.1800
G01 X23.9519 Y48.1699
G01 X23.9664 Y48.1573
G01 X23.9927 Y48.1364
G01 X24.0050 Y48.1282
G01 X24.0166 Y48.1194
G01 X24.0313 Y48.1096
G01 X24.0605 Y48.0920
G01 X24.0737 Y48.0853
G01 X24.0865 Y48.0779
G01 X24.1173 Y48.0631
G01 X24.1342 Y48.0559
G01 X24.1476 Y48.0512
G01 X24.1606 Y48.0457
G01 X24.1796 Y48.0391
G01 X24.2115 Y48.0296
G01 X24.2257 Y48.0265
G01 X24.2398 Y48.0226
G01 X24.2571 Y48.0190
G01 X24.2906 Y48.0134
G01 X24.3054 Y48.0120
G01 X24.3202 Y48.0099
G01 X24.3384 Y48.0085
G01 X24.3724 Y48.0072
G01 X24.3870 Y48.0078
G01 X24.4015 Y48.0075
G01 X24.4205 Y48.0085
G01 X24.4535 Y48.0114
G01 X24.4679 Y48.0138
G01 X24.4824 Y48.0153
G01 X24.5008 Y48.0186
G01 X24.5088 Y48.0205
G01 X24.5168 Y48.0219
G01 X24.5340 Y48.0259
G01 X24.5478 Y48.0300
G01 X24.5618 Y48.0334
G01 X24.5939 Y48.0437
G01 X24.6118 Y48.0503
G01 X24.6252 Y48.0562
G01 X24.6389 Y48.0614
G01 X24.6694 Y48.0758
G01 X24.6861 Y48.0845
G01 X24.6984 Y48.0920
G01 X24.7112 Y48.0988
G01 X24.7269 Y48.1085
G01 X24.7550 Y48.1275
G01 X24.7664 Y48.1366
G01 X24.7783 Y48.1450
G01 X24.7917 Y48.1557
G01 X24.8184 Y48.1791
G01 X24.8360 Y48.1959
G01 X24.9911 Y48.3510
G01 X25.4186 Y48.5281
G01 X25.8814 Y48.5281
G01 X26.3089 Y48.3510
G01 X26.4640 Y48.1959
G01 X26.4816 Y48.1800
G01 X26.4919 Y48.1699
G01 X26.5064 Y48.1573
G01 X26.5327 Y48.1364
G01 X26.5450 Y48.1282
G01 X26.5566 Y48.1194
G01 X26.5713 Y48.1096
G01 X26.6005 Y48.0920
G01 X26.6137 Y48.0853
G01 X26.6265 Y48.0779
G01 X26.6573 Y48.0631
G01 X26.6742 Y48.0559
G01 X26.6876 Y48.0512
G01 X26.7006 Y48.0457
G01 X26.7196 Y48.0391
G01 X26.7515 Y48.0296
G01 X26.7657 Y48.0265
G01 X26.7798 Y48.0226
G01 X26.7971 Y48.0190
G01 X26.8306 Y48.0134
G01 X26.8454 Y48.0120
G01 X26.8602 Y48.0099
G01 X26.8784 Y48.0085
G01 X26.9124 Y48.0072
G01 X26.9270 Y48.0078
G01 X26.9415 Y48.0075
G01 X26.9605 Y48.0085
G01 X26.9935 Y48.0114
G01 X27.0079 Y48.0138
G01 X27.0224 Y48.0153
G01 X27.0408 Y48.0186
G01 X27.0488 Y48.0205
G01 X27.0568 Y48.0219
G01 X27.0740 Y48.0259
G01 X27.0878 Y48.0300
G01 X27.1018 Y48.0334
G01 X27.1339 Y48.0437
G01 X27.1518 Y48.0503
G01 X27.1652 Y48.0562
G01 X27.1789 Y48.0614
G01 X27.2094 Y48.0758
G01 X27.2261 Y48.0845
G01 X27.2384 Y48.0920
G01 X27.2512 Y48.0988
G01 X27.2669 Y48.1085
G01 X27.2950 Y48.1275
G01 X27.3064 Y48.1366
G01 X27.3183 Y48.1450
G01 X27.3317 Y48.1557
G01 X27.3584 Y48.1791
G01 X27.3760 Y48.1959
G01 X27.5311 Y48.3510
G01 X27.9586 Y48.5281
G01 X28.4214 Y48.5281
G01 X28.8489 Y48.3510
G01 X29.0040 Y48.1959
G01 X29.0216 Y48.1800
G01 X29.0319 Y48.1699
G01 X29.0464 Y48.1573
G01 X29.0727 Y48.1364
G01 X29.0850 Y48.1282
G01 X29.0966 Y48.1194
G01 X29.1113 Y48.1096
G01 X29.1405 Y48.0920
G01 X29.1537 Y48.0853
G01 X29.1665 Y48.0779
G01 X29.1973 Y48.0631
G01 X29.2142 Y48.0559
G01 X29.2276 Y48.0512
G01 X29.2406 Y48.0457
G01 X29.2596 Y48.0391
G01 X29.2915 Y48.0296
G01 X29.3057 Y48.0265
G01 X29.3198 Y48.0226
G01 X29.3371 Y48.0190
G01 X29.3706 Y48.0134
G01 X29.3854 Y48.0120
G01 X29.4002 Y48.0099
G01 X29.4184 Y48.0085
G01 X29.4524 Y48.0072
G01 X29.4670 Y48.0078
G01 X29.4815 Y48.0075
G01 X29.5005 Y48.0085
G01 X29.5335 Y48.0114
G01 X29.5479 Y48.0138
G01 X29.5624 Y48.0153
G01 X29.5808 Y48.0186
G01 X29.5888 Y48.0205
G01 X29.5968 Y48.0219
G01 X29.6140 Y48.0259
G01 X29.6278 Y48.0300
G01 X29.6418 Y48.0334
G01 X29.6739 Y48.0437
G01 X29.6918 Y48.0503
G01 X29.7052 Y48.0562
G01 X29.7189 Y48.0614
G01 X29.7494 Y48.0758
G01 X29.7661 Y48.0845
G01 X29.7784 Y48.0920
G01 X29.7912 Y48.0988
G01 X29.8069 Y48.1085
G01 X29.8350 Y48.1275
G01 X29.8464 Y48.1366
G01 X29.8583 Y48.1450
G01 X29.8717 Y48.1557
G01 X29.8984 Y48.1791
G01 X29.9160 Y48.1959
G01 X30.0711 Y48.3510
G01 X30.4986 Y48.5281
G01 X30.9614 Y48.5281
G01 X31.3889 Y48.3510
G01 X31.5765 Y48.1634
G01 X31.5941 Y48.1474
G01 X31.6048 Y48.1370
G01 X31.6308 Y48.1152
G01 X31.6450 Y48.1042
G01 X31.6570 Y48.0960
G01 X31.6686 Y48.0872
G01 X31.6847 Y48.0765
G01 X31.7136 Y48.0591
G01 X31.7262 Y48.0527
G01 X31.7384 Y48.0456
G01 X31.7563 Y48.0368
G01 X31.7858 Y48.0238
G01 X31.8001 Y48.0186
G01 X31.8141 Y48.0128
G01 X31.8303 Y48.0072
G01 X32.1607 Y47.6768
G01 X32.1398 Y47.5931
G01 X32.1379 Y47.5829
G01 X32.1234 Y47.4851
G01 X32.1220 Y47.4709
G01 X32.1170 Y47.3650
G01 X32.1220 Y47.2591
G01 X32.1234 Y47.2449
G01 X32.1379 Y47.1471
G01 X32.1398 Y47.1369
G01 X32.1567 Y47.0692
G01 X31.7989 Y46.7114
G01 X31.7873 Y46.7063
G01 X31.7735 Y46.7010
G01 X31.7432 Y46.6867
G01 X31.7269 Y46.6782
G01 X31.7142 Y46.6706
G01 X31.7013 Y46.6637
G01 X31.6728 Y46.6456
G01 X31.6576 Y46.6351
G01 X31.6464 Y46.6262
G01 X31.6345 Y46.6179
G01 X31.6208 Y46.6069
G01 X31.5942 Y46.5834
G01 X31.5901 Y46.5791
G01 X31.5765 Y46.5666
G01 X31.3889 Y46.3790
G01 X31.0235 Y46.2277
G01 X30.9951 Y46.2148
G01 X30.9769 Y46.2051
G01 X30.9585 Y46.1961
G01 X30.9426 Y46.1871
G01 X30.9238 Y46.1755
G01 X30.9069 Y46.1635
G01 X30.8895 Y46.1520
G01 X30.8723 Y46.1391
G01 X30.8586 Y46.1281
G01 X30.8273 Y46.1003
G01 X30.8143 Y46.0878
G01 X30.2758 Y45.5493
G01 X30.2597 Y45.5315
G01 X30.2491 Y45.5207
G01 X30.2276 Y45.4951
G01 X30.2162 Y45.4804
G01 X30.2083 Y45.4686
G01 X30.1997 Y45.4573
G01 X30.1895 Y45.4421
G01 X30.1853 Y45.4348
G01 X30.1806 Y45.4278
G01 X30.1719 Y45.4129
G01 X30.1651 Y45.3995
G01 X30.1576 Y45.3864
G01 X30.1430 Y45.3560
G01 X30.1359 Y45.3394
G01 X30.1310 Y45.3255
G01 X30.1253 Y45.3118
G01 X30.1148 Y45.2800
G01 X30.1097 Y45.2625
G01 X30.1065 Y45.2480
G01 X30.1026 Y45.2338
G01 X30.0960 Y45.2004
G01 X30.0932 Y45.1820
G01 X30.0920 Y45.1679
G01 X30.0900 Y45.1539
G01 X30.0884 Y45.1349
G01 X30.0872 Y45.1018
G01 X30.0877 Y45.0864
G01 X30.0875 Y45.0711
G01 X30.0883 Y45.0541
G01 X30.0913 Y45.0197
G01 X30.0937 Y45.0051
G01 X30.0954 Y44.9903
G01 X30.1016 Y44.9578
G01 X30.1058 Y44.9393
G01 X30.1099 Y44.9255
G01 X30.1133 Y44.9115
G01 X30.1189 Y44.8934
G01 X30.1217 Y44.8859
G01 X30.1241 Y44.8782
G01 X30.1300 Y44.8622
G01 X30.1360 Y44.8485
G01 X30.1413 Y44.8345
G01 X30.1557 Y44.8040
G01 X30.1642 Y44.7877
G01 X30.1718 Y44.7750
G01 X30.1787 Y44.7621
G01 X30.1884 Y44.7464
G01 X30.2077 Y44.7179
G01 X30.2166 Y44.7068
G01 X30.2249 Y44.6951
G01 X30.2352 Y44.6822
G01 X30.2590 Y44.6550
G01 X30.2633 Y44.6509
G01 X30.2758 Y44.6373
G01 X30.5962 Y44.3169
G01 X30.7311 Y43.9912
G01 X30.7311 Y43.6388
G01 X30.7157 Y43.6015
G01 X30.6976 Y43.5518
G01 X30.6924 Y43.5347
G01 X30.6870 Y43.5152
G01 X30.6827 Y43.4939
G01 X30.6777 Y43.4727
G01 X30.6742 Y43.4526
G01 X30.6718 Y43.4351
G01 X30.6702 Y43.4137
G01 X30.6679 Y43.3922
G01 X30.6670 Y43.3727
G01 X30.6668 Y43.3539
G01 X30.6679 Y43.3325
G01 X30.6682 Y43.3109
G01 X30.6719 Y43.2727
G01 X30.6758 Y43.2512
G01 X30.6790 Y43.2296
G01 X30.6829 Y43.2112
G01 X30.6875 Y43.1924
G01 X30.6940 Y43.1716
G01 X30.6999 Y43.1506
G01 X30.7062 Y43.1325
G01 X30.7130 Y43.1148
G01 X30.7220 Y43.0953
G01 X30.7304 Y43.0755
G01 X30.7387 Y43.0588
G01 X30.7481 Y43.0412
G01 X30.7594 Y43.0231
G01 X30.7701 Y43.0045
G01 X30.7808 Y42.9885
G01 X30.7918 Y42.9730
G01 X30.8057 Y42.9559
G01 X30.8191 Y42.9385
G01 X30.8306 Y42.9252
G01 X30.8439 Y42.9108
G01 X30.8600 Y42.8954
G01 X30.8757 Y42.8796
G01 X30.8894 Y42.8673
G01 X30.9041 Y42.8549
G01 X30.9216 Y42.8420
G01 X30.9388 Y42.8285
G01 X30.9708 Y42.8073
G01 X30.9895 Y42.7969
G01 X31.0078 Y42.7860
G01 X31.0244 Y42.7774
G01 X31.0418 Y42.7690
G01 X31.0621 Y42.7608
G01 X31.0821 Y42.7521
G01 X31.1051 Y42.7440
G01 X31.1051 Y42.6043
G01 X31.0238 Y42.5440
G01 X31.0128 Y42.5350
G01 X30.9343 Y42.4637
G01 X30.8630 Y42.3852
G01 X30.8540 Y42.3742
G01 X30.7908 Y42.2887
G01 X30.7362 Y42.1980
G01 X30.7309 Y42.1883
G01 X30.6858 Y42.0928
G01 X30.6817 Y42.0828
G01 X30.6460 Y41.9824
G01 X30.6193 Y41.8762
G01 X30.6174 Y41.8660
G01 X30.6029 Y41.7681
G01 X30.6015 Y41.7540
G01 X30.5965 Y41.6480
G01 X30.5965 Y39.6320
G01 X30.6021 Y39.5187
G01 X30.6174 Y39.4140
G01 X30.6202 Y39.4000
G01 X30.6460 Y39.2976
G01 X30.6817 Y39.1972
G01 X30.6872 Y39.1841
G01 X30.7295 Y39.0946
G01 X30.7362 Y39.0820
G01 X30.7908 Y38.9913
G01 X30.8294 Y38.9390
G01 X30.8187 Y38.9444
G01 X30.8062 Y38.9516
G01 X30.7891 Y38.9600
G01 X30.7593 Y38.9732
G01 X30.7450 Y38.9784
G01 X30.7310 Y38.9842
G01 X30.6992 Y38.9947
G01 X30.6809 Y38.9999
G01 X30.6672 Y39.0029
G01 X30.6537 Y39.0067
G01 X30.6342 Y39.0108
G01 X30.6019 Y39.0161
G01 X30.5871 Y39.0175
G01 X30.5723 Y39.0196
G01 X30.5390 Y39.0218
G01 X30.5202 Y39.0223
G01 X30.5056 Y39.0217
G01 X30.4911 Y39.0220
G01 X30.4722 Y39.0211
G01 X30.4389 Y39.0181
G01 X30.4247 Y39.0157
G01 X30.4102 Y39.0142
G01 X30.3770 Y39.0079
G01 X30.3585 Y39.0037
G01 X30.3444 Y38.9995
G01 X30.3300 Y38.9960
G01 X30.3123 Y38.9904
G01 X30.2811 Y38.9794
G01 X30.2673 Y38.9733
G01 X30.2535 Y38.9680
G01 X30.2232 Y38.9537
G01 X30.2069 Y38.9452
G01 X30.1942 Y38.9376
G01 X30.1813 Y38.9307
G01 X30.1656 Y38.9210
G01 X30.1376 Y38.9021
G01 X30.1264 Y38.8932
G01 X30.1145 Y38.8849
G01 X30.1008 Y38.8739
G01 X30.0875 Y38.8624
G01 X30.0565 Y38.8336
G01 X29.8689 Y38.6460
G01 X29.4414 Y38.4689
G01 X29.4125 Y38.4689
G01 X29.3724 Y38.4675
G01 X29.3561 Y38.4657
G01 X29.3398 Y38.4646
G01 X29.3101 Y38.4605
G01 X29.2912 Y38.4572
G01 X29.2758 Y38.4534
G01 X29.2601 Y38.4504
G01 X29.2422 Y38.4458
G01 X29.2128 Y38.4370
G01 X29.1975 Y38.4312
G01 X29.1818 Y38.4260
G01 X29.1540 Y38.4146
G01 X29.1366 Y38.4067
G01 X29.1228 Y38.3993
G01 X29.1085 Y38.3926
G01 X29.0911 Y38.3829
G01 X29.0658 Y38.3675
G01 X29.0525 Y38.3581
G01 X29.0389 Y38.3494
G01 X29.0238 Y38.3384
G01 X29.0010 Y38.3204
G01 X28.9842 Y38.3053
G01 X28.9757 Y38.2982
G01 X28.9565 Y38.2800
G01 X21.3711 Y30.6946
G01 X21.1303 Y30.5949
G01 X13.8492 Y30.5949
G01 X13.8092 Y30.5935
G01 X13.7929 Y30.5917
G01 X13.7766 Y30.5906
G01 X13.7593 Y30.5884
G01 X13.7279 Y30.5832
G01 X13.7124 Y30.5794
G01 X13.6968 Y30.5764
G01 X13.6793 Y30.5719
G01 X13.6495 Y30.5630
G01 X13.6341 Y30.5571
G01 X13.6184 Y30.5519
G01 X13.5911 Y30.5408
G01 X13.5733 Y30.5327
G01 X13.5594 Y30.5252
G01 X13.5450 Y30.5184
G01 X13.5284 Y30.5092
G01 X13.5025 Y30.4935
G01 X13.4892 Y30.4841
G01 X13.4756 Y30.4754
G01 X13.4599 Y30.4639
G01 X13.4374 Y30.4461
G01 X13.4211 Y30.4314
G01 X13.4129 Y30.4246
G01 X13.3932 Y30.4060
G01 X13.1022 Y30.1149
G01 X13.0853 Y30.1050
G01 X13.0397 Y30.0755
G01 X13.0243 Y30.0642
G01 X13.0175 Y30.0590
G01 X12.9972 Y30.0414
G01 X12.9765 Y30.0243
G01 X12.9569 Y30.0054
G01 X12.9198 Y29.9649
G01 X12.9131 Y29.9570
G01 X12.9033 Y29.9444
G01 X12.8713 Y29.8993
G01 X12.8572 Y29.8765
G01 X12.8317 Y29.8285
G01 X12.8206 Y29.8040
G01 X12.8011 Y29.7527
G01 X12.7978 Y29.7426
G01 X12.7933 Y29.7270
G01 X12.7805 Y29.6742
G01 X12.7783 Y29.6634
G01 X12.7759 Y29.6474
G01 X12.7699 Y29.5933
G01 X12.7690 Y29.5826
G01 X12.7686 Y29.5661
G01 X12.7696 Y29.5115
G01 X12.7705 Y29.4955
G01 X12.7718 Y29.4846
G01 X12.7797 Y29.4304
G01 X12.7852 Y29.4042
G01 X12.7999 Y29.3515
G01 X12.8085 Y29.3265
G01 X12.8298 Y29.2756
G01 X12.8368 Y29.2610
G01 X12.8416 Y29.2518
G01 X12.8689 Y29.2045
G01 X12.8837 Y29.1822
G01 X12.9168 Y29.1385
G01 X12.9344 Y29.1182
G01 X12.9726 Y29.0793
G01 X12.9793 Y29.0732
G01 X12.9926 Y29.0614
G01 X13.0359 Y29.0272
G01 X13.0479 Y29.0186
G01 X13.0582 Y29.0118
G01 X13.1045 Y28.9840
G01 X13.1287 Y28.9714
G01 X13.1787 Y28.9495
G01 X13.1935 Y28.9438
G01 X13.2038 Y28.9402
G01 X13.2563 Y28.9247
G01 X13.2823 Y28.9188
G01 X13.3361 Y28.9099
G01 X13.3627 Y28.9073
G01 X13.4058 Y28.9053
G01 X30.1303 Y28.9051
G01 X30.3711 Y28.8054
G01 X31.2940 Y27.8825
G01 X31.3116 Y27.8666
G01 X31.3219 Y27.8565
G01 X31.3364 Y27.8439
G01 X31.3624 Y27.8233
G01 X31.3749 Y27.8148
G01 X31.3870 Y27.8057
G01 X31.4013 Y27.7962
G01 X31.4083 Y27.7922
G01 X31.4149 Y27.7877
G01 X31.4311 Y27.7782
G01 X31.4440 Y27.7717
G01 X31.4565 Y27.7645
G01 X31.4873 Y27.7497
G01 X31.5035 Y27.7428
G01 X31.5176 Y27.7377
G01 X31.5312 Y27.7320
G01 X31.5637 Y27.7212
G01 X31.5815 Y27.7162
G01 X31.5957 Y27.7131
G01 X31.6098 Y27.7092
G01 X31.6271 Y27.7056
G01 X31.6606 Y27.7000
G01 X31.6754 Y27.6986
G01 X31.6902 Y27.6965
G01 X31.7237 Y27.6943
G01 X31.7424 Y27.6938
G01 X31.7570 Y27.6944
G01 X31.7714 Y27.6941
G01 X31.7903 Y27.6950
G01 X31.8235 Y27.6980
G01 X31.8379 Y27.7004
G01 X31.8524 Y27.7019
G01 X31.8708 Y27.7052
G01 X31.9033 Y27.7123
G01 X31.9178 Y27.7165
G01 X31.9325 Y27.7201
G01 X31.9639 Y27.7303
G01 X31.9818 Y27.7369
G01 X31.9952 Y27.7428
G01 X32.0089 Y27.7480
G01 X32.0394 Y27.7624
G01 X32.0561 Y27.7711
G01 X32.0684 Y27.7786
G01 X32.0812 Y27.7854
G01 X32.1097 Y27.8035
G01 X32.1250 Y27.8141
G01 X32.1364 Y27.8232
G01 X32.1483 Y27.8316
G01 X32.1612 Y27.8418
G01 X32.1884 Y27.8657
G01 X32.2060 Y27.8825
G01 X33.1289 Y28.8054
G01 X33.3697 Y28.9051
G01 X40.3803 Y28.9051
G01 X40.6211 Y28.8054
G01 X41.7940 Y27.6325
G01 X41.8116 Y27.6165
G01 X41.8223 Y27.6061
G01 X41.8476 Y27.5848
G01 X41.8627 Y27.5730
G01 X41.8750 Y27.5648
G01 X41.8866 Y27.5560
G01 X41.9154 Y27.5374
G01 X41.9305 Y27.5285
G01 X41.9440 Y27.5216
G01 X41.9571 Y27.5142
G01 X41.9873 Y27.4997
G01 X42.0035 Y27.4928
G01 X42.0176 Y27.4877
G01 X42.0312 Y27.4820
G01 X42.0486 Y27.4760
G01 X42.0815 Y27.4662
G01 X42.0957 Y27.4631
G01 X42.1098 Y27.4592
G01 X42.1429 Y27.4527
G01 X42.1606 Y27.4500
G01 X42.1754 Y27.4486
G01 X42.1902 Y27.4465
G01 X42.2237 Y27.4443
G01 X42.2424 Y27.4438
G01 X42.2570 Y27.4444
G01 X42.2714 Y27.4441
G01 X42.3055 Y27.4462
G01 X42.3235 Y27.4480
G01 X42.3379 Y27.4504
G01 X42.3524 Y27.4519
G01 X42.3711 Y27.4552
G01 X42.4033 Y27.4623
G01 X42.4178 Y27.4665
G01 X42.4325 Y27.4701
G01 X42.4639 Y27.4803
G01 X42.4818 Y27.4869
G01 X42.4952 Y27.4928
G01 X42.5089 Y27.4980
G01 X42.5394 Y27.5124
G01 X42.5561 Y27.5211
G01 X42.5684 Y27.5286
G01 X42.5812 Y27.5354
G01 X42.6097 Y27.5535
G01 X42.6250 Y27.5641
G01 X42.6364 Y27.5732
G01 X42.6483 Y27.5816
G01 X42.6612 Y27.5918
G01 X42.6876 Y27.6150
G01 X42.7060 Y27.6325
G01 X43.6536 Y28.5801
G01 X43.6639 Y28.5908
G01 X43.7016 Y28.6341
G01 X43.7046 Y28.6379
G01 X43.7161 Y28.6530
G01 X43.7485 Y28.7012
G01 X43.7543 Y28.7105
G01 X43.7602 Y28.7213
G01 X43.7863 Y28.7731
G01 X43.7908 Y28.7828
G01 X43.7955 Y28.7949
G01 X43.8148 Y28.8497
G01 X43.8181 Y28.8603
G01 X43.8212 Y28.8725
G01 X43.8333 Y28.9289
G01 X43.8369 Y28.9525
G01 X43.8418 Y29.0102
G01 X43.8423 Y29.0342
G01 X43.8399 Y29.0915
G01 X43.8387 Y29.1057
G01 X43.8375 Y29.1151
G01 X43.8279 Y29.1720
G01 X43.8256 Y29.1833
G01 X43.8224 Y29.1953
G01 X43.8056 Y29.2507
G01 X43.7972 Y29.2732
G01 X43.7713 Y29.3302
G01 X43.7625 Y29.3469
G01 X43.7326 Y29.3959
G01 X43.7190 Y29.4154
G01 X43.6829 Y29.4606
G01 X43.6717 Y29.4731
G01 X43.6253 Y29.5186
G01 X43.6072 Y29.5340
G01 X43.5836 Y29.5516
G01 X43.6212 Y29.5422
G01 X43.6352 Y29.5394
G01 X43.7209 Y29.5268
G01 X43.8150 Y29.5222
G01 X43.9091 Y29.5268
G01 X43.9948 Y29.5394
G01 X44.0050 Y29.5413
G01 X44.0862 Y29.5615
G01 X44.0998 Y29.5657
G01 X44.1749 Y29.5925
G01 X44.1849 Y29.5966
G01 X44.2630 Y29.6335
G01 X44.2727 Y29.6388
G01 X44.3470 Y29.6835
G01 X44.4170 Y29.7352
G01 X44.4250 Y29.7416
G01 X44.4871 Y29.7978
G01 X44.4972 Y29.8079
G01 X44.5507 Y29.8670
G01 X44.5598 Y29.8780
G01 X44.6115 Y29.9480
G01 X44.6562 Y30.0223
G01 X44.6615 Y30.0320
G01 X44.6970 Y30.1070
G01 X44.7025 Y30.1201
G01 X44.7317 Y30.2024
G01 X44.7528 Y30.2862
G01 X44.7556 Y30.3002
G01 X44.7682 Y30.3859
G01 X44.7728 Y30.4800
G01 X44.7682 Y30.5741
G01 X44.7556 Y30.6598
G01 X44.7528 Y30.6738
G01 X44.7317 Y30.7576
G01 X44.7025 Y30.8399
G01 X44.6970 Y30.8530
G01 X44.6615 Y30.9280
G01 X44.6562 Y30.9377
G01 X44.6115 Y31.0120
G01 X44.5598 Y31.0820
G01 X44.5534 Y31.0900
G01 X44.4923 Y31.1573
G01 X44.4280 Y31.2157
G01 X44.4170 Y31.2248
G01 X44.3470 Y31.2765
G01 X44.2727 Y31.3212
G01 X44.2601 Y31.3279
G01 X44.1880 Y31.3620
G01 X44.1749 Y31.3675
G01 X44.0926 Y31.3967
G01 X44.0050 Y31.4187
G01 X43.9948 Y31.4206
G01 X43.9091 Y31.4332
G01 X43.8150 Y31.4378
G01 X43.7209 Y31.4332
G01 X43.6352 Y31.4206
G01 X43.6212 Y31.4178
G01 X43.5438 Y31.3985
G01 X43.5302 Y31.3943
G01 X43.5001 Y31.3836
G01 X43.5372 Y31.4211
G01 X43.5496 Y31.4353
G01 X43.5528 Y31.4391
G01 X43.5879 Y31.4851
G01 X43.6010 Y31.5046
G01 X43.6299 Y31.5545
G01 X43.6351 Y31.5643
G01 X43.6406 Y31.5759
G01 X43.6631 Y31.6293
G01 X43.6676 Y31.6409
G01 X43.6710 Y31.6516
G01 X43.6866 Y31.7077
G01 X43.6894 Y31.7198
G01 X43.6914 Y31.7305
G01 X43.7006 Y31.7941
G01 X43.7019 Y31.8117
G01 X43.7030 Y31.8687
G01 X43.7029 Y31.8809
G01 X43.7020 Y31.8932
G01 X43.6958 Y31.9502
G01 X43.6939 Y31.9636
G01 X43.6917 Y31.9742
G01 X43.6786 Y32.0295
G01 X43.6757 Y32.0403
G01 X43.6716 Y32.0526
G01 X43.6513 Y32.1067
G01 X43.6436 Y32.1238
G01 X43.6146 Y32.1793
G01 X43.6083 Y32.1901
G01 X43.6022 Y32.1995
G01 X43.5685 Y32.2474
G01 X43.5549 Y32.2645
G01 X43.5145 Y32.3090
G01 X43.4446 Y32.3789
G01 X43.3467 Y32.6154
G01 X43.3430 Y32.6236
G01 X43.3328 Y32.6443
G01 X43.3232 Y32.6654
G01 X43.3150 Y32.6807
G01 X43.3059 Y32.6966
G01 X43.2933 Y32.7158
G01 X43.2812 Y32.7353
G01 X43.2602 Y32.7639
G01 X43.2452 Y32.7814
G01 X43.2304 Y32.7995
G01 X43.2194 Y32.8115
G01 X43.2065 Y32.8247
G01 X43.1891 Y32.8405
G01 X43.1722 Y32.8566
G01 X43.1452 Y32.8786
G01 X43.1260 Y32.8920
G01 X43.1074 Y32.9058
G01 X43.0926 Y32.9153
G01 X43.0774 Y32.9245
G01 X43.0570 Y32.9351
G01 X43.0370 Y32.9463
G01 X43.0212 Y32.9540
G01 X43.0047 Y32.9612
G01 X42.9832 Y32.9692
G01 X42.9617 Y32.9779
G01 X42.9281 Y32.9885
G01 X42.9055 Y32.9938
G01 X42.8828 Y32.9997
G01 X42.8660 Y33.0030
G01 X42.8479 Y33.0060
G01 X42.8253 Y33.0082
G01 X42.8028 Y33.0112
G01 X42.7671 Y33.0132
G01 X42.7438 Y33.0126
G01 X42.7205 Y33.0126
G01 X42.7031 Y33.0115
G01 X42.6859 Y33.0100
G01 X42.6630 Y33.0066
G01 X42.6399 Y33.0037
G01 X42.6229 Y33.0005
G01 X42.6050 Y32.9966
G01 X42.5829 Y32.9903
G01 X42.5607 Y32.9846
G01 X42.5443 Y32.9793
G01 X42.5273 Y32.9733
G01 X42.5059 Y32.9642
G01 X42.4841 Y32.9555
G01 X42.4690 Y32.9485
G01 X42.4524 Y32.9401
G01 X42.4325 Y32.9284
G01 X42.4123 Y32.9172
G01 X42.3971 Y32.9076
G01 X42.3830 Y32.8981
G01 X42.3646 Y32.8839
G01 X42.3460 Y32.8703
G01 X42.3321 Y32.8589
G01 X42.3188 Y32.8471
G01 X42.3025 Y32.8309
G01 X42.2858 Y32.8151
G01 X42.2618 Y32.7887
G01 X42.2479 Y32.7707
G01 X42.2333 Y32.7531
G01 X42.2228 Y32.7385
G01 X42.2127 Y32.7236
G01 X42.2012 Y32.7040
G01 X42.1890 Y32.6848
G01 X42.1811 Y32.6706
G01 X42.1727 Y32.6538
G01 X42.1551 Y32.6154
G01 X42.0955 Y32.4717
G01 X41.8233 Y32.1994
G01 X41.4676 Y32.0521
G01 X41.0824 Y32.0521
G01 X40.7267 Y32.1994
G01 X40.4544 Y32.4717
G01 X40.3071 Y32.8274
G01 X40.3071 Y33.2126
G01 X40.4600 Y33.5815
G01 X40.4729 Y33.5987
G01 X40.4830 Y33.6132
G01 X40.4917 Y33.6273
G01 X40.5009 Y33.6410
G01 X40.5099 Y33.6563
G01 X40.5249 Y33.6840
G01 X40.5314 Y33.6987
G01 X40.5387 Y33.7131
G01 X40.5505 Y33.7411
G01 X40.5570 Y33.7587
G01 X40.5616 Y33.7738
G01 X40.5669 Y33.7886
G01 X40.5724 Y33.8077
G01 X40.5795 Y33.8368
G01 X40.5823 Y33.8529
G01 X40.5858 Y33.8690
G01 X40.5902 Y33.8992
G01 X40.5920 Y33.9160
G01 X40.5932 Y33.9383
G01 X40.5942 Y33.9492
G01 X40.5949 Y33.9758
G01 X40.5949 Y37.9153
G01 X40.5934 Y37.9433
G01 X40.5930 Y37.9621
G01 X40.5905 Y37.9886
G01 X40.5883 Y38.0058
G01 X40.5848 Y38.0240
G01 X40.5820 Y38.0425
G01 X40.5781 Y38.0609
G01 X40.5718 Y38.0857
G01 X40.5659 Y38.1034
G01 X40.5609 Y38.1213
G01 X40.5543 Y38.1398
G01 X40.5454 Y38.1624
G01 X40.5373 Y38.1795
G01 X40.5299 Y38.1969
G01 X40.5215 Y38.2137
G01 X40.5094 Y38.2359
G01 X40.4992 Y38.2518
G01 X40.4897 Y38.2680
G01 X40.4754 Y38.2889
G01 X40.4643 Y38.3041
G01 X40.4522 Y38.3186
G01 X40.4406 Y38.3335
G01 X40.4243 Y38.3519
G01 X40.4112 Y38.3658
G01 X40.3972 Y38.3787
G01 X40.3838 Y38.3921
G01 X40.3643 Y38.4092
G01 X40.3511 Y38.4200
G01 X40.3355 Y38.4313
G01 X40.3202 Y38.4431
G01 X40.2991 Y38.4573
G01 X40.2841 Y38.4667
G01 X40.2674 Y38.4757
G01 X40.2511 Y38.4854
G01 X40.2289 Y38.4965
G01 X40.2112 Y38.5047
G01 X40.1940 Y38.5113
G01 X40.1772 Y38.5187
G01 X40.1587 Y38.5253
G01 X40.1356 Y38.5327
G01 X40.1168 Y38.5374
G01 X40.0983 Y38.5427
G01 X40.0728 Y38.5482
G01 X40.0557 Y38.5512
G01 X40.0371 Y38.5534
G01 X40.0185 Y38.5563
G01 X40.0003 Y38.5580
G01 X39.9750 Y38.5595
G01 X39.9558 Y38.5593
G01 X39.9367 Y38.5598
G01 X39.9180 Y38.5592
G01 X39.8936 Y38.5575
G01 X39.8745 Y38.5549
G01 X39.8552 Y38.5530
G01 X39.8313 Y38.5489
G01 X39.8124 Y38.5451
G01 X39.7944 Y38.5402
G01 X39.7762 Y38.5361
G01 X39.7593 Y38.5312
G01 X39.7342 Y38.5228
G01 X39.7258 Y38.5193
G01 X39.7031 Y38.5111
G01 X39.6013 Y38.4689
G01 X39.1386 Y38.4689
G01 X38.7111 Y38.6460
G01 X38.5560 Y38.8011
G01 X38.5384 Y38.8170
G01 X38.5281 Y38.8271
G01 X38.5136 Y38.8397
G01 X38.4876 Y38.8603
G01 X38.4751 Y38.8688
G01 X38.4630 Y38.8779
G01 X38.4344 Y38.8963
G01 X38.4198 Y38.9049
G01 X38.4064 Y38.9117
G01 X38.3931 Y38.9193
G01 X38.3627 Y38.9339
G01 X38.3461 Y38.9410
G01 X38.3325 Y38.9458
G01 X38.3192 Y38.9514
G01 X38.3004 Y38.9579
G01 X38.2685 Y38.9674
G01 X38.2543 Y38.9705
G01 X38.2402 Y38.9744
G01 X38.2229 Y38.9780
G01 X38.1894 Y38.9836
G01 X38.1746 Y38.9850
G01 X38.1598 Y38.9871
G01 X38.1416 Y38.9885
G01 X38.1076 Y38.9898
G01 X38.0931 Y38.9892
G01 X38.0786 Y38.9895
G01 X38.0597 Y38.9886
G01 X38.0265 Y38.9856
G01 X38.0121 Y38.9832
G01 X37.9976 Y38.9817
G01 X37.9792 Y38.9784
G01 X37.9712 Y38.9765
G01 X37.9632 Y38.9751
G01 X37.9460 Y38.9711
G01 X37.9322 Y38.9670
G01 X37.9182 Y38.9636
G01 X37.8861 Y38.9533
G01 X37.8682 Y38.9467
G01 X37.8548 Y38.9408
G01 X37.8411 Y38.9356
G01 X37.8110 Y38.9214
G01 X37.7939 Y38.9125
G01 X37.7816 Y38.9050
G01 X37.7688 Y38.8982
G01 X37.7531 Y38.8885
G01 X37.7250 Y38.8695
G01 X37.7136 Y38.8604
G01 X37.7017 Y38.8520
G01 X37.6888 Y38.8418
G01 X37.6624 Y38.8186
G01 X37.6440 Y38.8011
G01 X37.4889 Y38.6460
G01 X37.0614 Y38.4689
G01 X36.5986 Y38.4689
G01 X36.1711 Y38.6460
G01 X36.0160 Y38.8011
G01 X35.9984 Y38.8170
G01 X35.9881 Y38.8271
G01 X35.9736 Y38.8397
G01 X35.9476 Y38.8603
G01 X35.9351 Y38.8688
G01 X35.9230 Y38.8779
G01 X35.8944 Y38.8963
G01 X35.8798 Y38.9049
G01 X35.8664 Y38.9117
G01 X35.8531 Y38.9193
G01 X35.8227 Y38.9339
G01 X35.8061 Y38.9410
G01 X35.7925 Y38.9458
G01 X35.7792 Y38.9514
G01 X35.7604 Y38.9579
G01 X35.7285 Y38.9674
G01 X35.7143 Y38.9705
G01 X35.7002 Y38.9744
G01 X35.6829 Y38.9780
G01 X35.6494 Y38.9836
G01 X35.6346 Y38.9850
G01 X35.6198 Y38.9871
G01 X35.6016 Y38.9885
G01 X35.5676 Y38.9898
G01 X35.5531 Y38.9892
G01 X35.5386 Y38.9895
G01 X35.5197 Y38.9886
G01 X35.4865 Y38.9856
G01 X35.4721 Y38.9832
G01 X35.4576 Y38.9817
G01 X35.4392 Y38.9784
G01 X35.4312 Y38.9765
G01 X35.4232 Y38.9751
G01 X35.4060 Y38.9711
G01 X35.3922 Y38.9670
G01 X35.3782 Y38.9636
G01 X35.3461 Y38.9533
G01 X35.3282 Y38.9467
G01 X35.3148 Y38.9408
G01 X35.3011 Y38.9356
G01 X35.2710 Y38.9214
G01 X35.2539 Y38.9125
G01 X35.2416 Y38.9050
G01 X35.2288 Y38.8982
G01 X35.2131 Y38.8885
G01 X35.1850 Y38.8695
G01 X35.1736 Y38.8604
G01 X35.1617 Y38.8520
G01 X35.1488 Y38.8418
G01 X35.1224 Y38.8186
G01 X35.1040 Y38.8011
G01 X34.9489 Y38.6460
G01 X34.5214 Y38.4689
G01 X34.0586 Y38.4689
G01 X33.6311 Y38.6460
G01 X33.4435 Y38.8336
G01 X33.4259 Y38.8496
G01 X33.4152 Y38.8600
G01 X33.4011 Y38.8722
G01 X33.3750 Y38.8928
G01 X33.3630 Y38.9010
G01 X33.3514 Y38.9098
G01 X33.3353 Y38.9205
G01 X33.3064 Y38.9379
G01 X33.2938 Y38.9443
G01 X33.2816 Y38.9514
G01 X33.2637 Y38.9602
G01 X33.2342 Y38.9732
G01 X33.2199 Y38.9784
G01 X33.2059 Y38.9842
G01 X33.1891 Y38.9900
G01 X33.1652 Y38.9973
G01 X32.8563 Y39.3062
G01 X32.8807 Y39.4038
G01 X32.8826 Y39.4140
G01 X32.8971 Y39.5119
G01 X32.8985 Y39.5260
G01 X32.9035 Y39.6320
G01 X32.9035 Y41.6480
G01 X32.8985 Y41.7540
G01 X32.8971 Y41.7681
G01 X32.8826 Y41.8660
G01 X32.8798 Y41.8800
G01 X32.8540 Y41.9824
G01 X32.8183 Y42.0828
G01 X32.8128 Y42.0959
G01 X32.7705 Y42.1854
G01 X32.7638 Y42.1980
G01 X32.7092 Y42.2887
G01 X32.6706 Y42.3410
G01 X32.6813 Y42.3356
G01 X32.6938 Y42.3284
G01 X32.7109 Y42.3200
G01 X32.7407 Y42.3068
G01 X32.7550 Y42.3016
G01 X32.7690 Y42.2958
G01 X32.7861 Y42.2899
G01 X32.8191 Y42.2801
G01 X32.8328 Y42.2771
G01 X32.8463 Y42.2733
G01 X32.8658 Y42.2692
G01 X32.8981 Y42.2639
G01 X32.9129 Y42.2625
G01 X32.9277 Y42.2604
G01 X32.9459 Y42.2590
G01 X32.9798 Y42.2577
G01 X32.9944 Y42.2583
G01 X33.0089 Y42.2580
G01 X33.0278 Y42.2589
G01 X33.0611 Y42.2619
G01 X33.0753 Y42.2643
G01 X33.0898 Y42.2658
G01 X33.1082 Y42.2691
G01 X33.1415 Y42.2763
G01 X33.1556 Y42.2805
G01 X33.1700 Y42.2840
G01 X33.1877 Y42.2896
G01 X33.2189 Y42.3006
G01 X33.2327 Y42.3067
G01 X33.2465 Y42.3120
G01 X33.2768 Y42.3263
G01 X33.2931 Y42.3348
G01 X33.3058 Y42.3424
G01 X33.3187 Y42.3493
G01 X33.3472 Y42.3674
G01 X33.3624 Y42.3779
G01 X33.3736 Y42.3868
G01 X33.3855 Y42.3951
G01 X33.3992 Y42.4061
G01 X33.4125 Y42.4176
G01 X33.4435 Y42.4464
G01 X33.6311 Y42.6340
G01 X34.0592 Y42.8113
G01 X34.0796 Y42.8125
G01 X34.0991 Y42.8131
G01 X34.1158 Y42.8145
G01 X34.1419 Y42.8177
G01 X34.1603 Y42.8212
G01 X34.1788 Y42.8240
G01 X34.1976 Y42.8280
G01 X34.2220 Y42.8342
G01 X34.2397 Y42.8401
G01 X34.2576 Y42.8451
G01 X34.2761 Y42.8517
G01 X34.2987 Y42.8606
G01 X34.3158 Y42.8687
G01 X34.3332 Y42.8761
G01 X34.3558 Y42.8876
G01 X34.3725 Y42.8968
G01 X34.3881 Y42.9069
G01 X34.4042 Y42.9163
G01 X34.4258 Y42.9310
G01 X34.4399 Y42.9414
G01 X34.4547 Y42.9537
G01 X34.4698 Y42.9654
G01 X34.4829 Y42.9768
G01 X34.5025 Y42.9952
G01 X34.5149 Y43.0088
G01 X34.5281 Y43.0218
G01 X34.5448 Y43.0409
G01 X34.5566 Y43.0553
G01 X34.5675 Y43.0705
G01 X34.5791 Y43.0854
G01 X34.5936 Y43.1069
G01 X34.6033 Y43.1225
G01 X34.6121 Y43.1389
G01 X34.6216 Y43.1549
G01 X34.6296 Y43.1706
G01 X34.6407 Y43.1942
G01 X34.6476 Y43.2120
G01 X34.6551 Y43.2294
G01 X34.6611 Y43.2459
G01 X34.6689 Y43.2703
G01 X34.6737 Y43.2891
G01 X34.6790 Y43.3079
G01 X34.6829 Y43.3255
G01 X34.6875 Y43.3503
G01 X34.6897 Y43.3689
G01 X34.6926 Y43.3875
G01 X34.6943 Y43.4057
G01 X34.6958 Y43.4310
G01 X34.6956 Y43.4502
G01 X34.6961 Y43.4693
G01 X34.6951 Y43.4945
G01 X34.6937 Y43.5130
G01 X34.6911 Y43.5315
G01 X34.6893 Y43.5502
G01 X34.6852 Y43.5747
G01 X34.6814 Y43.5936
G01 X34.6765 Y43.6119
G01 X34.6739 Y43.6230
G01 X34.6739 Y43.9912
G01 X34.8559 Y44.4304
G01 X34.8669 Y44.4598
G01 X34.8729 Y44.4795
G01 X34.8795 Y44.4989
G01 X34.8854 Y44.5207
G01 X34.8896 Y44.5385
G01 X34.8929 Y44.5582
G01 X34.8970 Y44.5780
G01 X34.9020 Y44.6174
G01 X34.9049 Y44.6700
G01 X34.9049 Y45.9037
G01 X34.9032 Y45.9346
G01 X34.9025 Y45.9565
G01 X34.9008 Y45.9746
G01 X34.8983 Y45.9940
G01 X34.8942 Y46.0155
G01 X34.8908 Y46.0371
G01 X34.8817 Y46.0742
G01 X34.8750 Y46.0946
G01 X34.8690 Y46.1153
G01 X34.8624 Y46.1334
G01 X34.8554 Y46.1508
G01 X34.8460 Y46.1707
G01 X34.8373 Y46.1907
G01 X34.8288 Y46.2071
G01 X34.8192 Y46.2246
G01 X34.8075 Y46.2427
G01 X34.7965 Y46.2612
G01 X34.7861 Y46.2763
G01 X34.7744 Y46.2924
G01 X34.7605 Y46.3090
G01 X34.7472 Y46.3260
G01 X34.7346 Y46.3401
G01 X34.7212 Y46.3542
G01 X34.7054 Y46.3689
G01 X34.6899 Y46.3841
G01 X34.6753 Y46.3968
G01 X34.6609 Y46.4086
G01 X34.6431 Y46.4213
G01 X34.6258 Y46.4346
G01 X34.6109 Y46.4446
G01 X34.5941 Y46.4551
G01 X34.5747 Y46.4656
G01 X34.5558 Y46.4765
G01 X34.5380 Y46.4854
G01 X34.5214 Y46.4931
G01 X34.5013 Y46.5008
G01 X34.4813 Y46.5092
G01 X34.4636 Y46.5154
G01 X34.4449 Y46.5213
G01 X34.4239 Y46.5265
G01 X34.4030 Y46.5323
G01 X34.3833 Y46.5365
G01 X34.3659 Y46.5396
G01 X34.3442 Y46.5422
G01 X34.3225 Y46.5454
G01 X34.3052 Y46.5468
G01 X34.2851 Y46.5479
G01 X34.2632 Y46.5477
G01 X34.2412 Y46.5482
G01 X34.2030 Y46.5459
G01 X34.1815 Y46.5429
G01 X34.1597 Y46.5405
G01 X34.1396 Y46.5371
G01 X34.1228 Y46.5336
G01 X34.1016 Y46.5280
G01 X34.0802 Y46.5228
G01 X34.0611 Y46.5169
G01 X34.0421 Y46.5103
G01 X34.0853 Y46.5497
G01 X34.1593 Y46.6312
G01 X34.1657 Y46.6392
G01 X34.2246 Y46.7186
G01 X34.2325 Y46.7304
G01 X34.2833 Y46.8153
G01 X34.2887 Y46.8250
G01 X34.3323 Y46.9173
G01 X34.3378 Y46.9304
G01 X34.3711 Y47.0235
G01 X34.3753 Y47.0372
G01 X34.4002 Y47.1369
G01 X34.4021 Y47.1471
G01 X34.4166 Y47.2449
G01 X34.4180 Y47.2591
G01 X34.4230 Y47.3650
G01 X34.4174 Y47.4782
G01 X34.4021 Y47.5829
G01 X34.3993 Y47.5969
G01 X34.3753 Y47.6928
G01 X34.3706 Y47.7080
G01 X34.6541 Y47.9916
G01 X34.6615 Y47.9933
G01 X34.6756 Y47.9975
G01 X34.6900 Y48.0010
G01 X34.7077 Y48.0066
G01 X34.7389 Y48.0176
G01 X34.7527 Y48.0237
G01 X34.7665 Y48.0290
G01 X34.7968 Y48.0433
G01 X34.8131 Y48.0518
G01 X34.8258 Y48.0594
G01 X34.8387 Y48.0663
G01 X34.8672 Y48.0844
G01 X34.8824 Y48.0949
G01 X34.8936 Y48.1038
G01 X34.9055 Y48.1121
G01 X34.9192 Y48.1231
G01 X34.9458 Y48.1466
G01 X34.9499 Y48.1509
G01 X34.9635 Y48.1634
G01 X35.1511 Y48.3510
G01 X35.5786 Y48.5281
G01 X36.0414 Y48.5281
G01 X36.4689 Y48.3510
G01 X36.6240 Y48.1959
G01 X36.6416 Y48.1800
G01 X36.6519 Y48.1699
G01 X36.6664 Y48.1573
G01 X36.6927 Y48.1364
G01 X36.7050 Y48.1282
G01 X36.7166 Y48.1194
G01 X36.7313 Y48.1096
G01 X36.7605 Y48.0920
G01 X36.7737 Y48.0853
G01 X36.7865 Y48.0779
G01 X36.8173 Y48.0631
G01 X36.8342 Y48.0559
G01 X36.8476 Y48.0512
G01 X36.8606 Y48.0457
G01 X36.8796 Y48.0391
G01 X36.9115 Y48.0296
G01 X36.9257 Y48.0265
G01 X36.9398 Y48.0226
G01 X36.9571 Y48.0190
G01 X36.9906 Y48.0134
G01 X37.0054 Y48.0120
G01 X37.0202 Y48.0099
G01 X37.0384 Y48.0085
G01 X37.0724 Y48.0072
G01 X37.0870 Y48.0078
G01 X37.1015 Y48.0075
G01 X37.1205 Y48.0085
G01 X37.1535 Y48.0114
G01 X37.1679 Y48.0138
G01 X37.1824 Y48.0153
G01 X37.2008 Y48.0186
G01 X37.2088 Y48.0205
G01 X37.2168 Y48.0219
G01 X37.2340 Y48.0259
G01 X37.2478 Y48.0300
G01 X37.2618 Y48.0334
G01 X37.2939 Y48.0437
G01 X37.3118 Y48.0503
G01 X37.3252 Y48.0562
G01 X37.3389 Y48.0614
G01 X37.3694 Y48.0758
G01 X37.3861 Y48.0845
G01 X37.3984 Y48.0920
G01 X37.4112 Y48.0988
G01 X37.4269 Y48.1085
G01 X37.4550 Y48.1275
G01 X37.4664 Y48.1366
G01 X37.4783 Y48.1450
G01 X37.4917 Y48.1557
G01 X37.5184 Y48.1791
G01 X37.5360 Y48.1959
G01 X37.6911 Y48.3510
G01 X38.1186 Y48.5281
G01 X38.5814 Y48.5281
G01 X39.0089 Y48.3510
G01 X39.1640 Y48.1959
G01 X39.1816 Y48.1800
G01 X39.1919 Y48.1699
G01 X39.2064 Y48.1573
G01 X39.2327 Y48.1364
G01 X39.2450 Y48.1282
G01 X39.2566 Y48.1194
G01 X39.2713 Y48.1096
G01 X39.3005 Y48.0920
G01 X39.3137 Y48.0853
G01 X39.3265 Y48.0779
G01 X39.3573 Y48.0631
G01 X39.3742 Y48.0559
G01 X39.3876 Y48.0512
G01 X39.4006 Y48.0457
G01 X39.4196 Y48.0391
G01 X39.4515 Y48.0296
G01 X39.4657 Y48.0265
G01 X39.4798 Y48.0226
G01 X39.4971 Y48.0190
G01 X39.5306 Y48.0134
G01 X39.5454 Y48.0120
G01 X39.5602 Y48.0099
G01 X39.5784 Y48.0085
G01 X39.6124 Y48.0072
G01 X39.6270 Y48.0078
G01 X39.6415 Y48.0075
G01 X39.6605 Y48.0085
G01 X39.6935 Y48.0114
G01 X39.7079 Y48.0138
G01 X39.7224 Y48.0153
G01 X39.7408 Y48.0186
G01 X39.7488 Y48.0205
G01 X39.7568 Y48.0219
G01 X39.7740 Y48.0259
G01 X39.7878 Y48.0300
G01 X39.8018 Y48.0334
G01 X39.8339 Y48.0437
G01 X39.8518 Y48.0503
G01 X39.8652 Y48.0562
G01 X39.8789 Y48.0614
G01 X39.9094 Y48.0758
G01 X39.9261 Y48.0845
G01 X39.9384 Y48.0920
G01 X39.9512 Y48.0988
G01 X39.9669 Y48.1085
G01 X39.9950 Y48.1275
G01 X40.0064 Y48.1366
G01 X40.0183 Y48.1450
G01 X40.0317 Y48.1557
G01 X40.0584 Y48.1791
G01 X40.0760 Y48.1959
G01 X40.2311 Y48.3510
G01 X40.6586 Y48.5281
G01 X41.1214 Y48.5281
G01 X41.5489 Y48.3510
G01 X41.7365 Y48.1634
G01 X41.7541 Y48.1474
G01 X41.7648 Y48.1370
G01 X41.7789 Y48.1248
G01 X41.8050 Y48.1042
G01 X41.8170 Y48.0960
G01 X41.8286 Y48.0872
G01 X41.8574 Y48.0686
G01 X41.8736 Y48.0591
G01 X41.8862 Y48.0527
G01 X41.8984 Y48.0456
G01 X41.9163 Y48.0368
G01 X41.9233 Y48.0340
G01 X41.9299 Y48.0306
G01 X41.9458 Y48.0238
G01 X41.9601 Y48.0186
G01 X41.9741 Y48.0128
G01 X42.0062 Y48.0021
G01 X42.0234 Y47.9972
G01 X42.0379 Y47.9940
G01 X42.0521 Y47.9901
G01 X42.0854 Y47.9836
G01 X42.1055 Y47.9807
G01 X42.1079 Y47.9365
G01 X42.1159 Y47.8811
G01 X42.1178 Y47.8710
G01 X42.1324 Y47.8131
G01 X42.1513 Y47.7597
G01 X42.1553 Y47.7497
G01 X42.1791 Y47.6993
G01 X42.1844 Y47.6896
G01 X42.2134 Y47.6416
G01 X42.2468 Y47.5963
G01 X42.2532 Y47.5883
G01 X42.2923 Y47.5452
G01 X42.2826 Y47.4782
G01 X42.2770 Y47.3650
G01 X42.2826 Y47.2518
G01 X42.2979 Y47.1471
G01 X42.2998 Y47.1369
G01 X42.3265 Y47.0307
G01 X42.3622 Y46.9304
G01 X42.3662 Y46.9204
G01 X42.4113 Y46.8250
G01 X42.4167 Y46.8153
G01 X42.4712 Y46.7246
G01 X42.5343 Y46.6392
G01 X42.5407 Y46.6312
G01 X42.6147 Y46.5497
G01 X42.6962 Y46.4757
G01 X42.7042 Y46.4693
G01 X42.7836 Y46.4104
G01 X42.7954 Y46.4025
G01 X42.8803 Y46.3517
G01 X42.8900 Y46.3463
G01 X42.9823 Y46.3027
G01 X42.9954 Y46.2972
G01 X43.0885 Y46.2639
G01 X43.1047 Y46.2591
G01 X43.1049 Y46.2429
G01 X43.1079 Y46.1865
G01 X43.1159 Y46.1311
G01 X43.1187 Y46.1172
G01 X43.1324 Y46.0631
G01 X43.1513 Y46.0097
G01 X43.1568 Y45.9966
G01 X43.1791 Y45.9493
G01 X43.1844 Y45.9396
G01 X43.2134 Y45.8916
G01 X43.2468 Y45.8463
G01 X43.2532 Y45.8383
G01 X43.2937 Y45.7937
G01 X43.4683 Y45.6192
G01 X43.4742 Y45.5909
G01 X43.4793 Y45.5727
G01 X43.4837 Y45.5543
G01 X43.4890 Y45.5371
G01 X43.4976 Y45.5125
G01 X43.5050 Y45.4951
G01 X43.5116 Y45.4777
G01 X43.5219 Y45.4554
G01 X43.5308 Y45.4376
G01 X43.5403 Y45.4216
G01 X43.5489 Y45.4053
G01 X43.5589 Y45.3892
G01 X43.5730 Y45.3681
G01 X43.5844 Y45.3533
G01 X43.5953 Y45.3380
G01 X43.6054 Y45.3252
G01 X43.6238 Y45.3042
G01 X43.6301 Y45.2978
G01 X43.6462 Y45.2803
G01 X44.3054 Y44.6211
G01 X44.4051 Y44.3803
G01 X44.4051 Y36.6058
G01 X44.4057 Y36.5909
G01 X44.4056 Y36.5844
G01 X44.4065 Y36.5658
G01 X44.4083 Y36.5495
G01 X44.4094 Y36.5332
G01 X44.4116 Y36.5160
G01 X44.4168 Y36.4847
G01 X44.4206 Y36.4691
G01 X44.4236 Y36.4534
G01 X44.4315 Y36.4237
G01 X44.4371 Y36.4059
G01 X44.4429 Y36.3908
G01 X44.4480 Y36.3752
G01 X44.4594 Y36.3474
G01 X44.4671 Y36.3304
G01 X44.4747 Y36.3161
G01 X44.4816 Y36.3016
G01 X44.4908 Y36.2850
G01 X44.5067 Y36.2588
G01 X44.5160 Y36.2458
G01 X44.5246 Y36.2323
G01 X44.5356 Y36.2172
G01 X44.5536 Y36.1944
G01 X44.5685 Y36.1779
G01 X44.5754 Y36.1695
G01 X44.5941 Y36.1497
G01 X44.6356 Y36.1082
G01 X44.7829 Y35.7526
G01 X44.7829 Y35.3675
G01 X44.7042 Y35.1775
G01 X44.6931 Y35.1481
G01 X44.6871 Y35.1284
G01 X44.6805 Y35.1090
G01 X44.6746 Y35.0872
G01 X44.6704 Y35.0693
G01 X44.6671 Y35.0495
G01 X44.6630 Y35.0298
G01 X44.6580 Y34.9905
G01 X44.6556 Y34.9487
G01 X44.6551 Y34.9379
G01 X44.6551 Y33.2885
G01 X44.6565 Y33.2484
G01 X44.6583 Y33.2321
G01 X44.6594 Y33.2158
G01 X44.6635 Y33.1861
G01 X44.6668 Y33.1672
G01 X44.6706 Y33.1518
G01 X44.6736 Y33.1361
G01 X44.6782 Y33.1182
G01 X44.6870 Y33.0888
G01 X44.6928 Y33.0735
G01 X44.6980 Y33.0578
G01 X44.7094 Y33.0300
G01 X44.7173 Y33.0126
G01 X44.7247 Y32.9988
G01 X44.7314 Y32.9845
G01 X44.7469 Y32.9574
G01 X44.7565 Y32.9418
G01 X44.7659 Y32.9285
G01 X44.7746 Y32.9149
G01 X44.7856 Y32.8998
G01 X44.8036 Y32.8770
G01 X44.8187 Y32.8602
G01 X44.8258 Y32.8517
G01 X44.8440 Y32.8325
G01 X46.0554 Y31.6211
G01 X46.1551 Y31.3803
G01 X46.1551 Y29.3697
G01 X46.0554 Y29.1289
G01 X43.3440 Y26.4175
G01 X43.3167 Y26.3883
G01 X43.3065 Y26.3755
G01 X43.2958 Y26.3633
G01 X43.2846 Y26.3489
G01 X43.2670 Y26.3242
G01 X43.2583 Y26.3101
G01 X43.2491 Y26.2964
G01 X43.2342 Y26.2706
G01 X43.2252 Y26.2536
G01 X43.2186 Y26.2388
G01 X43.2113 Y26.2243
G01 X43.2040 Y26.2073
G01 X43.1930 Y26.1788
G01 X43.1884 Y26.1635
G01 X43.1830 Y26.1484
G01 X43.1777 Y26.1298
G01 X43.1704 Y26.1005
G01 X43.1677 Y26.0844
G01 X43.1642 Y26.0686
G01 X43.1615 Y26.0509
G01 X43.1580 Y26.0214
G01 X43.1568 Y25.9991
G01 X43.1558 Y25.9882
G01 X43.1551 Y25.9615
G01 X43.1551 Y21.1714
G01 X43.1565 Y21.1314
G01 X43.1583 Y21.1151
G01 X43.1594 Y21.0988
G01 X43.1616 Y21.0815
G01 X43.1668 Y21.0503
G01 X43.1706 Y21.0347
G01 X43.1736 Y21.0190
G01 X43.1815 Y20.9893
G01 X43.1870 Y20.9717
G01 X43.1929 Y20.9563
G01 X43.1981 Y20.9406
G01 X43.2094 Y20.9130
G01 X43.2171 Y20.8960
G01 X43.2247 Y20.8817
G01 X43.2316 Y20.8672
G01 X43.2469 Y20.8403
G01 X43.2567 Y20.8244
G01 X43.2659 Y20.8115
G01 X43.2744 Y20.7981
G01 X43.2861 Y20.7821
G01 X43.3036 Y20.7600
G01 X43.3185 Y20.7435
G01 X43.3254 Y20.7351
G01 X43.3440 Y20.7154
G01 X44.2876 Y19.7718
G01 X44.2876 Y18.3282
G01 X43.2668 Y17.3074
G01 X41.9010 Y17.3074
G01 X41.8609 Y17.3060
G01 X41.8446 Y17.3042
G01 X41.8283 Y17.3031
G01 X41.7986 Y17.2990
G01 X41.7797 Y17.2957
G01 X41.7643 Y17.2919
G01 X41.7486 Y17.2889
G01 X41.7307 Y17.2843
G01 X41.7013 Y17.2755
G01 X41.6860 Y17.2697
G01 X41.6703 Y17.2645
G01 X41.6425 Y17.2531
G01 X41.6251 Y17.2452
G01 X41.6113 Y17.2378
G01 X41.5970 Y17.2311
G01 X41.5699 Y17.2156
G01 X41.5543 Y17.2060
G01 X41.5410 Y17.1966
G01 X41.5274 Y17.1879
G01 X41.5025 Y17.1693
G01 X41.4895 Y17.1589
G01 X41.4727 Y17.1438
G01 X41.4642 Y17.1367
G01 X41.4450 Y17.1185
G01 X40.0211 Y15.6946
G01 X39.7803 Y15.5949
G01 X37.5885 Y15.5949
G01 X37.5484 Y15.5935
G01 X37.5321 Y15.5917
G01 X37.5158 Y15.5906
G01 X37.4861 Y15.5865
G01 X37.4672 Y15.5832
G01 X37.4518 Y15.5794
G01 X37.4361 Y15.5764
G01 X37.4182 Y15.5718
G01 X37.3888 Y15.5630
G01 X37.3735 Y15.5572
G01 X37.3578 Y15.5520
G01 X37.3304 Y15.5408
G01 X37.3130 Y15.5329
G01 X37.2987 Y15.5253
G01 X37.2842 Y15.5184
G01 X37.2671 Y15.5089
G01 X37.2418 Y15.4935
G01 X37.2285 Y15.4841
G01 X37.2149 Y15.4754
G01 X37.1998 Y15.4644
G01 X37.1770 Y15.4464
G01 X37.1602 Y15.4313
G01 X37.1517 Y15.4242
G01 X37.1325 Y15.4060
G01 X36.9401 Y15.2136
G01 X36.9213 Y15.1927
G01 X36.9080 Y15.1788
G01 X36.8926 Y15.1602
G01 X36.8808 Y15.1451
G01 X36.8702 Y15.1294
G01 X36.8590 Y15.1142
G01 X36.8491 Y15.0989
G01 X36.8362 Y15.0773
G01 X36.8275 Y15.0602
G01 X36.8181 Y15.0433
G01 X36.8077 Y15.0210
G01 X36.8002 Y15.0036
G01 X36.7939 Y14.9858
G01 X36.7868 Y14.9683
G01 X36.7812 Y14.9512
G01 X36.7740 Y14.9267
G01 X36.7699 Y14.9081
G01 X36.7651 Y14.8897
G01 X36.7617 Y14.8722
G01 X36.7576 Y14.8464
G01 X36.7559 Y14.8278
G01 X36.7535 Y14.8091
G01 X36.7523 Y14.7920
G01 X36.7515 Y14.7655
G01 X36.7522 Y14.7467
G01 X36.7521 Y14.7279
G01 X36.7532 Y14.7094
G01 X36.7556 Y14.6843
G01 X36.7587 Y14.6655
G01 X36.7610 Y14.6465
G01 X36.7647 Y14.6276
G01 X36.7700 Y14.6038
G01 X36.7754 Y14.5857
G01 X36.7801 Y14.5673
G01 X36.7861 Y14.5492
G01 X36.7945 Y14.5261
G01 X36.8021 Y14.5089
G01 X36.8090 Y14.4913
G01 X36.8173 Y14.4738
G01 X36.8285 Y14.4519
G01 X36.8383 Y14.4356
G01 X36.8475 Y14.4191
G01 X36.8570 Y14.4041
G01 X36.8715 Y14.3830
G01 X36.8834 Y14.3679
G01 X36.8948 Y14.3524
G01 X36.9108 Y14.3332
G01 X36.9233 Y14.3193
G01 X36.9367 Y14.3063
G01 X36.9496 Y14.2926
G01 X36.9679 Y14.2757
G01 X36.9822 Y14.2634
G01 X36.9971 Y14.2521
G01 X37.0118 Y14.2400
G01 X37.0317 Y14.2259
G01 X37.0482 Y14.2149
G01 X37.0643 Y14.2057
G01 X37.0801 Y14.1957
G01 X37.0946 Y14.1877
G01 X37.1197 Y14.1752
G01 X37.1279 Y14.1718
G01 X37.1423 Y14.1650
G01 X37.3320 Y14.0862
G01 X37.5812 Y13.8370
G01 X37.7167 Y13.5098
G01 X37.7175 Y13.4874
G01 X37.7193 Y13.4711
G01 X37.7204 Y13.4548
G01 X37.7245 Y13.4251
G01 X37.7278 Y13.4062
G01 X37.7316 Y13.3908
G01 X37.7346 Y13.3751
G01 X37.7425 Y13.3454
G01 X37.7480 Y13.3278
G01 X37.7538 Y13.3125
G01 X37.7590 Y13.2968
G01 X37.7704 Y13.2690
G01 X37.7783 Y13.2516
G01 X37.7857 Y13.2378
G01 X37.7924 Y13.2235
G01 X37.8021 Y13.2061
G01 X37.8175 Y13.1808
G01 X37.8269 Y13.1675
G01 X37.8356 Y13.1539
G01 X37.8466 Y13.1388
G01 X37.8646 Y13.1160
G01 X37.8797 Y13.0992
G01 X37.8868 Y13.0907
G01 X37.9050 Y13.0715
G01 X38.9054 Y12.0711
G01 X39.0059 Y11.8283
G01 X39.0060 Y11.8158
G01 X39.0071 Y11.7981
G01 X39.0086 Y11.7858
G01 X39.0094 Y11.7734
G01 X39.0116 Y11.7563
G01 X39.0136 Y11.7457
G01 X39.0149 Y11.7350
G01 X39.0184 Y11.7169
G01 X39.0213 Y11.7054
G01 X39.0236 Y11.6937
G01 X39.0282 Y11.6760
G01 X39.0314 Y11.6660
G01 X39.0341 Y11.6557
G01 X39.0396 Y11.6386
G01 X39.0442 Y11.6270
G01 X39.0481 Y11.6151
G01 X39.0545 Y11.5992
G01 X39.0591 Y11.5895
G01 X39.0630 Y11.5796
G01 X39.0707 Y11.5634
G01 X39.0765 Y11.5528
G01 X39.0816 Y11.5419
G01 X39.0908 Y11.5254
G01 X39.0963 Y11.5168
G01 X39.1012 Y11.5079
G01 X39.1115 Y11.4918
G01 X39.1182 Y11.4827
G01 X39.1243 Y11.4730
G01 X39.1356 Y11.4575
G01 X39.1421 Y11.4497
G01 X39.1480 Y11.4416
G01 X39.1604 Y11.4268
G01 X39.1684 Y11.4183
G01 X39.1759 Y11.4093
G01 X39.1891 Y11.3954
G01 X39.1964 Y11.3887
G01 X39.2031 Y11.3816
G01 X39.2170 Y11.3685
G01 X39.2263 Y11.3609
G01 X39.2352 Y11.3527
G01 X39.2487 Y11.3416
G01 X39.2577 Y11.3351
G01 X39.2663 Y11.3281
G01 X39.2802 Y11.3181
G01 X39.2907 Y11.3115
G01 X39.3007 Y11.3043
G01 X39.3156 Y11.2950
G01 X39.3488 Y11.2761
G01 X39.3636 Y11.2690
G01 X39.3717 Y11.2646
G01 X39.4032 Y11.2503
G01 X39.4505 Y11.2308
G01 X39.8058 Y10.8755
G01 X39.9981 Y10.4113
G01 X39.9981 Y9.9087
G01 X39.8058 Y9.4445
G01 X39.4505 Y9.0892
G01 X38.9863 Y8.8969
G01 X38.4837 Y8.8969
G01 X38.0195 Y9.0892
G01 X37.6642 Y9.4445
G01 X37.4719 Y9.9087
G01 X37.4719 Y10.4112
G01 X37.6459 Y10.8311
G01 X37.6569 Y10.8605
G01 X37.6629 Y10.8802
G01 X37.6695 Y10.8996
G01 X37.6753 Y10.9208
G01 X37.6796 Y10.9392
G01 X37.6829 Y10.9590
G01 X37.6870 Y10.9787
G01 X37.6920 Y11.0181
G01 X37.6944 Y11.0597
G01 X37.6949 Y11.0779
G01 X37.6949 Y11.1615
G01 X37.6935 Y11.2016
G01 X37.6917 Y11.2179
G01 X37.6906 Y11.2342
G01 X37.6865 Y11.2639
G01 X37.6832 Y11.2828
G01 X37.6794 Y11.2982
G01 X37.6764 Y11.3139
G01 X37.6718 Y11.3318
G01 X37.6630 Y11.3612
G01 X37.6572 Y11.3765
G01 X37.6520 Y11.3922
G01 X37.6408 Y11.4196
G01 X37.6329 Y11.4370
G01 X37.6253 Y11.4513
G01 X37.6184 Y11.4658
G01 X37.6089 Y11.4829
G01 X37.5935 Y11.5082
G01 X37.5841 Y11.5215
G01 X37.5754 Y11.5351
G01 X37.5644 Y11.5502
G01 X37.5464 Y11.5730
G01 X37.5313 Y11.5898
G01 X37.5242 Y11.5983
G01 X37.5060 Y11.6175
G01 X36.8560 Y12.2675
G01 X36.8147 Y12.3051
G01 X36.8017 Y12.3158
G01 X36.7875 Y12.3268
G01 X36.7683 Y12.3398
G01 X36.7497 Y12.3532
G01 X36.7346 Y12.3626
G01 X36.7192 Y12.3716
G01 X36.6987 Y12.3821
G01 X36.6784 Y12.3930
G01 X36.6617 Y12.4007
G01 X36.6465 Y12.4072
G01 X36.6244 Y12.4152
G01 X36.6025 Y12.4236
G01 X36.5856 Y12.4290
G01 X36.5686 Y12.4338
G01 X36.5464 Y12.4386
G01 X36.5242 Y12.4442
G01 X36.5071 Y12.4473
G01 X36.4894 Y12.4500
G01 X36.4662 Y12.4521
G01 X36.4431 Y12.4548
G01 X36.4079 Y12.4562
G01 X36.3845 Y12.4554
G01 X36.3613 Y12.4551
G01 X36.3269 Y12.4520
G01 X36.2801 Y12.4450
G01 X36.2626 Y12.4414
G01 X36.2459 Y12.4376
G01 X36.2240 Y12.4310
G01 X36.2018 Y12.4250
G01 X36.1844 Y12.4192
G01 X36.1680 Y12.4131
G01 X36.1470 Y12.4037
G01 X36.1258 Y12.3950
G01 X36.1097 Y12.3872
G01 X36.0943 Y12.3792
G01 X36.0745 Y12.3672
G01 X36.0543 Y12.3557
G01 X36.0387 Y12.3454
G01 X36.0252 Y12.3360
G01 X36.0072 Y12.3218
G01 X35.9887 Y12.3080
G01 X35.9757 Y12.2970
G01 X35.9618 Y12.2845
G01 X35.9457 Y12.2680
G01 X35.9292 Y12.2521
G01 X35.9055 Y12.2252
G01 X35.8918 Y12.2070
G01 X35.8774 Y12.1891
G01 X35.8676 Y12.1752
G01 X35.8577 Y12.1601
G01 X35.8460 Y12.1399
G01 X35.8338 Y12.1198
G01 X35.8254 Y12.1039
G01 X35.8180 Y12.0888
G01 X35.8090 Y12.0673
G01 X35.7994 Y12.0460
G01 X35.7930 Y12.0287
G01 X35.7874 Y12.0126
G01 X35.7814 Y11.9905
G01 X35.7747 Y11.9687
G01 X35.7704 Y11.9505
G01 X35.7671 Y11.9343
G01 X35.7638 Y11.9113
G01 X35.7599 Y11.8883
G01 X35.7580 Y11.8718
G01 X35.7566 Y11.8530
G01 X35.7551 Y11.8115
G01 X35.7551 Y11.5697
G01 X35.6554 Y11.3289
G01 X35.1870 Y10.8605
G01 X35.1769 Y10.8495
G01 X35.1723 Y10.8451
G01 X35.1597 Y10.8313
G01 X35.1495 Y10.8185
G01 X35.1388 Y10.8063
G01 X35.1201 Y10.7817
G01 X35.1100 Y10.7672
G01 X35.1013 Y10.7531
G01 X35.0921 Y10.7394
G01 X35.0772 Y10.7136
G01 X35.0682 Y10.6966
G01 X35.0616 Y10.6818
G01 X35.0543 Y10.6673
G01 X35.0470 Y10.6503
G01 X35.0360 Y10.6218
G01 X35.0314 Y10.6065
G01 X35.0260 Y10.5914
G01 X35.0207 Y10.5728
G01 X35.0134 Y10.5435
G01 X35.0107 Y10.5274
G01 X35.0072 Y10.5116
G01 X35.0045 Y10.4939
G01 X35.0010 Y10.4644
G01 X34.9998 Y10.4421
G01 X34.9988 Y10.4312
G01 X34.9981 Y10.4045
G01 X34.9981 Y9.9087
G01 X34.8058 Y9.4445
G01 X34.4505 Y9.0892
G01 X33.9863 Y8.8969
G01 X33.8365 Y8.8969
G01 X33.8043 Y8.8951
G01 X33.7812 Y8.8943
G01 X33.7462 Y8.8903
G01 X33.7233 Y8.8860
G01 X33.7004 Y8.8821
G01 X33.6661 Y8.8738
G01 X33.6441 Y8.8666
G01 X33.6218 Y8.8599
G01 X33.6053 Y8.8539
G01 X33.5892 Y8.8474
G01 X33.5683 Y8.8375
G01 X33.5472 Y8.8282
G01 X33.5155 Y8.8112
G01 X33.4963 Y8.7988
G01 X33.4767 Y8.7870
G01 X33.4618 Y8.7767
G01 X33.4480 Y8.7665
G01 X33.4302 Y8.7517
G01 X33.4121 Y8.7373
G01 X33.3984 Y8.7250
G01 X33.3862 Y8.7134
G01 X33.3703 Y8.6964
G01 X33.3541 Y8.6798
G01 X33.3429 Y8.6668
G01 X33.3317 Y8.6530
G01 X33.3182 Y8.6342
G01 X33.3042 Y8.6157
G01 X33.2847 Y8.5855
G01 X33.2739 Y8.5653
G01 X33.2624 Y8.5453
G01 X33.2548 Y8.5301
G01 X33.2472 Y8.5135
G01 X33.2390 Y8.4921
G01 X33.2301 Y8.4710
G01 X33.2189 Y8.4372
G01 X33.2134 Y8.4148
G01 X33.2073 Y8.3926
G01 X33.2004 Y8.3573
G01 X33.1979 Y8.3348
G01 X33.1946 Y8.3122
G01 X33.1922 Y8.2766
G01 X33.1925 Y8.2536
G01 X33.1921 Y8.2305
G01 X33.1929 Y8.2129
G01 X33.1943 Y8.1952
G01 X33.1974 Y8.1723
G01 X33.2000 Y8.1492
G01 X33.2066 Y8.1146
G01 X33.2126 Y8.0924
G01 X33.2181 Y8.0698
G01 X33.2231 Y8.0535
G01 X33.2291 Y8.0358
G01 X33.2378 Y8.0148
G01 X33.2459 Y7.9934
G01 X33.2536 Y7.9765
G01 X33.2609 Y7.9616
G01 X33.2725 Y7.9411
G01 X33.2835 Y7.9206
G01 X33.3024 Y7.8909
G01 X33.3162 Y7.8725
G01 X33.3293 Y7.8539
G01 X33.3454 Y7.8339
G01 X33.3805 Y7.7960
G01 X35.1937 Y5.9828
G01 X35.2229 Y5.9555
G01 X35.2357 Y5.9453
G01 X35.2479 Y5.9346
G01 X35.2623 Y5.9234
G01 X35.2870 Y5.9058
G01 X35.3011 Y5.8971
G01 X35.3148 Y5.8879
G01 X35.3406 Y5.8730
G01 X35.3576 Y5.8640
G01 X35.3724 Y5.8574
G01 X35.3869 Y5.8501
G01 X35.4039 Y5.8428
G01 X35.4324 Y5.8318
G01 X35.4477 Y5.8272
G01 X35.4628 Y5.8218
G01 X35.4814 Y5.8165
G01 X35.5107 Y5.8092
G01 X35.5268 Y5.8065
G01 X35.5426 Y5.8030
G01 X35.5728 Y5.7987
G01 X35.5898 Y5.7968
G01 X35.6121 Y5.7956
G01 X35.6230 Y5.7946
G01 X35.6497 Y5.7939
G01 X35.7728 Y5.7939
G01 X36.1658 Y5.6311
G01 X36.4667 Y5.3302
G01 X36.6295 Y4.9372
G01 X36.6295 Y2.6828
G01 X36.4667 Y2.2898
G01 X36.1658 Y1.9889
G01 X35.7728 Y1.8261
G01 X35.3472 Y1.8261
G01 X34.9542 Y1.9889
G01 X34.7460 Y2.1971
G01 X34.7282 Y2.2132
G01 X34.7177 Y2.2234
G01 X34.6924 Y2.2448
G01 X34.6767 Y2.2569
G01 X34.6650 Y2.2647
G01 X34.6539 Y2.2732
G01 X34.6251 Y2.2918
G01 X34.6095 Y2.3010
G01 X34.5963 Y2.3077
G01 X34.5835 Y2.3151
G01 X34.5536 Y2.3294
G01 X34.5358 Y2.3371
G01 X34.5221 Y2.3419
G01 X34.5088 Y2.3475
G01 X34.4914 Y2.3535
G01 X34.4593 Y2.3631
G01 X34.4447 Y2.3664
G01 X34.4302 Y2.3704
G01 X34.4129 Y2.3740
G01 X34.4049 Y2.3751
G01 X34.3971 Y2.3769
G01 X34.3787 Y2.3797
G01 X34.3642 Y2.3809
G01 X34.3498 Y2.3830
G01 X34.3327 Y2.3844
G01 X34.3239 Y2.3846
G01 X34.3152 Y2.3853
G01 X34.2976 Y2.3857
G01 X34.2830 Y2.3851
G01 X34.2685 Y2.3854
G01 X34.2506 Y2.3846
G01 X34.2165 Y2.3816
G01 X34.2017 Y2.3792
G01 X34.1869 Y2.3775
G01 X34.1543 Y2.3713
G01 X34.1360 Y2.3671
G01 X34.1222 Y2.3630
G01 X34.1082 Y2.3596
G01 X34.0901 Y2.3540
G01 X34.0827 Y2.3512
G01 X34.0751 Y2.3489
G01 X34.0582 Y2.3426
G01 X34.0451 Y2.3368
G01 X34.0318 Y2.3318
G01 X34.0145 Y2.3240
G01 X33.9845 Y2.3088
G01 X33.9719 Y2.3012
G01 X33.9588 Y2.2942
G01 X33.9303 Y2.2761
G01 X33.9150 Y2.2655
G01 X33.9036 Y2.2564
G01 X33.8917 Y2.2480
G01 X33.8783 Y2.2373
G01 X33.8704 Y2.2302
G01 X33.8656 Y2.2263
G01 X33.8523 Y2.2145
G01 X33.8340 Y2.1971
G01 X33.6258 Y1.9889
G01 X33.2328 Y1.8261
G01 X32.8072 Y1.8261
G01 X32.4142 Y1.9889
G01 X32.1133 Y2.2898
G01 X31.9505 Y2.6828
G01 X31.9505 Y2.7000
G01 X31.9494 Y2.7236
G01 X31.9492 Y2.7386
G01 X31.9478 Y2.7569
G01 X31.9439 Y2.7906
G01 X31.9411 Y2.8047
G01 X31.9392 Y2.8191
G01 X31.9320 Y2.8526
G01 X31.9273 Y2.8706
G01 X31.9228 Y2.8844
G01 X31.9190 Y2.8984
G01 X31.9130 Y2.9160
G01 X31.9011 Y2.9469
G01 X31.8947 Y2.9605
G01 X31.8891 Y2.9742
G01 X31.8739 Y3.0045
G01 X31.8650 Y3.0206
G01 X31.8571 Y3.0328
G01 X31.8500 Y3.0453
G01 X31.8397 Y3.0612
G01 X31.8199 Y3.0887
G01 X31.8106 Y3.0999
G01 X31.8018 Y3.1116
G01 X31.7798 Y3.1368
G01 X31.7668 Y3.1505
G01 X31.7561 Y3.1604
G01 X31.7459 Y3.1710
G01 X31.7327 Y3.1830
G01 X31.7261 Y3.1882
G01 X31.7199 Y3.1939
G01 X31.7066 Y3.2048
G01 X31.6946 Y3.2135
G01 X31.6830 Y3.2227
G01 X31.6681 Y3.2332
G01 X31.6395 Y3.2515
G01 X31.6267 Y3.2584
G01 X31.6144 Y3.2660
G01 X31.5847 Y3.2812
G01 X31.5667 Y3.2895
G01 X31.5533 Y3.2946
G01 X31.5403 Y3.3004
G01 X31.5087 Y3.3119
G01 X31.4904 Y3.3177
G01 X31.4764 Y3.3211
G01 X31.4626 Y3.3253
G01 X31.4447 Y3.3295
G01 X31.4119 Y3.3359
G01 X31.3971 Y3.3376
G01 X31.3822 Y3.3402
G01 X31.3656 Y3.3420
G01 X31.3479 Y3.3433
G01 X31.3056 Y3.3449
G01 X30.9244 Y3.3449
G01 X30.9008 Y3.3438
G01 X30.8858 Y3.3436
G01 X30.8675 Y3.3422
G01 X30.8338 Y3.3383
G01 X30.8197 Y3.3355
G01 X30.8053 Y3.3336
G01 X30.7718 Y3.3264
G01 X30.7538 Y3.3217
G01 X30.7400 Y3.3172
G01 X30.7260 Y3.3134
G01 X30.6940 Y3.3021
G01 X30.6775 Y3.2955
G01 X30.6639 Y3.2891
G01 X30.6502 Y3.2835
G01 X30.6199 Y3.2683
G01 X30.6038 Y3.2594
G01 X30.5916 Y3.2515
G01 X30.5791 Y3.2444
G01 X30.5507 Y3.2253
G01 X30.5357 Y3.2143
G01 X30.5245 Y3.2050
G01 X30.5128 Y3.1962
G01 X30.4876 Y3.1742
G01 X30.4739 Y3.1612
G01 X30.4640 Y3.1505
G01 X30.4534 Y3.1403
G01 X30.4414 Y3.1271
G01 X30.4362 Y3.1205
G01 X30.4305 Y3.1143
G01 X30.4196 Y3.1010
G01 X30.4109 Y3.0890
G01 X30.4017 Y3.0774
G01 X30.3827 Y3.0495
G01 X30.3729 Y3.0339
G01 X30.3660 Y3.0211
G01 X30.3584 Y3.0088
G01 X30.3432 Y2.9791
G01 X30.3349 Y2.9611
G01 X30.3298 Y2.9477
G01 X30.3240 Y2.9347
G01 X30.3175 Y2.9174
G01 X30.3067 Y2.8848
G01 X30.3033 Y2.8708
G01 X30.2991 Y2.8570
G01 X30.2949 Y2.8391
G01 X30.2935 Y2.8311
G01 X30.2916 Y2.8231
G01 X30.2885 Y2.8063
G01 X30.2868 Y2.7915
G01 X30.2842 Y2.7766
G01 X30.2824 Y2.7600
G01 X30.2802 Y2.7250
G01 X30.2795 Y2.7000
G01 X30.2795 Y2.6828
G01 X30.1167 Y2.2898
G01 X29.8158 Y1.9889
G01 X29.4228 Y1.8261
G01 X28.9972 Y1.8261
G01 X28.6042 Y1.9889
G01 X28.3960 Y2.1971
G01 X28.3782 Y2.2132
G01 X28.3677 Y2.2234
G01 X28.3424 Y2.2448
G01 X28.3271 Y2.2567
G01 X28.3151 Y2.2647
G01 X28.3035 Y2.2735
G01 X28.2887 Y2.2834
G01 X28.2598 Y2.3009
G01 X28.2464 Y2.3077
G01 X28.2331 Y2.3153
G01 X28.2175 Y2.3230
G01 X28.1861 Y2.3370
G01 X28.1722 Y2.3419
G01 X28.1585 Y2.3476
G01 X28.1414 Y2.3535
G01 X28.1093 Y2.3631
G01 X28.0947 Y2.3664
G01 X28.0802 Y2.3704
G01 X28.0471 Y2.3769
G01 X28.0287 Y2.3797
G01 X28.0142 Y2.3809
G01 X27.9998 Y2.3830
G01 X27.9652 Y2.3853
G01 X27.9476 Y2.3857
G01 X27.9331 Y2.3851
G01 X27.9186 Y2.3854
G01 X27.8845 Y2.3834
G01 X27.8665 Y2.3816
G01 X27.8517 Y2.3792
G01 X27.8369 Y2.3775
G01 X27.8045 Y2.3713
G01 X27.7860 Y2.3671
G01 X27.7722 Y2.3630
G01 X27.7582 Y2.3596
G01 X27.7401 Y2.3540
G01 X27.7327 Y2.3512
G01 X27.7251 Y2.3489
G01 X27.7082 Y2.3426
G01 X27.6951 Y2.3368
G01 X27.6818 Y2.3318
G01 X27.6640 Y2.3237
G01 X27.6573 Y2.3201
G01 X27.6501 Y2.3169
G01 X27.6345 Y2.3088
G01 X27.6219 Y2.3012
G01 X27.6088 Y2.2942
G01 X27.5803 Y2.2761
G01 X27.5650 Y2.2655
G01 X27.5536 Y2.2564
G01 X27.5417 Y2.2480
G01 X27.5283 Y2.2373
G01 X27.5205 Y2.2303
G01 X27.5158 Y2.2266
G01 X27.4840 Y2.1971
G01 X27.2758 Y1.9889
G01 X26.8828 Y1.8261
G01 X26.4572 Y1.8261
G01 X26.0642 Y1.9889
G01 X25.7633 Y2.2898
G01 X25.6005 Y2.6828
G01 X25.6005 Y4.9372
G01 X25.7633 Y5.3302
G01 X25.9060 Y5.4729
G01 X25.9333 Y5.5022
G01 X25.9435 Y5.5150
G01 X25.9542 Y5.5272
G01 X25.9650 Y5.5411
G01 X25.9830 Y5.5663
G01 X25.9917 Y5.5804
G01 X26.0009 Y5.5941
G01 X26.0158 Y5.6198
G01 X26.0249 Y5.6371
G01 X26.0314 Y5.6518
G01 X26.0387 Y5.6662
G01 X26.0505 Y5.6942
G01 X26.0570 Y5.7118
G01 X26.0616 Y5.7269
G01 X26.0669 Y5.7417
G01 X26.0724 Y5.7608
G01 X26.0795 Y5.7899
G01 X26.0823 Y5.8059
G01 X26.0858 Y5.8218
G01 X26.0885 Y5.8395
G01 X26.0920 Y5.8691
G01 X26.0932 Y5.8914
G01 X26.0942 Y5.9023
G01 X26.0949 Y5.9289
G01 X26.0949 Y8.2991
G01 X26.0936 Y8.3242
G01 X26.0934 Y8.3405
G01 X26.0919 Y8.3588
G01 X26.0883 Y8.3894
G01 X26.0852 Y8.4054
G01 X26.0829 Y8.4215
G01 X26.0794 Y8.4386
G01 X26.0719 Y8.4692
G01 X26.0668 Y8.4846
G01 X26.0625 Y8.5003
G01 X26.0567 Y8.5173
G01 X26.0454 Y8.5462
G01 X26.0385 Y8.5608
G01 X26.0324 Y8.5757
G01 X26.0184 Y8.6033
G01 X26.0092 Y8.6200
G01 X26.0006 Y8.6333
G01 X25.9928 Y8.6469
G01 X25.9825 Y8.6626
G01 X25.9649 Y8.6870
G01 X25.9649 Y9.0873
G01 X26.0160 Y9.1181
G01 X26.1093 Y9.1870
G01 X26.1173 Y9.1934
G01 X26.2060 Y9.2740
G01 X26.2866 Y9.3627
G01 X26.2930 Y9.3707
G01 X26.3577 Y9.4581
G01 X26.3656 Y9.4699
G01 X26.4215 Y9.5631
G01 X26.4269 Y9.5728
G01 X26.4762 Y9.6771
G01 X26.4802 Y9.6871
G01 X26.5192 Y9.7967
G01 X26.5474 Y9.9086
G01 X26.5501 Y9.9226
G01 X26.5661 Y10.0301
G01 X26.5675 Y10.0443
G01 X26.5730 Y10.1600
G01 X26.5669 Y10.2830
G01 X26.5501 Y10.3974
G01 X26.5483 Y10.4076
G01 X26.5300 Y10.4807
G01 X26.5415 Y10.4673
G01 X26.5533 Y10.4523
G01 X26.5700 Y10.4340
G01 X26.5832 Y10.4204
G01 X26.5972 Y10.4078
G01 X26.6105 Y10.3948
G01 X26.6300 Y10.3781
G01 X26.6446 Y10.3665
G01 X26.6598 Y10.3560
G01 X26.6744 Y10.3448
G01 X26.6906 Y10.3341
G01 X26.7116 Y10.3213
G01 X26.7283 Y10.3125
G01 X26.7448 Y10.3030
G01 X26.7618 Y10.2946
G01 X26.7851 Y10.2841
G01 X26.8025 Y10.2777
G01 X26.8197 Y10.2705
G01 X26.8427 Y10.2627
G01 X26.8616 Y10.2569
G01 X26.8799 Y10.2527
G01 X26.8979 Y10.2477
G01 X26.9160 Y10.2440
G01 X26.9405 Y10.2397
G01 X26.9598 Y10.2377
G01 X26.9792 Y10.2350
G01 X27.0041 Y10.2331
G01 X27.0221 Y10.2324
G01 X27.0412 Y10.2329
G01 X27.0603 Y10.2326
G01 X27.0849 Y10.2339
G01 X27.1040 Y10.2356
G01 X27.1225 Y10.2384
G01 X27.1411 Y10.2405
G01 X27.1589 Y10.2436
G01 X27.1836 Y10.2488
G01 X27.2020 Y10.2540
G01 X27.2205 Y10.2584
G01 X27.2394 Y10.2644
G01 X27.2622 Y10.2723
G01 X27.2796 Y10.2797
G01 X27.2970 Y10.2863
G01 X27.3145 Y10.2943
G01 X27.3366 Y10.3053
G01 X27.3529 Y10.3148
G01 X27.3694 Y10.3236
G01 X27.3855 Y10.3336
G01 X27.4063 Y10.3474
G01 X27.4215 Y10.3591
G01 X27.4370 Y10.3702
G01 X27.4495 Y10.3801
G01 X27.4700 Y10.3979
G01 X27.4767 Y10.4046
G01 X27.4945 Y10.4209
G01 X30.4060 Y13.3325
G01 X30.4333 Y13.3617
G01 X30.4435 Y13.3745
G01 X30.4542 Y13.3867
G01 X30.4654 Y13.4011
G01 X30.4830 Y13.4258
G01 X30.4917 Y13.4399
G01 X30.5009 Y13.4536
G01 X30.5158 Y13.4794
G01 X30.5248 Y13.4964
G01 X30.5314 Y13.5112
G01 X30.5387 Y13.5257
G01 X30.5460 Y13.5427
G01 X30.5570 Y13.5712
G01 X30.5616 Y13.5865
G01 X30.5670 Y13.6016
G01 X30.5723 Y13.6202
G01 X30.5796 Y13.6495
G01 X30.5823 Y13.6656
G01 X30.5858 Y13.6814
G01 X30.5885 Y13.6991
G01 X30.5920 Y13.7286
G01 X30.5932 Y13.7509
G01 X30.5942 Y13.7618
G01 X30.5949 Y13.7885
G01 X30.5949 Y17.3803
G01 X30.6946 Y17.6211
G01 X33.0316 Y19.9581
G01 X33.0589 Y19.9873
G01 X33.0691 Y20.0001
G01 X33.0798 Y20.0123
G01 X33.0910 Y20.0267
G01 X33.1086 Y20.0514
G01 X33.1173 Y20.0655
G01 X33.1265 Y20.0792
G01 X33.1414 Y20.1050
G01 X33.1504 Y20.1220
G01 X33.1570 Y20.1368
G01 X33.1643 Y20.1513
G01 X33.1716 Y20.1683
G01 X33.1826 Y20.1968
G01 X33.1872 Y20.2121
G01 X33.1926 Y20.2272
G01 X33.1979 Y20.2458
G01 X33.2052 Y20.2751
G01 X33.2079 Y20.2912
G01 X33.2114 Y20.3070
G01 X33.2141 Y20.3247
G01 X33.2176 Y20.3542
G01 X33.2188 Y20.3765
G01 X33.2198 Y20.3874
G01 X33.2205 Y20.4141
G01 X33.2205 Y20.7630
G01 X33.8470 Y21.3895
G01 X34.7330 Y21.3895
G01 X35.3595 Y20.7630
G01 X35.3595 Y20.2658
G01 X35.3613 Y20.2336
G01 X35.3621 Y20.2105
G01 X35.3640 Y20.1915
G01 X35.3661 Y20.1755
G01 X35.3704 Y20.1526
G01 X35.3743 Y20.1297
G01 X35.3778 Y20.1143
G01 X35.3826 Y20.0954
G01 X35.3898 Y20.0734
G01 X35.3965 Y20.0511
G01 X35.4025 Y20.0346
G01 X35.4090 Y20.0185
G01 X35.4189 Y19.9976
G01 X35.4282 Y19.9765
G01 X35.4452 Y19.9448
G01 X35.4538 Y19.9315
G01 X35.4271 Y19.9170
G01 X35.4118 Y19.9076
G01 X35.3975 Y19.8981
G01 X35.3791 Y19.8843
G01 X35.3603 Y19.8710
G01 X35.3475 Y19.8609
G01 X35.3329 Y19.8483
G01 X35.3249 Y19.8405
G01 X35.3080 Y19.8253
G01 X34.7330 Y19.2505
G01 X34.4441 Y19.2505
G01 X34.4291 Y19.2499
G01 X34.4226 Y19.2500
G01 X34.4040 Y19.2491
G01 X34.3877 Y19.2473
G01 X34.3714 Y19.2462
G01 X34.3417 Y19.2421
G01 X34.3228 Y19.2388
G01 X34.3074 Y19.2350
G01 X34.2917 Y19.2320
G01 X34.2738 Y19.2274
G01 X34.2444 Y19.2186
G01 X34.2291 Y19.2128
G01 X34.2134 Y19.2076
G01 X34.1860 Y19.1964
G01 X34.1686 Y19.1885
G01 X34.1543 Y19.1809
G01 X34.1398 Y19.1740
G01 X34.1227 Y19.1645
G01 X34.0974 Y19.1491
G01 X34.0841 Y19.1397
G01 X34.0705 Y19.1310
G01 X34.0456 Y19.1124
G01 X34.0326 Y19.1020
G01 X34.0158 Y19.0869
G01 X34.0073 Y19.0798
G01 X33.9881 Y19.0616
G01 X33.4405 Y18.5140
G01 X33.4246 Y18.4964
G01 X33.4145 Y18.4861
G01 X33.4023 Y18.4721
G01 X33.3813 Y18.4456
G01 X33.3728 Y18.4331
G01 X33.3637 Y18.4210
G01 X33.3542 Y18.4067
G01 X33.3366 Y18.3776
G01 X33.3298 Y18.3642
G01 X33.3223 Y18.3511
G01 X33.3146 Y18.3355
G01 X33.3006 Y18.3041
G01 X33.2958 Y18.2905
G01 X33.2902 Y18.2772
G01 X33.2837 Y18.2584
G01 X33.2742 Y18.2264
G01 X33.2711 Y18.2123
G01 X33.2673 Y18.1985
G01 X33.2636 Y18.1808
G01 X33.2580 Y18.1474
G01 X33.2566 Y18.1326
G01 X33.2545 Y18.1178
G01 X33.2523 Y18.0845
G01 X33.2518 Y18.0657
G01 X33.2524 Y18.0511
G01 X33.2521 Y18.0366
G01 X33.2530 Y18.0177
G01 X33.2560 Y17.9845
G01 X33.2584 Y17.9701
G01 X33.2600 Y17.9556
G01 X33.2632 Y17.9373
G01 X33.2651 Y17.9294
G01 X33.2664 Y17.9214
G01 X33.2705 Y17.9040
G01 X33.2746 Y17.8902
G01 X33.2780 Y17.8762
G01 X33.2836 Y17.8581
G01 X33.2947 Y17.8266
G01 X33.3008 Y17.8128
G01 X33.3061 Y17.7990
G01 X33.3204 Y17.7687
G01 X33.3289 Y17.7524
G01 X33.3365 Y17.7397
G01 X33.3434 Y17.7268
G01 X33.3531 Y17.7111
G01 X33.3721 Y17.6830
G01 X33.3812 Y17.6716
G01 X33.3896 Y17.6597
G01 X33.4003 Y17.6463
G01 X33.4073 Y17.6385
G01 X33.4110 Y17.6338
G01 X33.4230 Y17.6204
G01 X33.4405 Y17.6020
G01 X34.0895 Y16.9530
G01 X34.0895 Y16.0670
G01 X33.8440 Y15.8215
G01 X33.8336 Y15.8102
G01 X33.8293 Y15.8060
