(G-CODE GENERATED BY FLATCAM v8.99 - www.flatcam.org - Version Date: 2019/12/15)

(Name: copper_bottom.gbr_cutout_1.7_cnc)
(Type: G-code from Geometry)
(Units: MM)

(Created on Saturday, 14 March 2020 at 12:05)

(TOOL DIAMETER: 1.7 mm)
(Feedrate: 40.0 mm/min)
(Feedrate_Z: 30.0 mm/min)
(Feedrate rapids 1500.0 mm/min)

(Z_Cut: -2.0 mm)
(DepthPerCut: 1.0 mm <=>2 passes)
(Z_Move: 2.0 mm)
(Z Toolchange: 15.0 mm)
(X,Y Toolchange: 0.0000, 0.0000 mm)
(Z Start: None mm)
(Z End: 15.0 mm)
(Steps per circle: 64)
(Preprocessor Geometry: default)

(X range:   -0.0805 ...   48.6037  mm)
(Y range:   -0.6488 ...   51.0994  mm)

(Spindle Speed: None RPM)
G21
G90
G94




G01 F40.00
G00 Z2.0000

M03
G00 X-0.0805 Y23.4753
G01 F30.00
G01 Z-1.0000
G01 F40.00
G01 X-0.0805 Y0.3012
G01 X-0.0759 Y0.2081
G01 X-0.0622 Y0.1159
G01 X-0.0396 Y0.0254
G01 X-0.0082 Y-0.0623
G01 X0.0317 Y-0.1466
G01 X0.0796 Y-0.2266
G01 X0.1351 Y-0.3015
G01 X0.1977 Y-0.3706
G01 X0.2668 Y-0.4332
G01 X0.3417 Y-0.4887
G01 X0.4217 Y-0.5366
G01 X0.5060 Y-0.5765
G01 X0.5937 Y-0.6079
G01 X0.6842 Y-0.6305
G01 X0.7764 Y-0.6442
G01 X0.8695 Y-0.6488
G01 X47.6537 Y-0.6488
G00 X47.6537 Y-0.6488
G01 F30.00
G01 Z-2.0000
G01 F40.00
G01 X0.8695 Y-0.6488
G01 X0.7764 Y-0.6442
G01 X0.6842 Y-0.6305
G01 X0.5937 Y-0.6079
G01 X0.5060 Y-0.5765
G01 X0.4217 Y-0.5366
G01 X0.3417 Y-0.4887
G01 X0.2668 Y-0.4332
G01 X0.1977 Y-0.3706
G01 X0.1351 Y-0.3015
G01 X0.0796 Y-0.2266
G01 X0.0317 Y-0.1466
G01 X-0.0082 Y-0.0623
G01 X-0.0396 Y0.0254
G01 X-0.0622 Y0.1159
G01 X-0.0759 Y0.2081
G01 X-0.0805 Y0.3012
G01 X-0.0805 Y23.4753
G00 Z2.0000
G00 X-0.0805 Y27.1753
G01 F30.00
G01 Z-1.0000
G01 F40.00
G01 X-0.0805 Y50.1494
G01 X-0.0759 Y50.2425
G01 X-0.0622 Y50.3347
G01 X-0.0396 Y50.4252
G01 X-0.0082 Y50.5129
G01 X0.0317 Y50.5972
G01 X0.0796 Y50.6772
G01 X0.1351 Y50.7521
G01 X0.1977 Y50.8212
G01 X0.2668 Y50.8838
G01 X0.3417 Y50.9393
G01 X0.4217 Y50.9872
G01 X0.5060 Y51.0271
G01 X0.5937 Y51.0585
G01 X0.6842 Y51.0811
G01 X0.7764 Y51.0948
G01 X0.8695 Y51.0994
G01 X47.6537 Y51.0994
G01 X47.7468 Y51.0948
G01 X47.8390 Y51.0811
G01 X47.9295 Y51.0585
G01 X48.0172 Y51.0271
G01 X48.1015 Y50.9872
G01 X48.1815 Y50.9393
G01 X48.2564 Y50.8838
G01 X48.3255 Y50.8212
G01 X48.3881 Y50.7521
G01 X48.4436 Y50.6772
G01 X48.4915 Y50.5972
G01 X48.5314 Y50.5129
G01 X48.5628 Y50.4252
G01 X48.5854 Y50.3347
G01 X48.5991 Y50.2425
G01 X48.6037 Y50.1494
G01 X48.6037 Y27.1753
G00 X48.6037 Y27.1753
G01 F30.00
G01 Z-2.0000
G01 F40.00
G01 X48.6037 Y50.1494
G01 X48.5991 Y50.2425
G01 X48.5854 Y50.3347
G01 X48.5628 Y50.4252
G01 X48.5314 Y50.5129
G01 X48.4915 Y50.5972
G01 X48.4436 Y50.6772
G01 X48.3881 Y50.7521
G01 X48.3255 Y50.8212
G01 X48.2564 Y50.8838
G01 X48.1815 Y50.9393
G01 X48.1015 Y50.9872
G01 X48.0172 Y51.0271
G01 X47.9295 Y51.0585
G01 X47.8390 Y51.0811
G01 X47.7468 Y51.0948
G01 X47.6537 Y51.0994
G01 X0.8695 Y51.0994
G01 X0.7764 Y51.0948
G01 X0.6842 Y51.0811
G01 X0.5937 Y51.0585
G01 X0.5060 Y51.0271
G01 X0.4217 Y50.9872
G01 X0.3417 Y50.9393
G01 X0.2668 Y50.8838
G01 X0.1977 Y50.8212
G01 X0.1351 Y50.7521
G01 X0.0796 Y50.6772
G01 X0.0317 Y50.5972
G01 X-0.0082 Y50.5129
G01 X-0.0396 Y50.4252
G01 X-0.0622 Y50.3347
G01 X-0.0759 Y50.2425
G01 X-0.0805 Y50.1494
G01 X-0.0805 Y27.1753
G00 Z2.0000
G00 X48.6037 Y23.4753
G01 F30.00
G01 Z-1.0000
G01 F40.00
G01 X48.6037 Y0.3012
G01 X48.5991 Y0.2081
G01 X48.5854 Y0.1159
G01 X48.5628 Y0.0254
G01 X48.5314 Y-0.0623
G01 X48.4915 Y-0.1466
G01 X48.4436 Y-0.2266
G01 X48.3881 Y-0.3015
G01 X48.3255 Y-0.3706
G01 X48.2564 Y-0.4332
G01 X48.1815 Y-0.4887
G01 X48.1015 Y-0.5366
G01 X48.0172 Y-0.5765
G01 X47.9295 Y-0.6079
G01 X47.8390 Y-0.6305
G01 X47.7468 Y-0.6442
G01 X47.6537 Y-0.6488
G00 X47.6537 Y-0.6488
G01 F30.00
G01 Z-2.0000
G01 F40.00
G01 X47.7468 Y-0.6442
G01 X47.8390 Y-0.6305
G01 X47.9295 Y-0.6079
G01 X48.0172 Y-0.5765
G01 X48.1015 Y-0.5366
G01 X48.1815 Y-0.4887
G01 X48.2564 Y-0.4332
G01 X48.3255 Y-0.3706
G01 X48.3881 Y-0.3015
G01 X48.4436 Y-0.2266
G01 X48.4915 Y-0.1466
G01 X48.5314 Y-0.0623
G01 X48.5628 Y0.0254
G01 X48.5854 Y0.1159
G01 X48.5991 Y0.2081
G01 X48.6037 Y0.3012
G01 X48.6037 Y23.4753
G00 Z2.0000
M05
G00 Z2.0000
G00 Z15.00
G00 X0.0 Y0.0

