(G-CODE GENERATED BY FLATCAM v8.99 - www.flatcam.org - Version Date: 2019/12/15)

(Name: drill_1_16.xln_mill_cnc_2.5)
(Type: G-code from Geometry)
(Units: MM)

(Created on Saturday, 14 March 2020 at 12:32)

(TOOL DIAMETER: 2.5 mm)
(Feedrate: 120.0 mm/min)
(Feedrate_Z: 25.0 mm/min)
(Feedrate rapids 1500.0 mm/min)

(Z_Cut: -2.1 mm)
(Z_Move: 2.0 mm)
(Z Toolchange: 15.0 mm)
(X,Y Toolchange: 0.0000, 0.0000 mm)
(Z Start: None mm)
(Z End: 15.0 mm)
(Steps per circle: 64)
(Preprocessor Geometry: default)

(X range:    2.1500 ...   46.1500  mm)
(Y range:    2.4500 ...   48.8500  mm)

(Spindle Speed: None RPM)
G21
G90
G94




G01 F120.00
G00 Z2.0000

M03
G00 X31.6500 Y33.0000
G01 F25.00
G01 Z-2.1000
G01 F120.00
G01 X31.6440 Y32.8775
G01 X31.6260 Y32.7561
G01 X31.5962 Y32.6371
G01 X31.5548 Y32.5216
G01 X31.5024 Y32.4108
G01 X31.4393 Y32.3055
G01 X31.3663 Y32.2070
G01 X31.2839 Y32.1161
G01 X31.1930 Y32.0337
G01 X31.0945 Y31.9607
G01 X30.9892 Y31.8976
G01 X30.8784 Y31.8452
G01 X30.7629 Y31.8038
G01 X30.6439 Y31.7740
G01 X30.5225 Y31.7560
G01 X30.4000 Y31.7500
G01 X30.2775 Y31.7560
G01 X30.1561 Y31.7740
G01 X30.0371 Y31.8038
G01 X29.9216 Y31.8452
G01 X29.8108 Y31.8976
G01 X29.7055 Y31.9607
G01 X29.6070 Y32.0337
G01 X29.5161 Y32.1161
G01 X29.4337 Y32.2070
G01 X29.3607 Y32.3055
G01 X29.2976 Y32.4108
G01 X29.2452 Y32.5216
G01 X29.2038 Y32.6371
G01 X29.1740 Y32.7561
G01 X29.1560 Y32.8775
G01 X29.1500 Y33.0000
G01 X29.1560 Y33.1225
G01 X29.1740 Y33.2439
G01 X29.2038 Y33.3629
G01 X29.2452 Y33.4784
G01 X29.2976 Y33.5892
G01 X29.3607 Y33.6945
G01 X29.4337 Y33.7930
G01 X29.5161 Y33.8839
G01 X29.6070 Y33.9663
G01 X29.7055 Y34.0393
G01 X29.8108 Y34.1024
G01 X29.9216 Y34.1548
G01 X30.0371 Y34.1962
G01 X30.1561 Y34.2260
G01 X30.2775 Y34.2440
G01 X30.4000 Y34.2500
G01 X30.5225 Y34.2440
G01 X30.6439 Y34.2260
G01 X30.7629 Y34.1962
G01 X30.8784 Y34.1548
G01 X30.9892 Y34.1024
G01 X31.0945 Y34.0393
G01 X31.1930 Y33.9663
G01 X31.2839 Y33.8839
G01 X31.3663 Y33.7930
G01 X31.4393 Y33.6945
G01 X31.5024 Y33.5892
G01 X31.5548 Y33.4784
G01 X31.5962 Y33.3629
G01 X31.6260 Y33.2439
G01 X31.6440 Y33.1225
G01 X31.6500 Y33.0000
G00 Z2.0000
G00 X46.1500 Y48.6000
G01 F25.00
G01 Z-2.1000
G01 F120.00
G01 X46.1488 Y48.5755
G01 X46.1452 Y48.5512
G01 X46.1392 Y48.5274
G01 X46.1310 Y48.5043
G01 X46.1205 Y48.4822
G01 X46.1079 Y48.4611
G01 X46.0933 Y48.4414
G01 X46.0768 Y48.4232
G01 X46.0586 Y48.4067
G01 X46.0389 Y48.3921
G01 X46.0178 Y48.3795
G01 X45.9957 Y48.3690
G01 X45.9726 Y48.3608
G01 X45.9488 Y48.3548
G01 X45.9245 Y48.3512
G01 X45.9000 Y48.3500
G01 X45.8755 Y48.3512
G01 X45.8512 Y48.3548
G01 X45.8274 Y48.3608
G01 X45.8043 Y48.3690
G01 X45.7822 Y48.3795
G01 X45.7611 Y48.3921
G01 X45.7414 Y48.4067
G01 X45.7232 Y48.4232
G01 X45.7067 Y48.4414
G01 X45.6921 Y48.4611
G01 X45.6795 Y48.4822
G01 X45.6690 Y48.5043
G01 X45.6608 Y48.5274
G01 X45.6548 Y48.5512
G01 X45.6512 Y48.5755
G01 X45.6500 Y48.6000
G01 X45.6512 Y48.6245
G01 X45.6548 Y48.6488
G01 X45.6608 Y48.6726
G01 X45.6690 Y48.6957
G01 X45.6795 Y48.7178
G01 X45.6921 Y48.7389
G01 X45.7067 Y48.7586
G01 X45.7232 Y48.7768
G01 X45.7414 Y48.7933
G01 X45.7611 Y48.8079
G01 X45.7822 Y48.8205
G01 X45.8043 Y48.8310
G01 X45.8274 Y48.8392
G01 X45.8512 Y48.8452
G01 X45.8755 Y48.8488
G01 X45.9000 Y48.8500
G01 X45.9245 Y48.8488
G01 X45.9488 Y48.8452
G01 X45.9726 Y48.8392
G01 X45.9957 Y48.8310
G01 X46.0178 Y48.8205
G01 X46.0389 Y48.8079
G01 X46.0586 Y48.7933
G01 X46.0768 Y48.7768
G01 X46.0933 Y48.7586
G01 X46.1079 Y48.7389
G01 X46.1205 Y48.7178
G01 X46.1310 Y48.6957
G01 X46.1392 Y48.6726
G01 X46.1452 Y48.6488
G01 X46.1488 Y48.6245
G01 X46.1500 Y48.6000
G00 Z2.0000
G00 X2.6500 Y48.6000
G01 F25.00
G01 Z-2.1000
G01 F120.00
G01 X2.6488 Y48.5755
G01 X2.6452 Y48.5512
G01 X2.6392 Y48.5274
G01 X2.6310 Y48.5043
G01 X2.6205 Y48.4822
G01 X2.6079 Y48.4611
G01 X2.5933 Y48.4414
G01 X2.5768 Y48.4232
G01 X2.5586 Y48.4067
G01 X2.5389 Y48.3921
G01 X2.5178 Y48.3795
G01 X2.4957 Y48.3690
G01 X2.4726 Y48.3608
G01 X2.4488 Y48.3548
G01 X2.4245 Y48.3512
G01 X2.4000 Y48.3500
G01 X2.3755 Y48.3512
G01 X2.3512 Y48.3548
G01 X2.3274 Y48.3608
G01 X2.3043 Y48.3690
G01 X2.2822 Y48.3795
G01 X2.2611 Y48.3921
G01 X2.2414 Y48.4067
G01 X2.2232 Y48.4232
G01 X2.2067 Y48.4414
G01 X2.1921 Y48.4611
G01 X2.1795 Y48.4822
G01 X2.1690 Y48.5043
G01 X2.1608 Y48.5274
G01 X2.1548 Y48.5512
G01 X2.1512 Y48.5755
G01 X2.1500 Y48.6000
G01 X2.1512 Y48.6245
G01 X2.1548 Y48.6488
G01 X2.1608 Y48.6726
G01 X2.1690 Y48.6957
G01 X2.1795 Y48.7178
G01 X2.1921 Y48.7389
G01 X2.2067 Y48.7586
G01 X2.2232 Y48.7768
G01 X2.2414 Y48.7933
G01 X2.2611 Y48.8079
G01 X2.2822 Y48.8205
G01 X2.3043 Y48.8310
G01 X2.3274 Y48.8392
G01 X2.3512 Y48.8452
G01 X2.3755 Y48.8488
G01 X2.4000 Y48.8500
G01 X2.4245 Y48.8488
G01 X2.4488 Y48.8452
G01 X2.4726 Y48.8392
G01 X2.4957 Y48.8310
G01 X2.5178 Y48.8205
G01 X2.5389 Y48.8079
G01 X2.5586 Y48.7933
G01 X2.5768 Y48.7768
G01 X2.5933 Y48.7586
G01 X2.6079 Y48.7389
G01 X2.6205 Y48.7178
G01 X2.6310 Y48.6957
G01 X2.6392 Y48.6726
G01 X2.6452 Y48.6488
G01 X2.6488 Y48.6245
G01 X2.6500 Y48.6000
G00 Z2.0000
G00 X45.7500 Y3.7000
G01 F25.00
G01 Z-2.1000
G01 F120.00
G01 X45.7440 Y3.5775
G01 X45.7260 Y3.4561
G01 X45.6962 Y3.3371
G01 X45.6548 Y3.2216
G01 X45.6024 Y3.1108
G01 X45.5393 Y3.0055
G01 X45.4663 Y2.9070
G01 X45.3839 Y2.8161
G01 X45.2930 Y2.7337
G01 X45.1945 Y2.6607
G01 X45.0892 Y2.5976
G01 X44.9784 Y2.5452
G01 X44.8629 Y2.5038
G01 X44.7439 Y2.4740
G01 X44.6225 Y2.4560
G01 X44.5000 Y2.4500
G01 X44.3775 Y2.4560
G01 X44.2561 Y2.4740
G01 X44.1371 Y2.5038
G01 X44.0216 Y2.5452
G01 X43.9108 Y2.5976
G01 X43.8055 Y2.6607
G01 X43.7070 Y2.7337
G01 X43.6161 Y2.8161
G01 X43.5337 Y2.9070
G01 X43.4607 Y3.0055
G01 X43.3976 Y3.1108
G01 X43.3452 Y3.2216
G01 X43.3038 Y3.3371
G01 X43.2740 Y3.4561
G01 X43.2560 Y3.5775
G01 X43.2500 Y3.7000
G01 X43.2560 Y3.8225
G01 X43.2740 Y3.9439
G01 X43.3038 Y4.0629
G01 X43.3452 Y4.1784
G01 X43.3976 Y4.2892
G01 X43.4607 Y4.3945
G01 X43.5337 Y4.4930
G01 X43.6161 Y4.5839
G01 X43.7070 Y4.6663
G01 X43.8055 Y4.7393
G01 X43.9108 Y4.8024
G01 X44.0216 Y4.8548
G01 X44.1371 Y4.8962
G01 X44.2561 Y4.9260
G01 X44.3775 Y4.9440
G01 X44.5000 Y4.9500
G01 X44.6225 Y4.9440
G01 X44.7439 Y4.9260
G01 X44.8629 Y4.8962
G01 X44.9784 Y4.8548
G01 X45.0892 Y4.8024
G01 X45.1945 Y4.7393
G01 X45.2930 Y4.6663
G01 X45.3839 Y4.5839
G01 X45.4663 Y4.4930
G01 X45.5393 Y4.3945
G01 X45.6024 Y4.2892
G01 X45.6548 Y4.1784
G01 X45.6962 Y4.0629
G01 X45.7260 Y3.9439
G01 X45.7440 Y3.8225
G01 X45.7500 Y3.7000
G00 Z2.0000
M05
G00 Z2.0000
G00 Z15.00
G00 X0.0 Y0.0

