(G-CODE GENERATED BY FLATCAM v8.99 - www.flatcam.org - Version Date: 2019/12/15)

(Name: drill_1_16.xln_mill_cnc_0.8)
(Type: G-code from Geometry)
(Units: MM)

(Created on Saturday, 14 March 2020 at 12:27)

(TOOL DIAMETER: 0.6 mm)
(Feedrate: 120.0 mm/min)
(Feedrate_Z: 25.0 mm/min)
(Feedrate rapids 1500.0 mm/min)

(Z_Cut: -2.1 mm)
(Z_Move: 2.0 mm)
(Z Toolchange: 15.0 mm)
(X,Y Toolchange: 0.0000, 0.0000 mm)
(Z Start: None mm)
(Z End: 15.0 mm)
(Steps per circle: 64)
(Preprocessor Geometry: default)

(X range:    8.7835 ...   43.8200  mm)
(Y range:    3.7035 ...   45.4360  mm)

(Spindle Speed: None RPM)
G21
G90
G94




G01 F120.00
G00 Z2.0000

M03
G00 X8.9965 Y8.2550
G01 F25.00
G01 Z-2.1000
G01 F120.00
G01 X8.9960 Y8.2446
G01 X8.9945 Y8.2342
G01 X8.9919 Y8.2241
G01 X8.9884 Y8.2142
G01 X8.9839 Y8.2048
G01 X8.9786 Y8.1958
G01 X8.9723 Y8.1874
G01 X8.9653 Y8.1797
G01 X8.9576 Y8.1727
G01 X8.9492 Y8.1664
G01 X8.9402 Y8.1611
G01 X8.9308 Y8.1566
G01 X8.9209 Y8.1531
G01 X8.9108 Y8.1505
G01 X8.9004 Y8.1490
G01 X8.8900 Y8.1485
G01 X8.8796 Y8.1490
G01 X8.8692 Y8.1505
G01 X8.8591 Y8.1531
G01 X8.8492 Y8.1566
G01 X8.8398 Y8.1611
G01 X8.8308 Y8.1664
G01 X8.8224 Y8.1727
G01 X8.8147 Y8.1797
G01 X8.8077 Y8.1874
G01 X8.8014 Y8.1958
G01 X8.7961 Y8.2048
G01 X8.7916 Y8.2142
G01 X8.7881 Y8.2241
G01 X8.7855 Y8.2342
G01 X8.7840 Y8.2446
G01 X8.7835 Y8.2550
G01 X8.7840 Y8.2654
G01 X8.7855 Y8.2758
G01 X8.7881 Y8.2859
G01 X8.7916 Y8.2958
G01 X8.7961 Y8.3052
G01 X8.8014 Y8.3142
G01 X8.8077 Y8.3226
G01 X8.8147 Y8.3303
G01 X8.8224 Y8.3373
G01 X8.8308 Y8.3436
G01 X8.8398 Y8.3489
G01 X8.8492 Y8.3534
G01 X8.8591 Y8.3569
G01 X8.8692 Y8.3595
G01 X8.8796 Y8.3610
G01 X8.8900 Y8.3615
G01 X8.9004 Y8.3610
G01 X8.9108 Y8.3595
G01 X8.9209 Y8.3569
G01 X8.9308 Y8.3534
G01 X8.9402 Y8.3489
G01 X8.9492 Y8.3436
G01 X8.9576 Y8.3373
G01 X8.9653 Y8.3303
G01 X8.9723 Y8.3226
G01 X8.9786 Y8.3142
G01 X8.9839 Y8.3052
G01 X8.9884 Y8.2958
G01 X8.9919 Y8.2859
G01 X8.9945 Y8.2758
G01 X8.9960 Y8.2654
G01 X8.9965 Y8.2550
G00 Z2.0000
G00 X14.0765 Y3.8100
G01 F25.00
G01 Z-2.1000
G01 F120.00
G01 X14.0760 Y3.7996
G01 X14.0745 Y3.7892
G01 X14.0719 Y3.7791
G01 X14.0684 Y3.7692
G01 X14.0639 Y3.7598
G01 X14.0586 Y3.7508
G01 X14.0523 Y3.7424
G01 X14.0453 Y3.7347
G01 X14.0376 Y3.7277
G01 X14.0292 Y3.7214
G01 X14.0202 Y3.7161
G01 X14.0108 Y3.7116
G01 X14.0009 Y3.7081
G01 X13.9908 Y3.7055
G01 X13.9804 Y3.7040
G01 X13.9700 Y3.7035
G01 X13.9596 Y3.7040
G01 X13.9492 Y3.7055
G01 X13.9391 Y3.7081
G01 X13.9292 Y3.7116
G01 X13.9198 Y3.7161
G01 X13.9108 Y3.7214
G01 X13.9024 Y3.7277
G01 X13.8947 Y3.7347
G01 X13.8877 Y3.7424
G01 X13.8814 Y3.7508
G01 X13.8761 Y3.7598
G01 X13.8716 Y3.7692
G01 X13.8681 Y3.7791
G01 X13.8655 Y3.7892
G01 X13.8640 Y3.7996
G01 X13.8635 Y3.8100
G01 X13.8640 Y3.8204
G01 X13.8655 Y3.8308
G01 X13.8681 Y3.8409
G01 X13.8716 Y3.8508
G01 X13.8761 Y3.8602
G01 X13.8814 Y3.8692
G01 X13.8877 Y3.8776
G01 X13.8947 Y3.8853
G01 X13.9024 Y3.8923
G01 X13.9108 Y3.8986
G01 X13.9198 Y3.9039
G01 X13.9292 Y3.9084
G01 X13.9391 Y3.9119
G01 X13.9492 Y3.9145
G01 X13.9596 Y3.9160
G01 X13.9700 Y3.9165
G01 X13.9804 Y3.9160
G01 X13.9908 Y3.9145
G01 X14.0009 Y3.9119
G01 X14.0108 Y3.9084
G01 X14.0202 Y3.9039
G01 X14.0292 Y3.8986
G01 X14.0376 Y3.8923
G01 X14.0453 Y3.8853
G01 X14.0523 Y3.8776
G01 X14.0586 Y3.8692
G01 X14.0639 Y3.8602
G01 X14.0684 Y3.8508
G01 X14.0719 Y3.8409
G01 X14.0745 Y3.8308
G01 X14.0760 Y3.8204
G01 X14.0765 Y3.8100
G00 Z2.0000
G00 X16.6165 Y3.8100
G01 F25.00
G01 Z-2.1000
G01 F120.00
G01 X16.6160 Y3.7996
G01 X16.6145 Y3.7892
G01 X16.6119 Y3.7791
G01 X16.6084 Y3.7692
G01 X16.6039 Y3.7598
G01 X16.5986 Y3.7508
G01 X16.5923 Y3.7424
G01 X16.5853 Y3.7347
G01 X16.5776 Y3.7277
G01 X16.5692 Y3.7214
G01 X16.5602 Y3.7161
G01 X16.5508 Y3.7116
G01 X16.5409 Y3.7081
G01 X16.5308 Y3.7055
G01 X16.5204 Y3.7040
G01 X16.5100 Y3.7035
G01 X16.4996 Y3.7040
G01 X16.4892 Y3.7055
G01 X16.4791 Y3.7081
G01 X16.4692 Y3.7116
G01 X16.4598 Y3.7161
G01 X16.4508 Y3.7214
G01 X16.4424 Y3.7277
G01 X16.4347 Y3.7347
G01 X16.4277 Y3.7424
G01 X16.4214 Y3.7508
G01 X16.4161 Y3.7598
G01 X16.4116 Y3.7692
G01 X16.4081 Y3.7791
G01 X16.4055 Y3.7892
G01 X16.4040 Y3.7996
G01 X16.4035 Y3.8100
G01 X16.4040 Y3.8204
G01 X16.4055 Y3.8308
G01 X16.4081 Y3.8409
G01 X16.4116 Y3.8508
G01 X16.4161 Y3.8602
G01 X16.4214 Y3.8692
G01 X16.4277 Y3.8776
G01 X16.4347 Y3.8853
G01 X16.4424 Y3.8923
G01 X16.4508 Y3.8986
G01 X16.4598 Y3.9039
G01 X16.4692 Y3.9084
G01 X16.4791 Y3.9119
G01 X16.4892 Y3.9145
G01 X16.4996 Y3.9160
G01 X16.5100 Y3.9165
G01 X16.5204 Y3.9160
G01 X16.5308 Y3.9145
G01 X16.5409 Y3.9119
G01 X16.5508 Y3.9084
G01 X16.5602 Y3.9039
G01 X16.5692 Y3.8986
G01 X16.5776 Y3.8923
G01 X16.5853 Y3.8853
G01 X16.5923 Y3.8776
G01 X16.5986 Y3.8692
G01 X16.6039 Y3.8602
G01 X16.6084 Y3.8508
G01 X16.6119 Y3.8409
G01 X16.6145 Y3.8308
G01 X16.6160 Y3.8204
G01 X16.6165 Y3.8100
G00 Z2.0000
G00 X20.4265 Y3.8100
G01 F25.00
G01 Z-2.1000
G01 F120.00
G01 X20.4260 Y3.7996
G01 X20.4245 Y3.7892
G01 X20.4219 Y3.7791
G01 X20.4184 Y3.7692
G01 X20.4139 Y3.7598
G01 X20.4086 Y3.7508
G01 X20.4023 Y3.7424
G01 X20.3953 Y3.7347
G01 X20.3876 Y3.7277
G01 X20.3792 Y3.7214
G01 X20.3702 Y3.7161
G01 X20.3608 Y3.7116
G01 X20.3509 Y3.7081
G01 X20.3408 Y3.7055
G01 X20.3304 Y3.7040
G01 X20.3200 Y3.7035
G01 X20.3096 Y3.7040
G01 X20.2992 Y3.7055
G01 X20.2891 Y3.7081
G01 X20.2792 Y3.7116
G01 X20.2698 Y3.7161
G01 X20.2608 Y3.7214
G01 X20.2524 Y3.7277
G01 X20.2447 Y3.7347
G01 X20.2377 Y3.7424
G01 X20.2314 Y3.7508
G01 X20.2261 Y3.7598
G01 X20.2216 Y3.7692
G01 X20.2181 Y3.7791
G01 X20.2155 Y3.7892
G01 X20.2140 Y3.7996
G01 X20.2135 Y3.8100
G01 X20.2140 Y3.8204
G01 X20.2155 Y3.8308
G01 X20.2181 Y3.8409
G01 X20.2216 Y3.8508
G01 X20.2261 Y3.8602
G01 X20.2314 Y3.8692
G01 X20.2377 Y3.8776
G01 X20.2447 Y3.8853
G01 X20.2524 Y3.8923
G01 X20.2608 Y3.8986
G01 X20.2698 Y3.9039
G01 X20.2792 Y3.9084
G01 X20.2891 Y3.9119
G01 X20.2992 Y3.9145
G01 X20.3096 Y3.9160
G01 X20.3200 Y3.9165
G01 X20.3304 Y3.9160
G01 X20.3408 Y3.9145
G01 X20.3509 Y3.9119
G01 X20.3608 Y3.9084
G01 X20.3702 Y3.9039
G01 X20.3792 Y3.8986
G01 X20.3876 Y3.8923
G01 X20.3953 Y3.8853
G01 X20.4023 Y3.8776
G01 X20.4086 Y3.8692
G01 X20.4139 Y3.8602
G01 X20.4184 Y3.8508
G01 X20.4219 Y3.8409
G01 X20.4245 Y3.8308
G01 X20.4260 Y3.8204
G01 X20.4265 Y3.8100
G00 Z2.0000
G00 X22.9665 Y3.8100
G01 F25.00
G01 Z-2.1000
G01 F120.00
G01 X22.9660 Y3.7996
G01 X22.9645 Y3.7892
G01 X22.9619 Y3.7791
G01 X22.9584 Y3.7692
G01 X22.9539 Y3.7598
G01 X22.9486 Y3.7508
G01 X22.9423 Y3.7424
G01 X22.9353 Y3.7347
G01 X22.9276 Y3.7277
G01 X22.9192 Y3.7214
G01 X22.9102 Y3.7161
G01 X22.9008 Y3.7116
G01 X22.8909 Y3.7081
G01 X22.8808 Y3.7055
G01 X22.8704 Y3.7040
G01 X22.8600 Y3.7035
G01 X22.8496 Y3.7040
G01 X22.8392 Y3.7055
G01 X22.8291 Y3.7081
G01 X22.8192 Y3.7116
G01 X22.8098 Y3.7161
G01 X22.8008 Y3.7214
G01 X22.7924 Y3.7277
G01 X22.7847 Y3.7347
G01 X22.7777 Y3.7424
G01 X22.7714 Y3.7508
G01 X22.7661 Y3.7598
G01 X22.7616 Y3.7692
G01 X22.7581 Y3.7791
G01 X22.7555 Y3.7892
G01 X22.7540 Y3.7996
G01 X22.7535 Y3.8100
G01 X22.7540 Y3.8204
G01 X22.7555 Y3.8308
G01 X22.7581 Y3.8409
G01 X22.7616 Y3.8508
G01 X22.7661 Y3.8602
G01 X22.7714 Y3.8692
G01 X22.7777 Y3.8776
G01 X22.7847 Y3.8853
G01 X22.7924 Y3.8923
G01 X22.8008 Y3.8986
G01 X22.8098 Y3.9039
G01 X22.8192 Y3.9084
G01 X22.8291 Y3.9119
G01 X22.8392 Y3.9145
G01 X22.8496 Y3.9160
G01 X22.8600 Y3.9165
G01 X22.8704 Y3.9160
G01 X22.8808 Y3.9145
G01 X22.8909 Y3.9119
G01 X22.9008 Y3.9084
G01 X22.9102 Y3.9039
G01 X22.9192 Y3.8986
G01 X22.9276 Y3.8923
G01 X22.9353 Y3.8853
G01 X22.9423 Y3.8776
G01 X22.9486 Y3.8692
G01 X22.9539 Y3.8602
G01 X22.9584 Y3.8508
G01 X22.9619 Y3.8409
G01 X22.9645 Y3.8308
G01 X22.9660 Y3.8204
G01 X22.9665 Y3.8100
G00 Z2.0000
G00 X26.7765 Y3.8100
G01 F25.00
G01 Z-2.1000
G01 F120.00
G01 X26.7760 Y3.7996
G01 X26.7745 Y3.7892
G01 X26.7719 Y3.7791
G01 X26.7684 Y3.7692
G01 X26.7639 Y3.7598
G01 X26.7586 Y3.7508
G01 X26.7523 Y3.7424
G01 X26.7453 Y3.7347
G01 X26.7376 Y3.7277
G01 X26.7292 Y3.7214
G01 X26.7202 Y3.7161
G01 X26.7108 Y3.7116
G01 X26.7009 Y3.7081
G01 X26.6908 Y3.7055
G01 X26.6804 Y3.7040
G01 X26.6700 Y3.7035
G01 X26.6596 Y3.7040
G01 X26.6492 Y3.7055
G01 X26.6391 Y3.7081
G01 X26.6292 Y3.7116
G01 X26.6198 Y3.7161
G01 X26.6108 Y3.7214
G01 X26.6024 Y3.7277
G01 X26.5947 Y3.7347
G01 X26.5877 Y3.7424
G01 X26.5814 Y3.7508
G01 X26.5761 Y3.7598
G01 X26.5716 Y3.7692
G01 X26.5681 Y3.7791
G01 X26.5655 Y3.7892
G01 X26.5640 Y3.7996
G01 X26.5635 Y3.8100
G01 X26.5640 Y3.8204
G01 X26.5655 Y3.8308
G01 X26.5681 Y3.8409
G01 X26.5716 Y3.8508
G01 X26.5761 Y3.8602
G01 X26.5814 Y3.8692
G01 X26.5877 Y3.8776
G01 X26.5947 Y3.8853
G01 X26.6024 Y3.8923
G01 X26.6108 Y3.8986
G01 X26.6198 Y3.9039
G01 X26.6292 Y3.9084
G01 X26.6391 Y3.9119
G01 X26.6492 Y3.9145
G01 X26.6596 Y3.9160
G01 X26.6700 Y3.9165
G01 X26.6804 Y3.9160
G01 X26.6908 Y3.9145
G01 X26.7009 Y3.9119
G01 X26.7108 Y3.9084
G01 X26.7202 Y3.9039
G01 X26.7292 Y3.8986
G01 X26.7376 Y3.8923
G01 X26.7453 Y3.8853
G01 X26.7523 Y3.8776
G01 X26.7586 Y3.8692
G01 X26.7639 Y3.8602
G01 X26.7684 Y3.8508
G01 X26.7719 Y3.8409
G01 X26.7745 Y3.8308
G01 X26.7760 Y3.8204
G01 X26.7765 Y3.8100
G00 Z2.0000
G00 X29.3165 Y3.8100
G01 F25.00
G01 Z-2.1000
G01 F120.00
G01 X29.3160 Y3.7996
G01 X29.3145 Y3.7892
G01 X29.3119 Y3.7791
G01 X29.3084 Y3.7692
G01 X29.3039 Y3.7598
G01 X29.2986 Y3.7508
G01 X29.2923 Y3.7424
G01 X29.2853 Y3.7347
G01 X29.2776 Y3.7277
G01 X29.2692 Y3.7214
G01 X29.2602 Y3.7161
G01 X29.2508 Y3.7116
G01 X29.2409 Y3.7081
G01 X29.2308 Y3.7055
G01 X29.2204 Y3.7040
G01 X29.2100 Y3.7035
G01 X29.1996 Y3.7040
G01 X29.1892 Y3.7055
G01 X29.1791 Y3.7081
G01 X29.1692 Y3.7116
G01 X29.1598 Y3.7161
G01 X29.1508 Y3.7214
G01 X29.1424 Y3.7277
G01 X29.1347 Y3.7347
G01 X29.1277 Y3.7424
G01 X29.1214 Y3.7508
G01 X29.1161 Y3.7598
G01 X29.1116 Y3.7692
G01 X29.1081 Y3.7791
G01 X29.1055 Y3.7892
G01 X29.1040 Y3.7996
G01 X29.1035 Y3.8100
G01 X29.1040 Y3.8204
G01 X29.1055 Y3.8308
G01 X29.1081 Y3.8409
G01 X29.1116 Y3.8508
G01 X29.1161 Y3.8602
G01 X29.1214 Y3.8692
G01 X29.1277 Y3.8776
G01 X29.1347 Y3.8853
G01 X29.1424 Y3.8923
G01 X29.1508 Y3.8986
G01 X29.1598 Y3.9039
G01 X29.1692 Y3.9084
G01 X29.1791 Y3.9119
G01 X29.1892 Y3.9145
G01 X29.1996 Y3.9160
G01 X29.2100 Y3.9165
G01 X29.2204 Y3.9160
G01 X29.2308 Y3.9145
G01 X29.2409 Y3.9119
G01 X29.2508 Y3.9084
G01 X29.2602 Y3.9039
G01 X29.2692 Y3.8986
G01 X29.2776 Y3.8923
G01 X29.2853 Y3.8853
G01 X29.2923 Y3.8776
G01 X29.2986 Y3.8692
G01 X29.3039 Y3.8602
G01 X29.3084 Y3.8508
G01 X29.3119 Y3.8409
G01 X29.3145 Y3.8308
G01 X29.3160 Y3.8204
G01 X29.3165 Y3.8100
G00 Z2.0000
G00 X33.1265 Y3.8100
G01 F25.00
G01 Z-2.1000
G01 F120.00
G01 X33.1260 Y3.7996
G01 X33.1245 Y3.7892
G01 X33.1219 Y3.7791
G01 X33.1184 Y3.7692
G01 X33.1139 Y3.7598
G01 X33.1086 Y3.7508
G01 X33.1023 Y3.7424
G01 X33.0953 Y3.7347
G01 X33.0876 Y3.7277
G01 X33.0792 Y3.7214
G01 X33.0702 Y3.7161
G01 X33.0608 Y3.7116
G01 X33.0509 Y3.7081
G01 X33.0408 Y3.7055
G01 X33.0304 Y3.7040
G01 X33.0200 Y3.7035
G01 X33.0096 Y3.7040
G01 X32.9992 Y3.7055
G01 X32.9891 Y3.7081
G01 X32.9792 Y3.7116
G01 X32.9698 Y3.7161
G01 X32.9608 Y3.7214
G01 X32.9524 Y3.7277
G01 X32.9447 Y3.7347
G01 X32.9377 Y3.7424
G01 X32.9314 Y3.7508
G01 X32.9261 Y3.7598
G01 X32.9216 Y3.7692
G01 X32.9181 Y3.7791
G01 X32.9155 Y3.7892
G01 X32.9140 Y3.7996
G01 X32.9135 Y3.8100
G01 X32.9140 Y3.8204
G01 X32.9155 Y3.8308
G01 X32.9181 Y3.8409
G01 X32.9216 Y3.8508
G01 X32.9261 Y3.8602
G01 X32.9314 Y3.8692
G01 X32.9377 Y3.8776
G01 X32.9447 Y3.8853
G01 X32.9524 Y3.8923
G01 X32.9608 Y3.8986
G01 X32.9698 Y3.9039
G01 X32.9792 Y3.9084
G01 X32.9891 Y3.9119
G01 X32.9992 Y3.9145
G01 X33.0096 Y3.9160
G01 X33.0200 Y3.9165
G01 X33.0304 Y3.9160
G01 X33.0408 Y3.9145
G01 X33.0509 Y3.9119
G01 X33.0608 Y3.9084
G01 X33.0702 Y3.9039
G01 X33.0792 Y3.8986
G01 X33.0876 Y3.8923
G01 X33.0953 Y3.8853
G01 X33.1023 Y3.8776
G01 X33.1086 Y3.8692
G01 X33.1139 Y3.8602
G01 X33.1184 Y3.8508
G01 X33.1219 Y3.8409
G01 X33.1245 Y3.8308
G01 X33.1260 Y3.8204
G01 X33.1265 Y3.8100
G00 Z2.0000
G00 X35.6665 Y3.8100
G01 F25.00
G01 Z-2.1000
G01 F120.00
G01 X35.6660 Y3.7996
G01 X35.6645 Y3.7892
G01 X35.6619 Y3.7791
G01 X35.6584 Y3.7692
G01 X35.6539 Y3.7598
G01 X35.6486 Y3.7508
G01 X35.6423 Y3.7424
G01 X35.6353 Y3.7347
G01 X35.6276 Y3.7277
G01 X35.6192 Y3.7214
G01 X35.6102 Y3.7161
G01 X35.6008 Y3.7116
G01 X35.5909 Y3.7081
G01 X35.5808 Y3.7055
G01 X35.5704 Y3.7040
G01 X35.5600 Y3.7035
G01 X35.5496 Y3.7040
G01 X35.5392 Y3.7055
G01 X35.5291 Y3.7081
G01 X35.5192 Y3.7116
G01 X35.5098 Y3.7161
G01 X35.5008 Y3.7214
G01 X35.4924 Y3.7277
G01 X35.4847 Y3.7347
G01 X35.4777 Y3.7424
G01 X35.4714 Y3.7508
G01 X35.4661 Y3.7598
G01 X35.4616 Y3.7692
G01 X35.4581 Y3.7791
G01 X35.4555 Y3.7892
G01 X35.4540 Y3.7996
G01 X35.4535 Y3.8100
G01 X35.4540 Y3.8204
G01 X35.4555 Y3.8308
G01 X35.4581 Y3.8409
G01 X35.4616 Y3.8508
G01 X35.4661 Y3.8602
G01 X35.4714 Y3.8692
G01 X35.4777 Y3.8776
G01 X35.4847 Y3.8853
G01 X35.4924 Y3.8923
G01 X35.5008 Y3.8986
G01 X35.5098 Y3.9039
G01 X35.5192 Y3.9084
G01 X35.5291 Y3.9119
G01 X35.5392 Y3.9145
G01 X35.5496 Y3.9160
G01 X35.5600 Y3.9165
G01 X35.5704 Y3.9160
G01 X35.5808 Y3.9145
G01 X35.5909 Y3.9119
G01 X35.6008 Y3.9084
G01 X35.6102 Y3.9039
G01 X35.6192 Y3.8986
G01 X35.6276 Y3.8923
G01 X35.6353 Y3.8853
G01 X35.6423 Y3.8776
G01 X35.6486 Y3.8692
G01 X35.6539 Y3.8602
G01 X35.6584 Y3.8508
G01 X35.6619 Y3.8409
G01 X35.6645 Y3.8308
G01 X35.6660 Y3.8204
G01 X35.6665 Y3.8100
G00 Z2.0000
G00 X36.8800 Y13.3350
G01 F25.00
G01 Z-2.1000
G01 F120.00
G01 X36.8790 Y13.3252
G01 X36.8762 Y13.3159
G01 X36.8716 Y13.3072
G01 X36.8654 Y13.2996
G01 X36.8578 Y13.2934
G01 X36.8491 Y13.2888
G01 X36.8398 Y13.2860
G01 X36.8300 Y13.2850
G01 X36.8202 Y13.2860
G01 X36.8109 Y13.2888
G01 X36.8022 Y13.2934
G01 X36.7946 Y13.2996
G01 X36.7884 Y13.3072
G01 X36.7838 Y13.3159
G01 X36.7810 Y13.3252
G01 X36.7800 Y13.3350
G01 X36.7810 Y13.3448
G01 X36.7838 Y13.3541
G01 X36.7884 Y13.3628
G01 X36.7946 Y13.3704
G01 X36.8022 Y13.3766
G01 X36.8109 Y13.3812
G01 X36.8202 Y13.3840
G01 X36.8300 Y13.3850
G01 X36.8398 Y13.3840
G01 X36.8491 Y13.3812
G01 X36.8578 Y13.3766
G01 X36.8654 Y13.3704
G01 X36.8716 Y13.3628
G01 X36.8762 Y13.3541
G01 X36.8790 Y13.3448
G01 X36.8800 Y13.3350
G00 Z2.0000
G00 X33.1265 Y16.5100
G01 F25.00
G01 Z-2.1000
G01 F120.00
G01 X33.1260 Y16.4996
G01 X33.1245 Y16.4892
G01 X33.1219 Y16.4791
G01 X33.1184 Y16.4692
G01 X33.1139 Y16.4598
G01 X33.1086 Y16.4508
G01 X33.1023 Y16.4424
G01 X33.0953 Y16.4347
G01 X33.0876 Y16.4277
G01 X33.0792 Y16.4214
G01 X33.0702 Y16.4161
G01 X33.0608 Y16.4116
G01 X33.0509 Y16.4081
G01 X33.0408 Y16.4055
G01 X33.0304 Y16.4040
G01 X33.0200 Y16.4035
G01 X33.0096 Y16.4040
G01 X32.9992 Y16.4055
G01 X32.9891 Y16.4081
G01 X32.9792 Y16.4116
G01 X32.9698 Y16.4161
G01 X32.9608 Y16.4214
G01 X32.9524 Y16.4277
G01 X32.9447 Y16.4347
G01 X32.9377 Y16.4424
G01 X32.9314 Y16.4508
G01 X32.9261 Y16.4598
G01 X32.9216 Y16.4692
G01 X32.9181 Y16.4791
G01 X32.9155 Y16.4892
G01 X32.9140 Y16.4996
G01 X32.9135 Y16.5100
G01 X32.9140 Y16.5204
G01 X32.9155 Y16.5308
G01 X32.9181 Y16.5409
G01 X32.9216 Y16.5508
G01 X32.9261 Y16.5602
G01 X32.9314 Y16.5692
G01 X32.9377 Y16.5776
G01 X32.9447 Y16.5853
G01 X32.9524 Y16.5923
G01 X32.9608 Y16.5986
G01 X32.9698 Y16.6039
G01 X32.9792 Y16.6084
G01 X32.9891 Y16.6119
G01 X32.9992 Y16.6145
G01 X33.0096 Y16.6160
G01 X33.0200 Y16.6165
G01 X33.0304 Y16.6160
G01 X33.0408 Y16.6145
G01 X33.0509 Y16.6119
G01 X33.0608 Y16.6084
G01 X33.0702 Y16.6039
G01 X33.0792 Y16.5986
G01 X33.0876 Y16.5923
G01 X33.0953 Y16.5853
G01 X33.1023 Y16.5776
G01 X33.1086 Y16.5692
G01 X33.1139 Y16.5602
G01 X33.1184 Y16.5508
G01 X33.1219 Y16.5409
G01 X33.1245 Y16.5308
G01 X33.1260 Y16.5204
G01 X33.1265 Y16.5100
G00 Z2.0000
G00 X34.3965 Y20.3200
G01 F25.00
G01 Z-2.1000
G01 F120.00
G01 X34.3960 Y20.3096
G01 X34.3945 Y20.2992
G01 X34.3919 Y20.2891
G01 X34.3884 Y20.2792
G01 X34.3839 Y20.2698
G01 X34.3786 Y20.2608
G01 X34.3723 Y20.2524
G01 X34.3653 Y20.2447
G01 X34.3576 Y20.2377
G01 X34.3492 Y20.2314
G01 X34.3402 Y20.2261
G01 X34.3308 Y20.2216
G01 X34.3209 Y20.2181
G01 X34.3108 Y20.2155
G01 X34.3004 Y20.2140
G01 X34.2900 Y20.2135
G01 X34.2796 Y20.2140
G01 X34.2692 Y20.2155
G01 X34.2591 Y20.2181
G01 X34.2492 Y20.2216
G01 X34.2398 Y20.2261
G01 X34.2308 Y20.2314
G01 X34.2224 Y20.2377
G01 X34.2147 Y20.2447
G01 X34.2077 Y20.2524
G01 X34.2014 Y20.2608
G01 X34.1961 Y20.2698
G01 X34.1916 Y20.2792
G01 X34.1881 Y20.2891
G01 X34.1855 Y20.2992
G01 X34.1840 Y20.3096
G01 X34.1835 Y20.3200
G01 X34.1840 Y20.3304
G01 X34.1855 Y20.3408
G01 X34.1881 Y20.3509
G01 X34.1916 Y20.3608
G01 X34.1961 Y20.3702
G01 X34.2014 Y20.3792
G01 X34.2077 Y20.3876
G01 X34.2147 Y20.3953
G01 X34.2224 Y20.4023
G01 X34.2308 Y20.4086
G01 X34.2398 Y20.4139
G01 X34.2492 Y20.4184
G01 X34.2591 Y20.4219
G01 X34.2692 Y20.4245
G01 X34.2796 Y20.4260
G01 X34.2900 Y20.4265
G01 X34.3004 Y20.4260
G01 X34.3108 Y20.4245
G01 X34.3209 Y20.4219
G01 X34.3308 Y20.4184
G01 X34.3402 Y20.4139
G01 X34.3492 Y20.4086
G01 X34.3576 Y20.4023
G01 X34.3653 Y20.3953
G01 X34.3723 Y20.3876
G01 X34.3786 Y20.3792
G01 X34.3839 Y20.3702
G01 X34.3884 Y20.3608
G01 X34.3919 Y20.3509
G01 X34.3945 Y20.3408
G01 X34.3960 Y20.3304
G01 X34.3965 Y20.3200
G00 Z2.0000
G00 X26.7765 Y20.3200
G01 F25.00
G01 Z-2.1000
G01 F120.00
G01 X26.7760 Y20.3096
G01 X26.7745 Y20.2992
G01 X26.7719 Y20.2891
G01 X26.7684 Y20.2792
G01 X26.7639 Y20.2698
G01 X26.7586 Y20.2608
G01 X26.7523 Y20.2524
G01 X26.7453 Y20.2447
G01 X26.7376 Y20.2377
G01 X26.7292 Y20.2314
G01 X26.7202 Y20.2261
G01 X26.7108 Y20.2216
G01 X26.7009 Y20.2181
G01 X26.6908 Y20.2155
G01 X26.6804 Y20.2140
G01 X26.6700 Y20.2135
G01 X26.6596 Y20.2140
G01 X26.6492 Y20.2155
G01 X26.6391 Y20.2181
G01 X26.6292 Y20.2216
G01 X26.6198 Y20.2261
G01 X26.6108 Y20.2314
G01 X26.6024 Y20.2377
G01 X26.5947 Y20.2447
G01 X26.5877 Y20.2524
G01 X26.5814 Y20.2608
G01 X26.5761 Y20.2698
G01 X26.5716 Y20.2792
G01 X26.5681 Y20.2891
G01 X26.5655 Y20.2992
G01 X26.5640 Y20.3096
G01 X26.5635 Y20.3200
G01 X26.5640 Y20.3304
G01 X26.5655 Y20.3408
G01 X26.5681 Y20.3509
G01 X26.5716 Y20.3608
G01 X26.5761 Y20.3702
G01 X26.5814 Y20.3792
G01 X26.5877 Y20.3876
G01 X26.5947 Y20.3953
G01 X26.6024 Y20.4023
G01 X26.6108 Y20.4086
G01 X26.6198 Y20.4139
G01 X26.6292 Y20.4184
G01 X26.6391 Y20.4219
G01 X26.6492 Y20.4245
G01 X26.6596 Y20.4260
G01 X26.6700 Y20.4265
G01 X26.6804 Y20.4260
G01 X26.6908 Y20.4245
G01 X26.7009 Y20.4219
G01 X26.7108 Y20.4184
G01 X26.7202 Y20.4139
G01 X26.7292 Y20.4086
G01 X26.7376 Y20.4023
G01 X26.7453 Y20.3953
G01 X26.7523 Y20.3876
G01 X26.7586 Y20.3792
G01 X26.7639 Y20.3702
G01 X26.7684 Y20.3608
G01 X26.7719 Y20.3509
G01 X26.7745 Y20.3408
G01 X26.7760 Y20.3304
G01 X26.7765 Y20.3200
G00 Z2.0000
G00 X25.5065 Y16.5100
G01 F25.00
G01 Z-2.1000
G01 F120.00
G01 X25.5060 Y16.4996
G01 X25.5045 Y16.4892
G01 X25.5019 Y16.4791
G01 X25.4984 Y16.4692
G01 X25.4939 Y16.4598
G01 X25.4886 Y16.4508
G01 X25.4823 Y16.4424
G01 X25.4753 Y16.4347
G01 X25.4676 Y16.4277
G01 X25.4592 Y16.4214
G01 X25.4502 Y16.4161
G01 X25.4408 Y16.4116
G01 X25.4309 Y16.4081
G01 X25.4208 Y16.4055
G01 X25.4104 Y16.4040
G01 X25.4000 Y16.4035
G01 X25.3896 Y16.4040
G01 X25.3792 Y16.4055
G01 X25.3691 Y16.4081
G01 X25.3592 Y16.4116
G01 X25.3498 Y16.4161
G01 X25.3408 Y16.4214
G01 X25.3324 Y16.4277
G01 X25.3247 Y16.4347
G01 X25.3177 Y16.4424
G01 X25.3114 Y16.4508
G01 X25.3061 Y16.4598
G01 X25.3016 Y16.4692
G01 X25.2981 Y16.4791
G01 X25.2955 Y16.4892
G01 X25.2940 Y16.4996
G01 X25.2935 Y16.5100
G01 X25.2940 Y16.5204
G01 X25.2955 Y16.5308
G01 X25.2981 Y16.5409
G01 X25.3016 Y16.5508
G01 X25.3061 Y16.5602
G01 X25.3114 Y16.5692
G01 X25.3177 Y16.5776
G01 X25.3247 Y16.5853
G01 X25.3324 Y16.5923
G01 X25.3408 Y16.5986
G01 X25.3498 Y16.6039
G01 X25.3592 Y16.6084
G01 X25.3691 Y16.6119
G01 X25.3792 Y16.6145
G01 X25.3896 Y16.6160
G01 X25.4000 Y16.6165
G01 X25.4104 Y16.6160
G01 X25.4208 Y16.6145
G01 X25.4309 Y16.6119
G01 X25.4408 Y16.6084
G01 X25.4502 Y16.6039
G01 X25.4592 Y16.5986
G01 X25.4676 Y16.5923
G01 X25.4753 Y16.5853
G01 X25.4823 Y16.5776
G01 X25.4886 Y16.5692
G01 X25.4939 Y16.5602
G01 X25.4984 Y16.5508
G01 X25.5019 Y16.5409
G01 X25.5045 Y16.5308
G01 X25.5060 Y16.5204
G01 X25.5065 Y16.5100
G00 Z2.0000
G00 X22.2750 Y13.3350
G01 F25.00
G01 Z-2.1000
G01 F120.00
G01 X22.2740 Y13.3252
G01 X22.2712 Y13.3159
G01 X22.2666 Y13.3072
G01 X22.2604 Y13.2996
G01 X22.2528 Y13.2934
G01 X22.2441 Y13.2888
G01 X22.2348 Y13.2860
G01 X22.2250 Y13.2850
G01 X22.2152 Y13.2860
G01 X22.2059 Y13.2888
G01 X22.1972 Y13.2934
G01 X22.1896 Y13.2996
G01 X22.1834 Y13.3072
G01 X22.1788 Y13.3159
G01 X22.1760 Y13.3252
G01 X22.1750 Y13.3350
G01 X22.1760 Y13.3448
G01 X22.1788 Y13.3541
G01 X22.1834 Y13.3628
G01 X22.1896 Y13.3704
G01 X22.1972 Y13.3766
G01 X22.2059 Y13.3812
G01 X22.2152 Y13.3840
G01 X22.2250 Y13.3850
G01 X22.2348 Y13.3840
G01 X22.2441 Y13.3812
G01 X22.2528 Y13.3766
G01 X22.2604 Y13.3704
G01 X22.2666 Y13.3628
G01 X22.2712 Y13.3541
G01 X22.2740 Y13.3448
G01 X22.2750 Y13.3350
G00 Z2.0000
G00 X17.8865 Y12.7000
G01 F25.00
G01 Z-2.1000
G01 F120.00
G01 X17.8860 Y12.6896
G01 X17.8845 Y12.6792
G01 X17.8819 Y12.6691
G01 X17.8784 Y12.6592
G01 X17.8739 Y12.6498
G01 X17.8686 Y12.6408
G01 X17.8623 Y12.6324
G01 X17.8553 Y12.6247
G01 X17.8476 Y12.6177
G01 X17.8392 Y12.6114
G01 X17.8302 Y12.6061
G01 X17.8208 Y12.6016
G01 X17.8109 Y12.5981
G01 X17.8008 Y12.5955
G01 X17.7904 Y12.5940
G01 X17.7800 Y12.5935
G01 X17.7696 Y12.5940
G01 X17.7592 Y12.5955
G01 X17.7491 Y12.5981
G01 X17.7392 Y12.6016
G01 X17.7298 Y12.6061
G01 X17.7208 Y12.6114
G01 X17.7124 Y12.6177
G01 X17.7047 Y12.6247
G01 X17.6977 Y12.6324
G01 X17.6914 Y12.6408
G01 X17.6861 Y12.6498
G01 X17.6816 Y12.6592
G01 X17.6781 Y12.6691
G01 X17.6755 Y12.6792
G01 X17.6740 Y12.6896
G01 X17.6735 Y12.7000
G01 X17.6740 Y12.7104
G01 X17.6755 Y12.7208
G01 X17.6781 Y12.7309
G01 X17.6816 Y12.7408
G01 X17.6861 Y12.7502
G01 X17.6914 Y12.7592
G01 X17.6977 Y12.7676
G01 X17.7047 Y12.7753
G01 X17.7124 Y12.7823
G01 X17.7208 Y12.7886
G01 X17.7298 Y12.7939
G01 X17.7392 Y12.7984
G01 X17.7491 Y12.8019
G01 X17.7592 Y12.8045
G01 X17.7696 Y12.8060
G01 X17.7800 Y12.8065
G01 X17.7904 Y12.8060
G01 X17.8008 Y12.8045
G01 X17.8109 Y12.8019
G01 X17.8208 Y12.7984
G01 X17.8302 Y12.7939
G01 X17.8392 Y12.7886
G01 X17.8476 Y12.7823
G01 X17.8553 Y12.7753
G01 X17.8623 Y12.7676
G01 X17.8686 Y12.7592
G01 X17.8739 Y12.7502
G01 X17.8784 Y12.7408
G01 X17.8819 Y12.7309
G01 X17.8845 Y12.7208
G01 X17.8860 Y12.7104
G01 X17.8865 Y12.7000
G00 Z2.0000
G00 X17.8865 Y20.3200
G01 F25.00
G01 Z-2.1000
G01 F120.00
G01 X17.8860 Y20.3096
G01 X17.8845 Y20.2992
G01 X17.8819 Y20.2891
G01 X17.8784 Y20.2792
G01 X17.8739 Y20.2698
G01 X17.8686 Y20.2608
G01 X17.8623 Y20.2524
G01 X17.8553 Y20.2447
G01 X17.8476 Y20.2377
G01 X17.8392 Y20.2314
G01 X17.8302 Y20.2261
G01 X17.8208 Y20.2216
G01 X17.8109 Y20.2181
G01 X17.8008 Y20.2155
G01 X17.7904 Y20.2140
G01 X17.7800 Y20.2135
G01 X17.7696 Y20.2140
G01 X17.7592 Y20.2155
G01 X17.7491 Y20.2181
G01 X17.7392 Y20.2216
G01 X17.7298 Y20.2261
G01 X17.7208 Y20.2314
G01 X17.7124 Y20.2377
G01 X17.7047 Y20.2447
G01 X17.6977 Y20.2524
G01 X17.6914 Y20.2608
G01 X17.6861 Y20.2698
G01 X17.6816 Y20.2792
G01 X17.6781 Y20.2891
G01 X17.6755 Y20.2992
G01 X17.6740 Y20.3096
G01 X17.6735 Y20.3200
G01 X17.6740 Y20.3304
G01 X17.6755 Y20.3408
G01 X17.6781 Y20.3509
G01 X17.6816 Y20.3608
G01 X17.6861 Y20.3702
G01 X17.6914 Y20.3792
G01 X17.6977 Y20.3876
G01 X17.7047 Y20.3953
G01 X17.7124 Y20.4023
G01 X17.7208 Y20.4086
G01 X17.7298 Y20.4139
G01 X17.7392 Y20.4184
G01 X17.7491 Y20.4219
G01 X17.7592 Y20.4245
G01 X17.7696 Y20.4260
G01 X17.7800 Y20.4265
G01 X17.7904 Y20.4260
G01 X17.8008 Y20.4245
G01 X17.8109 Y20.4219
G01 X17.8208 Y20.4184
G01 X17.8302 Y20.4139
G01 X17.8392 Y20.4086
G01 X17.8476 Y20.4023
G01 X17.8553 Y20.3953
G01 X17.8623 Y20.3876
G01 X17.8686 Y20.3792
G01 X17.8739 Y20.3702
G01 X17.8784 Y20.3608
G01 X17.8819 Y20.3509
G01 X17.8845 Y20.3408
G01 X17.8860 Y20.3304
G01 X17.8865 Y20.3200
G00 Z2.0000
G00 X8.9965 Y15.8750
G01 F25.00
G01 Z-2.1000
G01 F120.00
G01 X8.9960 Y15.8646
G01 X8.9945 Y15.8542
G01 X8.9919 Y15.8441
G01 X8.9884 Y15.8342
G01 X8.9839 Y15.8248
G01 X8.9786 Y15.8158
G01 X8.9723 Y15.8074
G01 X8.9653 Y15.7997
G01 X8.9576 Y15.7927
G01 X8.9492 Y15.7864
G01 X8.9402 Y15.7811
G01 X8.9308 Y15.7766
G01 X8.9209 Y15.7731
G01 X8.9108 Y15.7705
G01 X8.9004 Y15.7690
G01 X8.8900 Y15.7685
G01 X8.8796 Y15.7690
G01 X8.8692 Y15.7705
G01 X8.8591 Y15.7731
G01 X8.8492 Y15.7766
G01 X8.8398 Y15.7811
G01 X8.8308 Y15.7864
G01 X8.8224 Y15.7927
G01 X8.8147 Y15.7997
G01 X8.8077 Y15.8074
G01 X8.8014 Y15.8158
G01 X8.7961 Y15.8248
G01 X8.7916 Y15.8342
G01 X8.7881 Y15.8441
G01 X8.7855 Y15.8542
G01 X8.7840 Y15.8646
G01 X8.7835 Y15.8750
G01 X8.7840 Y15.8854
G01 X8.7855 Y15.8958
G01 X8.7881 Y15.9059
G01 X8.7916 Y15.9158
G01 X8.7961 Y15.9252
G01 X8.8014 Y15.9342
G01 X8.8077 Y15.9426
G01 X8.8147 Y15.9503
G01 X8.8224 Y15.9573
G01 X8.8308 Y15.9636
G01 X8.8398 Y15.9689
G01 X8.8492 Y15.9734
G01 X8.8591 Y15.9769
G01 X8.8692 Y15.9795
G01 X8.8796 Y15.9810
G01 X8.8900 Y15.9815
G01 X8.9004 Y15.9810
G01 X8.9108 Y15.9795
G01 X8.9209 Y15.9769
G01 X8.9308 Y15.9734
G01 X8.9402 Y15.9689
G01 X8.9492 Y15.9636
G01 X8.9576 Y15.9573
G01 X8.9653 Y15.9503
G01 X8.9723 Y15.9426
G01 X8.9786 Y15.9342
G01 X8.9839 Y15.9252
G01 X8.9884 Y15.9158
G01 X8.9919 Y15.9059
G01 X8.9945 Y15.8958
G01 X8.9960 Y15.8854
G01 X8.9965 Y15.8750
G00 Z2.0000
G00 X11.4800 Y43.8150
G01 F25.00
G01 Z-2.1000
G01 F120.00
G01 X11.4790 Y43.8052
G01 X11.4762 Y43.7959
G01 X11.4716 Y43.7872
G01 X11.4654 Y43.7796
G01 X11.4578 Y43.7734
G01 X11.4491 Y43.7688
G01 X11.4398 Y43.7660
G01 X11.4300 Y43.7650
G01 X11.4202 Y43.7660
G01 X11.4109 Y43.7688
G01 X11.4022 Y43.7734
G01 X11.3946 Y43.7796
G01 X11.3884 Y43.7872
G01 X11.3838 Y43.7959
G01 X11.3810 Y43.8052
G01 X11.3800 Y43.8150
G01 X11.3810 Y43.8248
G01 X11.3838 Y43.8341
G01 X11.3884 Y43.8428
G01 X11.3946 Y43.8504
G01 X11.4022 Y43.8566
G01 X11.4109 Y43.8612
G01 X11.4202 Y43.8640
G01 X11.4300 Y43.8650
G01 X11.4398 Y43.8640
G01 X11.4491 Y43.8612
G01 X11.4578 Y43.8566
G01 X11.4654 Y43.8504
G01 X11.4716 Y43.8428
G01 X11.4762 Y43.8341
G01 X11.4790 Y43.8248
G01 X11.4800 Y43.8150
G00 Z2.0000
G00 X9.0500 Y45.3460
G01 F25.00
G01 Z-2.1000
G01 F120.00
G01 X9.0490 Y45.3362
G01 X9.0462 Y45.3269
G01 X9.0416 Y45.3182
G01 X9.0354 Y45.3106
G01 X9.0278 Y45.3044
G01 X9.0191 Y45.2998
G01 X9.0098 Y45.2970
G01 X9.0000 Y45.2960
G01 X8.9902 Y45.2970
G01 X8.9809 Y45.2998
G01 X8.9722 Y45.3044
G01 X8.9646 Y45.3106
G01 X8.9584 Y45.3182
G01 X8.9538 Y45.3269
G01 X8.9510 Y45.3362
G01 X8.9500 Y45.3460
G01 X8.9510 Y45.3558
G01 X8.9538 Y45.3651
G01 X8.9584 Y45.3738
G01 X8.9646 Y45.3814
G01 X8.9722 Y45.3876
G01 X8.9809 Y45.3922
G01 X8.9902 Y45.3950
G01 X9.0000 Y45.3960
G01 X9.0098 Y45.3950
G01 X9.0191 Y45.3922
G01 X9.0278 Y45.3876
G01 X9.0354 Y45.3814
G01 X9.0416 Y45.3738
G01 X9.0462 Y45.3651
G01 X9.0490 Y45.3558
G01 X9.0500 Y45.3460
G00 Z2.0000
G00 X24.0640 Y45.3860
G01 F25.00
G01 Z-2.1000
G01 F120.00
G01 X24.0630 Y45.3762
G01 X24.0602 Y45.3669
G01 X24.0556 Y45.3582
G01 X24.0494 Y45.3506
G01 X24.0418 Y45.3444
G01 X24.0331 Y45.3398
G01 X24.0238 Y45.3370
G01 X24.0140 Y45.3360
G01 X24.0042 Y45.3370
G01 X23.9949 Y45.3398
G01 X23.9862 Y45.3444
G01 X23.9786 Y45.3506
G01 X23.9724 Y45.3582
G01 X23.9678 Y45.3669
G01 X23.9650 Y45.3762
G01 X23.9640 Y45.3860
G01 X23.9650 Y45.3958
G01 X23.9678 Y45.4051
G01 X23.9724 Y45.4138
G01 X23.9786 Y45.4214
G01 X23.9862 Y45.4276
G01 X23.9949 Y45.4322
G01 X24.0042 Y45.4350
G01 X24.0140 Y45.4360
G01 X24.0238 Y45.4350
G01 X24.0331 Y45.4322
G01 X24.0418 Y45.4276
G01 X24.0494 Y45.4214
G01 X24.0556 Y45.4138
G01 X24.0602 Y45.4051
G01 X24.0630 Y45.3958
G01 X24.0640 Y45.3860
G00 Z2.0000
G00 X25.4500 Y43.8150
G01 F25.00
G01 Z-2.1000
G01 F120.00
G01 X25.4490 Y43.8052
G01 X25.4462 Y43.7959
G01 X25.4416 Y43.7872
G01 X25.4354 Y43.7796
G01 X25.4278 Y43.7734
G01 X25.4191 Y43.7688
G01 X25.4098 Y43.7660
G01 X25.4000 Y43.7650
G01 X25.3902 Y43.7660
G01 X25.3809 Y43.7688
G01 X25.3722 Y43.7734
G01 X25.3646 Y43.7796
G01 X25.3584 Y43.7872
G01 X25.3538 Y43.7959
G01 X25.3510 Y43.8052
G01 X25.3500 Y43.8150
G01 X25.3510 Y43.8248
G01 X25.3538 Y43.8341
G01 X25.3584 Y43.8428
G01 X25.3646 Y43.8504
G01 X25.3722 Y43.8566
G01 X25.3809 Y43.8612
G01 X25.3902 Y43.8640
G01 X25.4000 Y43.8650
G01 X25.4098 Y43.8640
G01 X25.4191 Y43.8612
G01 X25.4278 Y43.8566
G01 X25.4354 Y43.8504
G01 X25.4416 Y43.8428
G01 X25.4462 Y43.8341
G01 X25.4490 Y43.8248
G01 X25.4500 Y43.8150
G00 Z2.0000
G00 X29.8950 Y43.8150
G01 F25.00
G01 Z-2.1000
G01 F120.00
G01 X29.8940 Y43.8052
G01 X29.8912 Y43.7959
G01 X29.8866 Y43.7872
G01 X29.8804 Y43.7796
G01 X29.8728 Y43.7734
G01 X29.8641 Y43.7688
G01 X29.8548 Y43.7660
G01 X29.8450 Y43.7650
G01 X29.8352 Y43.7660
G01 X29.8259 Y43.7688
G01 X29.8172 Y43.7734
G01 X29.8096 Y43.7796
G01 X29.8034 Y43.7872
G01 X29.7988 Y43.7959
G01 X29.7960 Y43.8052
G01 X29.7950 Y43.8150
G01 X29.7960 Y43.8248
G01 X29.7988 Y43.8341
G01 X29.8034 Y43.8428
G01 X29.8096 Y43.8504
G01 X29.8172 Y43.8566
G01 X29.8259 Y43.8612
G01 X29.8352 Y43.8640
G01 X29.8450 Y43.8650
G01 X29.8548 Y43.8640
G01 X29.8641 Y43.8612
G01 X29.8728 Y43.8566
G01 X29.8804 Y43.8504
G01 X29.8866 Y43.8428
G01 X29.8912 Y43.8341
G01 X29.8940 Y43.8248
G01 X29.8950 Y43.8150
G00 Z2.0000
G00 X35.6100 Y43.8150
G01 F25.00
G01 Z-2.1000
G01 F120.00
G01 X35.6090 Y43.8052
G01 X35.6062 Y43.7959
G01 X35.6016 Y43.7872
G01 X35.5954 Y43.7796
G01 X35.5878 Y43.7734
G01 X35.5791 Y43.7688
G01 X35.5698 Y43.7660
G01 X35.5600 Y43.7650
G01 X35.5502 Y43.7660
G01 X35.5409 Y43.7688
G01 X35.5322 Y43.7734
G01 X35.5246 Y43.7796
G01 X35.5184 Y43.7872
G01 X35.5138 Y43.7959
G01 X35.5110 Y43.8052
G01 X35.5100 Y43.8150
G01 X35.5110 Y43.8248
G01 X35.5138 Y43.8341
G01 X35.5184 Y43.8428
G01 X35.5246 Y43.8504
G01 X35.5322 Y43.8566
G01 X35.5409 Y43.8612
G01 X35.5502 Y43.8640
G01 X35.5600 Y43.8650
G01 X35.5698 Y43.8640
G01 X35.5791 Y43.8612
G01 X35.5878 Y43.8566
G01 X35.5954 Y43.8504
G01 X35.6016 Y43.8428
G01 X35.6062 Y43.8341
G01 X35.6090 Y43.8248
G01 X35.6100 Y43.8150
G00 Z2.0000
G00 X43.8200 Y35.5600
G01 F25.00
G01 Z-2.1000
G01 F120.00
G01 X43.8196 Y35.5581
G01 X43.8185 Y35.5565
G01 X43.8169 Y35.5554
G01 X43.8150 Y35.5550
G01 X43.8131 Y35.5554
G01 X43.8115 Y35.5565
G01 X43.8104 Y35.5581
G01 X43.8100 Y35.5600
G01 X43.8104 Y35.5619
G01 X43.8115 Y35.5635
G01 X43.8131 Y35.5646
G01 X43.8150 Y35.5650
G01 X43.8169 Y35.5646
G01 X43.8185 Y35.5635
G01 X43.8196 Y35.5619
G01 X43.8200 Y35.5600
G00 Z2.0000
G00 X41.2800 Y33.0200
G01 F25.00
G01 Z-2.1000
G01 F120.00
G01 X41.2796 Y33.0181
G01 X41.2785 Y33.0165
G01 X41.2769 Y33.0154
G01 X41.2750 Y33.0150
G01 X41.2731 Y33.0154
G01 X41.2715 Y33.0165
G01 X41.2704 Y33.0181
G01 X41.2700 Y33.0200
G01 X41.2704 Y33.0219
G01 X41.2715 Y33.0235
G01 X41.2731 Y33.0246
G01 X41.2750 Y33.0250
G01 X41.2769 Y33.0246
G01 X41.2785 Y33.0235
G01 X41.2796 Y33.0219
G01 X41.2800 Y33.0200
G00 Z2.0000
G00 X43.8200 Y30.4800
G01 F25.00
G01 Z-2.1000
G01 F120.00
G01 X43.8196 Y30.4781
G01 X43.8185 Y30.4765
G01 X43.8169 Y30.4754
G01 X43.8150 Y30.4750
G01 X43.8131 Y30.4754
G01 X43.8115 Y30.4765
G01 X43.8104 Y30.4781
G01 X43.8100 Y30.4800
G01 X43.8104 Y30.4819
G01 X43.8115 Y30.4835
G01 X43.8131 Y30.4846
G01 X43.8150 Y30.4850
G01 X43.8169 Y30.4846
G01 X43.8185 Y30.4835
G01 X43.8196 Y30.4819
G01 X43.8200 Y30.4800
G00 Z2.0000
M05
G00 Z2.0000
G00 Z15.00
G00 X0.0 Y0.0

