(G-CODE GENERATED BY FLATCAM v8.99 - www.flatcam.org - Version Date: 2019/12/15)

(Name: drill_1_16.xln_mill_cnc_1.0)
(Type: G-code from Geometry)
(Units: MM)

(Created on Saturday, 14 March 2020 at 12:29)

(TOOL DIAMETER: 1.0 mm)
(Feedrate: 120.0 mm/min)
(Feedrate_Z: 25.0 mm/min)
(Feedrate rapids 1500.0 mm/min)

(Z_Cut: -2.1 mm)
(Z_Move: 2.0 mm)
(Z Toolchange: 15.0 mm)
(X,Y Toolchange: 0.0000, 0.0000 mm)
(Z Start: None mm)
(Z End: 15.0 mm)
(Steps per circle: 64)
(Preprocessor Geometry: default)

(X range:    2.3795 ...   43.8350  mm)
(Y range:    3.0145 ...   47.3650  mm)

(Spindle Speed: None RPM)
G21
G90
G94




G01 F120.00
G00 Z2.0000

M03
G00 X2.7005 Y3.1750
G01 F25.00
G01 Z-2.1000
G01 F120.00
G01 X2.6997 Y3.1593
G01 X2.6974 Y3.1437
G01 X2.6936 Y3.1284
G01 X2.6883 Y3.1136
G01 X2.6815 Y3.0993
G01 X2.6735 Y3.0858
G01 X2.6641 Y3.0732
G01 X2.6535 Y3.0615
G01 X2.6418 Y3.0509
G01 X2.6292 Y3.0415
G01 X2.6157 Y3.0335
G01 X2.6014 Y3.0267
G01 X2.5866 Y3.0214
G01 X2.5713 Y3.0176
G01 X2.5557 Y3.0153
G01 X2.5400 Y3.0145
G01 X2.5243 Y3.0153
G01 X2.5087 Y3.0176
G01 X2.4934 Y3.0214
G01 X2.4786 Y3.0267
G01 X2.4643 Y3.0335
G01 X2.4508 Y3.0415
G01 X2.4382 Y3.0509
G01 X2.4265 Y3.0615
G01 X2.4159 Y3.0732
G01 X2.4065 Y3.0858
G01 X2.3985 Y3.0993
G01 X2.3917 Y3.1136
G01 X2.3864 Y3.1284
G01 X2.3826 Y3.1437
G01 X2.3803 Y3.1593
G01 X2.3795 Y3.1750
G01 X2.3803 Y3.1907
G01 X2.3826 Y3.2063
G01 X2.3864 Y3.2216
G01 X2.3917 Y3.2364
G01 X2.3985 Y3.2507
G01 X2.4065 Y3.2642
G01 X2.4159 Y3.2768
G01 X2.4265 Y3.2885
G01 X2.4382 Y3.2991
G01 X2.4508 Y3.3085
G01 X2.4643 Y3.3165
G01 X2.4786 Y3.3233
G01 X2.4934 Y3.3286
G01 X2.5087 Y3.3324
G01 X2.5243 Y3.3347
G01 X2.5400 Y3.3355
G01 X2.5557 Y3.3347
G01 X2.5713 Y3.3324
G01 X2.5866 Y3.3286
G01 X2.6014 Y3.3233
G01 X2.6157 Y3.3165
G01 X2.6292 Y3.3085
G01 X2.6418 Y3.2991
G01 X2.6535 Y3.2885
G01 X2.6641 Y3.2768
G01 X2.6735 Y3.2642
G01 X2.6815 Y3.2507
G01 X2.6883 Y3.2364
G01 X2.6936 Y3.2216
G01 X2.6974 Y3.2063
G01 X2.6997 Y3.1907
G01 X2.7005 Y3.1750
G00 Z2.0000
G00 X7.7805 Y3.8100
G01 F25.00
G01 Z-2.1000
G01 F120.00
G01 X7.7797 Y3.7943
G01 X7.7774 Y3.7787
G01 X7.7736 Y3.7634
G01 X7.7683 Y3.7486
G01 X7.7615 Y3.7343
G01 X7.7535 Y3.7208
G01 X7.7441 Y3.7082
G01 X7.7335 Y3.6965
G01 X7.7218 Y3.6859
G01 X7.7092 Y3.6765
G01 X7.6957 Y3.6685
G01 X7.6814 Y3.6617
G01 X7.6666 Y3.6564
G01 X7.6513 Y3.6526
G01 X7.6357 Y3.6503
G01 X7.6200 Y3.6495
G01 X7.6043 Y3.6503
G01 X7.5887 Y3.6526
G01 X7.5734 Y3.6564
G01 X7.5586 Y3.6617
G01 X7.5443 Y3.6685
G01 X7.5308 Y3.6765
G01 X7.5182 Y3.6859
G01 X7.5065 Y3.6965
G01 X7.4959 Y3.7082
G01 X7.4865 Y3.7208
G01 X7.4785 Y3.7343
G01 X7.4717 Y3.7486
G01 X7.4664 Y3.7634
G01 X7.4626 Y3.7787
G01 X7.4603 Y3.7943
G01 X7.4595 Y3.8100
G01 X7.4603 Y3.8257
G01 X7.4626 Y3.8413
G01 X7.4664 Y3.8566
G01 X7.4717 Y3.8714
G01 X7.4785 Y3.8857
G01 X7.4865 Y3.8992
G01 X7.4959 Y3.9118
G01 X7.5065 Y3.9235
G01 X7.5182 Y3.9341
G01 X7.5308 Y3.9435
G01 X7.5443 Y3.9515
G01 X7.5586 Y3.9583
G01 X7.5734 Y3.9636
G01 X7.5887 Y3.9674
G01 X7.6043 Y3.9697
G01 X7.6200 Y3.9705
G01 X7.6357 Y3.9697
G01 X7.6513 Y3.9674
G01 X7.6666 Y3.9636
G01 X7.6814 Y3.9583
G01 X7.6957 Y3.9515
G01 X7.7092 Y3.9435
G01 X7.7218 Y3.9341
G01 X7.7335 Y3.9235
G01 X7.7441 Y3.9118
G01 X7.7535 Y3.8992
G01 X7.7615 Y3.8857
G01 X7.7683 Y3.8714
G01 X7.7736 Y3.8566
G01 X7.7774 Y3.8413
G01 X7.7797 Y3.8257
G01 X7.7805 Y3.8100
G00 Z2.0000
G00 X5.0880 Y11.4300
G01 F25.00
G01 Z-2.1000
G01 F120.00
G01 X5.0874 Y11.4269
G01 X5.0857 Y11.4243
G01 X5.0831 Y11.4226
G01 X5.0800 Y11.4220
G01 X5.0769 Y11.4226
G01 X5.0743 Y11.4243
G01 X5.0726 Y11.4269
G01 X5.0720 Y11.4300
G01 X5.0726 Y11.4331
G01 X5.0743 Y11.4357
G01 X5.0769 Y11.4374
G01 X5.0800 Y11.4380
G01 X5.0831 Y11.4374
G01 X5.0857 Y11.4357
G01 X5.0874 Y11.4331
G01 X5.0880 Y11.4300
G00 Z2.0000
G00 X2.5480 Y11.4300
G01 F25.00
G01 Z-2.1000
G01 F120.00
G01 X2.5474 Y11.4269
G01 X2.5457 Y11.4243
G01 X2.5431 Y11.4226
G01 X2.5400 Y11.4220
G01 X2.5369 Y11.4226
G01 X2.5343 Y11.4243
G01 X2.5326 Y11.4269
G01 X2.5320 Y11.4300
G01 X2.5326 Y11.4331
G01 X2.5343 Y11.4357
G01 X2.5369 Y11.4374
G01 X2.5400 Y11.4380
G01 X2.5431 Y11.4374
G01 X2.5457 Y11.4357
G01 X2.5474 Y11.4331
G01 X2.5480 Y11.4300
G00 Z2.0000
G00 X2.5480 Y17.7800
G01 F25.00
G01 Z-2.1000
G01 F120.00
G01 X2.5474 Y17.7769
G01 X2.5457 Y17.7743
G01 X2.5431 Y17.7726
G01 X2.5400 Y17.7720
G01 X2.5369 Y17.7726
G01 X2.5343 Y17.7743
G01 X2.5326 Y17.7769
G01 X2.5320 Y17.7800
G01 X2.5326 Y17.7831
G01 X2.5343 Y17.7857
G01 X2.5369 Y17.7874
G01 X2.5400 Y17.7880
G01 X2.5431 Y17.7874
G01 X2.5457 Y17.7857
G01 X2.5474 Y17.7831
G01 X2.5480 Y17.7800
G00 Z2.0000
G00 X5.0880 Y17.7800
G01 F25.00
G01 Z-2.1000
G01 F120.00
G01 X5.0874 Y17.7769
G01 X5.0857 Y17.7743
G01 X5.0831 Y17.7726
G01 X5.0800 Y17.7720
G01 X5.0769 Y17.7726
G01 X5.0743 Y17.7743
G01 X5.0726 Y17.7769
G01 X5.0720 Y17.7800
G01 X5.0726 Y17.7831
G01 X5.0743 Y17.7857
G01 X5.0769 Y17.7874
G01 X5.0800 Y17.7880
G01 X5.0831 Y17.7874
G01 X5.0857 Y17.7857
G01 X5.0874 Y17.7831
G01 X5.0880 Y17.7800
G00 Z2.0000
G00 X6.3500 Y25.4000
G01 F25.00
G01 Z-2.1000
G01 F120.00
G01 X6.3500 Y25.4000
G01 X6.3500 Y25.4000
G01 X6.3500 Y25.4000
G01 X6.3500 Y25.4000
G00 Z2.0000
G00 X3.8100 Y25.4000
G01 F25.00
G01 Z-2.1000
G01 F120.00
G01 X3.8100 Y25.4000
G01 X3.8100 Y25.4000
G01 X3.8100 Y25.4000
G01 X3.8100 Y25.4000
G00 Z2.0000
G00 X8.8900 Y25.4000
G01 F25.00
G01 Z-2.1000
G01 F120.00
G01 X8.8900 Y25.4000
G01 X8.8900 Y25.4000
G01 X8.8900 Y25.4000
G01 X8.8900 Y25.4000
G00 Z2.0000
G00 X11.4300 Y25.4000
G01 F25.00
G01 Z-2.1000
G01 F120.00
G01 X11.4300 Y25.4000
G01 X11.4300 Y25.4000
G01 X11.4300 Y25.4000
G01 X11.4300 Y25.4000
G00 Z2.0000
G00 X13.9700 Y25.4000
G01 F25.00
G01 Z-2.1000
G01 F120.00
G01 X13.9700 Y25.4000
G01 X13.9700 Y25.4000
G01 X13.9700 Y25.4000
G01 X13.9700 Y25.4000
G00 Z2.0000
G00 X16.5100 Y25.4000
G01 F25.00
G01 Z-2.1000
G01 F120.00
G01 X16.5100 Y25.4000
G01 X16.5100 Y25.4000
G01 X16.5100 Y25.4000
G01 X16.5100 Y25.4000
G00 Z2.0000
G00 X19.0500 Y25.4000
G01 F25.00
G01 Z-2.1000
G01 F120.00
G01 X19.0500 Y25.4000
G01 X19.0500 Y25.4000
G01 X19.0500 Y25.4000
G01 X19.0500 Y25.4000
G00 Z2.0000
G00 X21.5900 Y25.4000
G01 F25.00
G01 Z-2.1000
G01 F120.00
G01 X21.5900 Y25.4000
G01 X21.5900 Y25.4000
G01 X21.5900 Y25.4000
G01 X21.5900 Y25.4000
G00 Z2.0000
G00 X24.1300 Y25.4000
G01 F25.00
G01 Z-2.1000
G01 F120.00
G01 X24.1300 Y25.4000
G01 X24.1300 Y25.4000
G01 X24.1300 Y25.4000
G01 X24.1300 Y25.4000
G00 Z2.0000
G00 X26.6700 Y25.4000
G01 F25.00
G01 Z-2.1000
G01 F120.00
G01 X26.6700 Y25.4000
G01 X26.6700 Y25.4000
G01 X26.6700 Y25.4000
G01 X26.6700 Y25.4000
G00 Z2.0000
G00 X29.2100 Y25.4000
G01 F25.00
G01 Z-2.1000
G01 F120.00
G01 X29.2100 Y25.4000
G01 X29.2100 Y25.4000
G01 X29.2100 Y25.4000
G01 X29.2100 Y25.4000
G00 Z2.0000
G00 X31.7500 Y25.4000
G01 F25.00
G01 Z-2.1000
G01 F120.00
G01 X31.7500 Y25.4000
G01 X31.7500 Y25.4000
G01 X31.7500 Y25.4000
G01 X31.7500 Y25.4000
G00 Z2.0000
G00 X34.2900 Y25.4000
G01 F25.00
G01 Z-2.1000
G01 F120.00
G01 X34.2900 Y25.4000
G01 X34.2900 Y25.4000
G01 X34.2900 Y25.4000
G01 X34.2900 Y25.4000
G00 Z2.0000
G00 X36.8300 Y25.4000
G01 F25.00
G01 Z-2.1000
G01 F120.00
G01 X36.8300 Y25.4000
G01 X36.8300 Y25.4000
G01 X36.8300 Y25.4000
G01 X36.8300 Y25.4000
G00 Z2.0000
G00 X39.3700 Y25.4000
G01 F25.00
G01 Z-2.1000
G01 F120.00
G01 X39.3700 Y25.4000
G01 X39.3700 Y25.4000
G01 X39.3700 Y25.4000
G01 X39.3700 Y25.4000
G00 Z2.0000
G00 X38.2605 Y19.0500
G01 F25.00
G01 Z-2.1000
G01 F120.00
G01 X38.2597 Y19.0343
G01 X38.2574 Y19.0187
G01 X38.2536 Y19.0034
G01 X38.2483 Y18.9886
G01 X38.2415 Y18.9743
G01 X38.2335 Y18.9608
G01 X38.2241 Y18.9482
G01 X38.2135 Y18.9365
G01 X38.2018 Y18.9259
G01 X38.1892 Y18.9165
G01 X38.1757 Y18.9085
G01 X38.1614 Y18.9017
G01 X38.1466 Y18.8964
G01 X38.1313 Y18.8926
G01 X38.1157 Y18.8903
G01 X38.1000 Y18.8895
G01 X38.0843 Y18.8903
G01 X38.0687 Y18.8926
G01 X38.0534 Y18.8964
G01 X38.0386 Y18.9017
G01 X38.0243 Y18.9085
G01 X38.0108 Y18.9165
G01 X37.9982 Y18.9259
G01 X37.9865 Y18.9365
G01 X37.9759 Y18.9482
G01 X37.9665 Y18.9608
G01 X37.9585 Y18.9743
G01 X37.9517 Y18.9886
G01 X37.9464 Y19.0034
G01 X37.9426 Y19.0187
G01 X37.9403 Y19.0343
G01 X37.9395 Y19.0500
G01 X37.9403 Y19.0657
G01 X37.9426 Y19.0813
G01 X37.9464 Y19.0966
G01 X37.9517 Y19.1114
G01 X37.9585 Y19.1257
G01 X37.9665 Y19.1392
G01 X37.9759 Y19.1518
G01 X37.9865 Y19.1635
G01 X37.9982 Y19.1741
G01 X38.0108 Y19.1835
G01 X38.0243 Y19.1915
G01 X38.0386 Y19.1983
G01 X38.0534 Y19.2036
G01 X38.0687 Y19.2074
G01 X38.0843 Y19.2097
G01 X38.1000 Y19.2105
G01 X38.1157 Y19.2097
G01 X38.1313 Y19.2074
G01 X38.1466 Y19.2036
G01 X38.1614 Y19.1983
G01 X38.1757 Y19.1915
G01 X38.1892 Y19.1835
G01 X38.2018 Y19.1741
G01 X38.2135 Y19.1635
G01 X38.2241 Y19.1518
G01 X38.2335 Y19.1392
G01 X38.2415 Y19.1257
G01 X38.2483 Y19.1114
G01 X38.2536 Y19.0966
G01 X38.2574 Y19.0813
G01 X38.2597 Y19.0657
G01 X38.2605 Y19.0500
G00 Z2.0000
G00 X42.7055 Y19.0500
G01 F25.00
G01 Z-2.1000
G01 F120.00
G01 X42.7047 Y19.0343
G01 X42.7024 Y19.0187
G01 X42.6986 Y19.0034
G01 X42.6933 Y18.9886
G01 X42.6865 Y18.9743
G01 X42.6785 Y18.9608
G01 X42.6691 Y18.9482
G01 X42.6585 Y18.9365
G01 X42.6468 Y18.9259
G01 X42.6342 Y18.9165
G01 X42.6207 Y18.9085
G01 X42.6064 Y18.9017
G01 X42.5916 Y18.8964
G01 X42.5763 Y18.8926
G01 X42.5607 Y18.8903
G01 X42.5450 Y18.8895
G01 X42.5293 Y18.8903
G01 X42.5137 Y18.8926
G01 X42.4984 Y18.8964
G01 X42.4836 Y18.9017
G01 X42.4693 Y18.9085
G01 X42.4558 Y18.9165
G01 X42.4432 Y18.9259
G01 X42.4315 Y18.9365
G01 X42.4209 Y18.9482
G01 X42.4115 Y18.9608
G01 X42.4035 Y18.9743
G01 X42.3967 Y18.9886
G01 X42.3914 Y19.0034
G01 X42.3876 Y19.0187
G01 X42.3853 Y19.0343
G01 X42.3845 Y19.0500
G01 X42.3853 Y19.0657
G01 X42.3876 Y19.0813
G01 X42.3914 Y19.0966
G01 X42.3967 Y19.1114
G01 X42.4035 Y19.1257
G01 X42.4115 Y19.1392
G01 X42.4209 Y19.1518
G01 X42.4315 Y19.1635
G01 X42.4432 Y19.1741
G01 X42.4558 Y19.1835
G01 X42.4693 Y19.1915
G01 X42.4836 Y19.1983
G01 X42.4984 Y19.2036
G01 X42.5137 Y19.2074
G01 X42.5293 Y19.2097
G01 X42.5450 Y19.2105
G01 X42.5607 Y19.2097
G01 X42.5763 Y19.2074
G01 X42.5916 Y19.2036
G01 X42.6064 Y19.1983
G01 X42.6207 Y19.1915
G01 X42.6342 Y19.1835
G01 X42.6468 Y19.1741
G01 X42.6585 Y19.1635
G01 X42.6691 Y19.1518
G01 X42.6785 Y19.1392
G01 X42.6865 Y19.1257
G01 X42.6933 Y19.1114
G01 X42.6986 Y19.0966
G01 X42.7024 Y19.0813
G01 X42.7047 Y19.0657
G01 X42.7055 Y19.0500
G00 Z2.0000
G00 X43.8350 Y10.1600
G01 F25.00
G01 Z-2.1000
G01 F120.00
G01 X43.8345 Y10.1502
G01 X43.8331 Y10.1405
G01 X43.8307 Y10.1310
G01 X43.8274 Y10.1217
G01 X43.8232 Y10.1129
G01 X43.8181 Y10.1044
G01 X43.8123 Y10.0966
G01 X43.8057 Y10.0893
G01 X43.7984 Y10.0827
G01 X43.7906 Y10.0769
G01 X43.7821 Y10.0718
G01 X43.7733 Y10.0676
G01 X43.7640 Y10.0643
G01 X43.7545 Y10.0619
G01 X43.7448 Y10.0605
G01 X43.7350 Y10.0600
G01 X43.7252 Y10.0605
G01 X43.7155 Y10.0619
G01 X43.7060 Y10.0643
G01 X43.6967 Y10.0676
G01 X43.6879 Y10.0718
G01 X43.6794 Y10.0769
G01 X43.6716 Y10.0827
G01 X43.6643 Y10.0893
G01 X43.6577 Y10.0966
G01 X43.6519 Y10.1044
G01 X43.6468 Y10.1129
G01 X43.6426 Y10.1217
G01 X43.6393 Y10.1310
G01 X43.6369 Y10.1405
G01 X43.6355 Y10.1502
G01 X43.6350 Y10.1600
G01 X43.6355 Y10.1698
G01 X43.6369 Y10.1795
G01 X43.6393 Y10.1890
G01 X43.6426 Y10.1983
G01 X43.6468 Y10.2071
G01 X43.6519 Y10.2156
G01 X43.6577 Y10.2234
G01 X43.6643 Y10.2307
G01 X43.6716 Y10.2373
G01 X43.6794 Y10.2431
G01 X43.6879 Y10.2482
G01 X43.6967 Y10.2524
G01 X43.7060 Y10.2557
G01 X43.7155 Y10.2581
G01 X43.7252 Y10.2595
G01 X43.7350 Y10.2600
G01 X43.7448 Y10.2595
G01 X43.7545 Y10.2581
G01 X43.7640 Y10.2557
G01 X43.7733 Y10.2524
G01 X43.7821 Y10.2482
G01 X43.7906 Y10.2431
G01 X43.7984 Y10.2373
G01 X43.8057 Y10.2307
G01 X43.8123 Y10.2234
G01 X43.8181 Y10.2156
G01 X43.8232 Y10.2071
G01 X43.8274 Y10.1983
G01 X43.8307 Y10.1890
G01 X43.8331 Y10.1795
G01 X43.8345 Y10.1698
G01 X43.8350 Y10.1600
G00 Z2.0000
G00 X38.8350 Y10.1600
G01 F25.00
G01 Z-2.1000
G01 F120.00
G01 X38.8345 Y10.1502
G01 X38.8331 Y10.1405
G01 X38.8307 Y10.1310
G01 X38.8274 Y10.1217
G01 X38.8232 Y10.1129
G01 X38.8181 Y10.1044
G01 X38.8123 Y10.0966
G01 X38.8057 Y10.0893
G01 X38.7984 Y10.0827
G01 X38.7906 Y10.0769
G01 X38.7821 Y10.0718
G01 X38.7733 Y10.0676
G01 X38.7640 Y10.0643
G01 X38.7545 Y10.0619
G01 X38.7448 Y10.0605
G01 X38.7350 Y10.0600
G01 X38.7252 Y10.0605
G01 X38.7155 Y10.0619
G01 X38.7060 Y10.0643
G01 X38.6967 Y10.0676
G01 X38.6879 Y10.0718
G01 X38.6794 Y10.0769
G01 X38.6716 Y10.0827
G01 X38.6643 Y10.0893
G01 X38.6577 Y10.0966
G01 X38.6519 Y10.1044
G01 X38.6468 Y10.1129
G01 X38.6426 Y10.1217
G01 X38.6393 Y10.1310
G01 X38.6369 Y10.1405
G01 X38.6355 Y10.1502
G01 X38.6350 Y10.1600
G01 X38.6355 Y10.1698
G01 X38.6369 Y10.1795
G01 X38.6393 Y10.1890
G01 X38.6426 Y10.1983
G01 X38.6468 Y10.2071
G01 X38.6519 Y10.2156
G01 X38.6577 Y10.2234
G01 X38.6643 Y10.2307
G01 X38.6716 Y10.2373
G01 X38.6794 Y10.2431
G01 X38.6879 Y10.2482
G01 X38.6967 Y10.2524
G01 X38.7060 Y10.2557
G01 X38.7155 Y10.2581
G01 X38.7252 Y10.2595
G01 X38.7350 Y10.2600
G01 X38.7448 Y10.2595
G01 X38.7545 Y10.2581
G01 X38.7640 Y10.2557
G01 X38.7733 Y10.2524
G01 X38.7821 Y10.2482
G01 X38.7906 Y10.2431
G01 X38.7984 Y10.2373
G01 X38.8057 Y10.2307
G01 X38.8123 Y10.2234
G01 X38.8181 Y10.2156
G01 X38.8232 Y10.2071
G01 X38.8274 Y10.1983
G01 X38.8307 Y10.1890
G01 X38.8331 Y10.1795
G01 X38.8345 Y10.1698
G01 X38.8350 Y10.1600
G00 Z2.0000
G00 X33.8350 Y10.1600
G01 F25.00
G01 Z-2.1000
G01 F120.00
G01 X33.8345 Y10.1502
G01 X33.8331 Y10.1405
G01 X33.8307 Y10.1310
G01 X33.8274 Y10.1217
G01 X33.8232 Y10.1129
G01 X33.8181 Y10.1044
G01 X33.8123 Y10.0966
G01 X33.8057 Y10.0893
G01 X33.7984 Y10.0827
G01 X33.7906 Y10.0769
G01 X33.7821 Y10.0718
G01 X33.7733 Y10.0676
G01 X33.7640 Y10.0643
G01 X33.7545 Y10.0619
G01 X33.7448 Y10.0605
G01 X33.7350 Y10.0600
G01 X33.7252 Y10.0605
G01 X33.7155 Y10.0619
G01 X33.7060 Y10.0643
G01 X33.6967 Y10.0676
G01 X33.6879 Y10.0718
G01 X33.6794 Y10.0769
G01 X33.6716 Y10.0827
G01 X33.6643 Y10.0893
G01 X33.6577 Y10.0966
G01 X33.6519 Y10.1044
G01 X33.6468 Y10.1129
G01 X33.6426 Y10.1217
G01 X33.6393 Y10.1310
G01 X33.6369 Y10.1405
G01 X33.6355 Y10.1502
G01 X33.6350 Y10.1600
G01 X33.6355 Y10.1698
G01 X33.6369 Y10.1795
G01 X33.6393 Y10.1890
G01 X33.6426 Y10.1983
G01 X33.6468 Y10.2071
G01 X33.6519 Y10.2156
G01 X33.6577 Y10.2234
G01 X33.6643 Y10.2307
G01 X33.6716 Y10.2373
G01 X33.6794 Y10.2431
G01 X33.6879 Y10.2482
G01 X33.6967 Y10.2524
G01 X33.7060 Y10.2557
G01 X33.7155 Y10.2581
G01 X33.7252 Y10.2595
G01 X33.7350 Y10.2600
G01 X33.7448 Y10.2595
G01 X33.7545 Y10.2581
G01 X33.7640 Y10.2557
G01 X33.7733 Y10.2524
G01 X33.7821 Y10.2482
G01 X33.7906 Y10.2431
G01 X33.7984 Y10.2373
G01 X33.8057 Y10.2307
G01 X33.8123 Y10.2234
G01 X33.8181 Y10.2156
G01 X33.8232 Y10.2071
G01 X33.8274 Y10.1983
G01 X33.8307 Y10.1890
G01 X33.8331 Y10.1795
G01 X33.8345 Y10.1698
G01 X33.8350 Y10.1600
G00 Z2.0000
G00 X25.4200 Y10.1600
G01 F25.00
G01 Z-2.1000
G01 F120.00
G01 X25.4195 Y10.1502
G01 X25.4181 Y10.1405
G01 X25.4157 Y10.1310
G01 X25.4124 Y10.1217
G01 X25.4082 Y10.1129
G01 X25.4031 Y10.1044
G01 X25.3973 Y10.0966
G01 X25.3907 Y10.0893
G01 X25.3834 Y10.0827
G01 X25.3756 Y10.0769
G01 X25.3671 Y10.0718
G01 X25.3583 Y10.0676
G01 X25.3490 Y10.0643
G01 X25.3395 Y10.0619
G01 X25.3298 Y10.0605
G01 X25.3200 Y10.0600
G01 X25.3102 Y10.0605
G01 X25.3005 Y10.0619
G01 X25.2910 Y10.0643
G01 X25.2817 Y10.0676
G01 X25.2729 Y10.0718
G01 X25.2644 Y10.0769
G01 X25.2566 Y10.0827
G01 X25.2493 Y10.0893
G01 X25.2427 Y10.0966
G01 X25.2369 Y10.1044
G01 X25.2318 Y10.1129
G01 X25.2276 Y10.1217
G01 X25.2243 Y10.1310
G01 X25.2219 Y10.1405
G01 X25.2205 Y10.1502
G01 X25.2200 Y10.1600
G01 X25.2205 Y10.1698
G01 X25.2219 Y10.1795
G01 X25.2243 Y10.1890
G01 X25.2276 Y10.1983
G01 X25.2318 Y10.2071
G01 X25.2369 Y10.2156
G01 X25.2427 Y10.2234
G01 X25.2493 Y10.2307
G01 X25.2566 Y10.2373
G01 X25.2644 Y10.2431
G01 X25.2729 Y10.2482
G01 X25.2817 Y10.2524
G01 X25.2910 Y10.2557
G01 X25.3005 Y10.2581
G01 X25.3102 Y10.2595
G01 X25.3200 Y10.2600
G01 X25.3298 Y10.2595
G01 X25.3395 Y10.2581
G01 X25.3490 Y10.2557
G01 X25.3583 Y10.2524
G01 X25.3671 Y10.2482
G01 X25.3756 Y10.2431
G01 X25.3834 Y10.2373
G01 X25.3907 Y10.2307
G01 X25.3973 Y10.2234
G01 X25.4031 Y10.2156
G01 X25.4082 Y10.2071
G01 X25.4124 Y10.1983
G01 X25.4157 Y10.1890
G01 X25.4181 Y10.1795
G01 X25.4195 Y10.1698
G01 X25.4200 Y10.1600
G00 Z2.0000
G00 X20.4200 Y10.1600
G01 F25.00
G01 Z-2.1000
G01 F120.00
G01 X20.4195 Y10.1502
G01 X20.4181 Y10.1405
G01 X20.4157 Y10.1310
G01 X20.4124 Y10.1217
G01 X20.4082 Y10.1129
G01 X20.4031 Y10.1044
G01 X20.3973 Y10.0966
G01 X20.3907 Y10.0893
G01 X20.3834 Y10.0827
G01 X20.3756 Y10.0769
G01 X20.3671 Y10.0718
G01 X20.3583 Y10.0676
G01 X20.3490 Y10.0643
G01 X20.3395 Y10.0619
G01 X20.3298 Y10.0605
G01 X20.3200 Y10.0600
G01 X20.3102 Y10.0605
G01 X20.3005 Y10.0619
G01 X20.2910 Y10.0643
G01 X20.2817 Y10.0676
G01 X20.2729 Y10.0718
G01 X20.2644 Y10.0769
G01 X20.2566 Y10.0827
G01 X20.2493 Y10.0893
G01 X20.2427 Y10.0966
G01 X20.2369 Y10.1044
G01 X20.2318 Y10.1129
G01 X20.2276 Y10.1217
G01 X20.2243 Y10.1310
G01 X20.2219 Y10.1405
G01 X20.2205 Y10.1502
G01 X20.2200 Y10.1600
G01 X20.2205 Y10.1698
G01 X20.2219 Y10.1795
G01 X20.2243 Y10.1890
G01 X20.2276 Y10.1983
G01 X20.2318 Y10.2071
G01 X20.2369 Y10.2156
G01 X20.2427 Y10.2234
G01 X20.2493 Y10.2307
G01 X20.2566 Y10.2373
G01 X20.2644 Y10.2431
G01 X20.2729 Y10.2482
G01 X20.2817 Y10.2524
G01 X20.2910 Y10.2557
G01 X20.3005 Y10.2581
G01 X20.3102 Y10.2595
G01 X20.3200 Y10.2600
G01 X20.3298 Y10.2595
G01 X20.3395 Y10.2581
G01 X20.3490 Y10.2557
G01 X20.3583 Y10.2524
G01 X20.3671 Y10.2482
G01 X20.3756 Y10.2431
G01 X20.3834 Y10.2373
G01 X20.3907 Y10.2307
G01 X20.3973 Y10.2234
G01 X20.4031 Y10.2156
G01 X20.4082 Y10.2071
G01 X20.4124 Y10.1983
G01 X20.4157 Y10.1890
G01 X20.4181 Y10.1795
G01 X20.4195 Y10.1698
G01 X20.4200 Y10.1600
G00 Z2.0000
G00 X15.4200 Y10.1600
G01 F25.00
G01 Z-2.1000
G01 F120.00
G01 X15.4195 Y10.1502
G01 X15.4181 Y10.1405
G01 X15.4157 Y10.1310
G01 X15.4124 Y10.1217
G01 X15.4082 Y10.1129
G01 X15.4031 Y10.1044
G01 X15.3973 Y10.0966
G01 X15.3907 Y10.0893
G01 X15.3834 Y10.0827
G01 X15.3756 Y10.0769
G01 X15.3671 Y10.0718
G01 X15.3583 Y10.0676
G01 X15.3490 Y10.0643
G01 X15.3395 Y10.0619
G01 X15.3298 Y10.0605
G01 X15.3200 Y10.0600
G01 X15.3102 Y10.0605
G01 X15.3005 Y10.0619
G01 X15.2910 Y10.0643
G01 X15.2817 Y10.0676
G01 X15.2729 Y10.0718
G01 X15.2644 Y10.0769
G01 X15.2566 Y10.0827
G01 X15.2493 Y10.0893
G01 X15.2427 Y10.0966
G01 X15.2369 Y10.1044
G01 X15.2318 Y10.1129
G01 X15.2276 Y10.1217
G01 X15.2243 Y10.1310
G01 X15.2219 Y10.1405
G01 X15.2205 Y10.1502
G01 X15.2200 Y10.1600
G01 X15.2205 Y10.1698
G01 X15.2219 Y10.1795
G01 X15.2243 Y10.1890
G01 X15.2276 Y10.1983
G01 X15.2318 Y10.2071
G01 X15.2369 Y10.2156
G01 X15.2427 Y10.2234
G01 X15.2493 Y10.2307
G01 X15.2566 Y10.2373
G01 X15.2644 Y10.2431
G01 X15.2729 Y10.2482
G01 X15.2817 Y10.2524
G01 X15.2910 Y10.2557
G01 X15.3005 Y10.2581
G01 X15.3102 Y10.2595
G01 X15.3200 Y10.2600
G01 X15.3298 Y10.2595
G01 X15.3395 Y10.2581
G01 X15.3490 Y10.2557
G01 X15.3583 Y10.2524
G01 X15.3671 Y10.2482
G01 X15.3756 Y10.2431
G01 X15.3834 Y10.2373
G01 X15.3907 Y10.2307
G01 X15.3973 Y10.2234
G01 X15.4031 Y10.2156
G01 X15.4082 Y10.2071
G01 X15.4124 Y10.1983
G01 X15.4157 Y10.1890
G01 X15.4181 Y10.1795
G01 X15.4195 Y10.1698
G01 X15.4200 Y10.1600
G00 Z2.0000
G00 X12.8605 Y13.9700
G01 F25.00
G01 Z-2.1000
G01 F120.00
G01 X12.8597 Y13.9543
G01 X12.8574 Y13.9387
G01 X12.8536 Y13.9234
G01 X12.8483 Y13.9086
G01 X12.8415 Y13.8943
G01 X12.8335 Y13.8808
G01 X12.8241 Y13.8682
G01 X12.8135 Y13.8565
G01 X12.8018 Y13.8459
G01 X12.7892 Y13.8365
G01 X12.7757 Y13.8285
G01 X12.7614 Y13.8217
G01 X12.7466 Y13.8164
G01 X12.7313 Y13.8126
G01 X12.7157 Y13.8103
G01 X12.7000 Y13.8095
G01 X12.6843 Y13.8103
G01 X12.6687 Y13.8126
G01 X12.6534 Y13.8164
G01 X12.6386 Y13.8217
G01 X12.6243 Y13.8285
G01 X12.6108 Y13.8365
G01 X12.5982 Y13.8459
G01 X12.5865 Y13.8565
G01 X12.5759 Y13.8682
G01 X12.5665 Y13.8808
G01 X12.5585 Y13.8943
G01 X12.5517 Y13.9086
G01 X12.5464 Y13.9234
G01 X12.5426 Y13.9387
G01 X12.5403 Y13.9543
G01 X12.5395 Y13.9700
G01 X12.5403 Y13.9857
G01 X12.5426 Y14.0013
G01 X12.5464 Y14.0166
G01 X12.5517 Y14.0314
G01 X12.5585 Y14.0457
G01 X12.5665 Y14.0592
G01 X12.5759 Y14.0718
G01 X12.5865 Y14.0835
G01 X12.5982 Y14.0941
G01 X12.6108 Y14.1035
G01 X12.6243 Y14.1115
G01 X12.6386 Y14.1183
G01 X12.6534 Y14.1236
G01 X12.6687 Y14.1274
G01 X12.6843 Y14.1297
G01 X12.7000 Y14.1305
G01 X12.7157 Y14.1297
G01 X12.7313 Y14.1274
G01 X12.7466 Y14.1236
G01 X12.7614 Y14.1183
G01 X12.7757 Y14.1115
G01 X12.7892 Y14.1035
G01 X12.8018 Y14.0941
G01 X12.8135 Y14.0835
G01 X12.8241 Y14.0718
G01 X12.8335 Y14.0592
G01 X12.8415 Y14.0457
G01 X12.8483 Y14.0314
G01 X12.8536 Y14.0166
G01 X12.8574 Y14.0013
G01 X12.8597 Y13.9857
G01 X12.8605 Y13.9700
G00 Z2.0000
G00 X12.8605 Y19.0500
G01 F25.00
G01 Z-2.1000
G01 F120.00
G01 X12.8597 Y19.0343
G01 X12.8574 Y19.0187
G01 X12.8536 Y19.0034
G01 X12.8483 Y18.9886
G01 X12.8415 Y18.9743
G01 X12.8335 Y18.9608
G01 X12.8241 Y18.9482
G01 X12.8135 Y18.9365
G01 X12.8018 Y18.9259
G01 X12.7892 Y18.9165
G01 X12.7757 Y18.9085
G01 X12.7614 Y18.9017
G01 X12.7466 Y18.8964
G01 X12.7313 Y18.8926
G01 X12.7157 Y18.8903
G01 X12.7000 Y18.8895
G01 X12.6843 Y18.8903
G01 X12.6687 Y18.8926
G01 X12.6534 Y18.8964
G01 X12.6386 Y18.9017
G01 X12.6243 Y18.9085
G01 X12.6108 Y18.9165
G01 X12.5982 Y18.9259
G01 X12.5865 Y18.9365
G01 X12.5759 Y18.9482
G01 X12.5665 Y18.9608
G01 X12.5585 Y18.9743
G01 X12.5517 Y18.9886
G01 X12.5464 Y19.0034
G01 X12.5426 Y19.0187
G01 X12.5403 Y19.0343
G01 X12.5395 Y19.0500
G01 X12.5403 Y19.0657
G01 X12.5426 Y19.0813
G01 X12.5464 Y19.0966
G01 X12.5517 Y19.1114
G01 X12.5585 Y19.1257
G01 X12.5665 Y19.1392
G01 X12.5759 Y19.1518
G01 X12.5865 Y19.1635
G01 X12.5982 Y19.1741
G01 X12.6108 Y19.1835
G01 X12.6243 Y19.1915
G01 X12.6386 Y19.1983
G01 X12.6534 Y19.2036
G01 X12.6687 Y19.2074
G01 X12.6843 Y19.2097
G01 X12.7000 Y19.2105
G01 X12.7157 Y19.2097
G01 X12.7313 Y19.2074
G01 X12.7466 Y19.2036
G01 X12.7614 Y19.1983
G01 X12.7757 Y19.1915
G01 X12.7892 Y19.1835
G01 X12.8018 Y19.1741
G01 X12.8135 Y19.1635
G01 X12.8241 Y19.1518
G01 X12.8335 Y19.1392
G01 X12.8415 Y19.1257
G01 X12.8483 Y19.1114
G01 X12.8536 Y19.0966
G01 X12.8574 Y19.0813
G01 X12.8597 Y19.0657
G01 X12.8605 Y19.0500
G00 Z2.0000
G00 X11.4380 Y31.1150
G01 F25.00
G01 Z-2.1000
G01 F120.00
G01 X11.4374 Y31.1119
G01 X11.4357 Y31.1093
G01 X11.4331 Y31.1076
G01 X11.4300 Y31.1070
G01 X11.4269 Y31.1076
G01 X11.4243 Y31.1093
G01 X11.4226 Y31.1119
G01 X11.4220 Y31.1150
G01 X11.4226 Y31.1181
G01 X11.4243 Y31.1207
G01 X11.4269 Y31.1224
G01 X11.4300 Y31.1230
G01 X11.4331 Y31.1224
G01 X11.4357 Y31.1207
G01 X11.4374 Y31.1181
G01 X11.4380 Y31.1150
G00 Z2.0000
G00 X11.4380 Y33.6550
G01 F25.00
G01 Z-2.1000
G01 F120.00
G01 X11.4374 Y33.6519
G01 X11.4357 Y33.6493
G01 X11.4331 Y33.6476
G01 X11.4300 Y33.6470
G01 X11.4269 Y33.6476
G01 X11.4243 Y33.6493
G01 X11.4226 Y33.6519
G01 X11.4220 Y33.6550
G01 X11.4226 Y33.6581
G01 X11.4243 Y33.6607
G01 X11.4269 Y33.6624
G01 X11.4300 Y33.6630
G01 X11.4331 Y33.6624
G01 X11.4357 Y33.6607
G01 X11.4374 Y33.6581
G01 X11.4380 Y33.6550
G00 Z2.0000
G00 X5.0880 Y34.2900
G01 F25.00
G01 Z-2.1000
G01 F120.00
G01 X5.0874 Y34.2869
G01 X5.0857 Y34.2843
G01 X5.0831 Y34.2826
G01 X5.0800 Y34.2820
G01 X5.0769 Y34.2826
G01 X5.0743 Y34.2843
G01 X5.0726 Y34.2869
G01 X5.0720 Y34.2900
G01 X5.0726 Y34.2931
G01 X5.0743 Y34.2957
G01 X5.0769 Y34.2974
G01 X5.0800 Y34.2980
G01 X5.0831 Y34.2974
G01 X5.0857 Y34.2957
G01 X5.0874 Y34.2931
G01 X5.0880 Y34.2900
G00 Z2.0000
G00 X5.0880 Y31.7500
G01 F25.00
G01 Z-2.1000
G01 F120.00
G01 X5.0874 Y31.7469
G01 X5.0857 Y31.7443
G01 X5.0831 Y31.7426
G01 X5.0800 Y31.7420
G01 X5.0769 Y31.7426
G01 X5.0743 Y31.7443
G01 X5.0726 Y31.7469
G01 X5.0720 Y31.7500
G01 X5.0726 Y31.7531
G01 X5.0743 Y31.7557
G01 X5.0769 Y31.7574
G01 X5.0800 Y31.7580
G01 X5.0831 Y31.7574
G01 X5.0857 Y31.7557
G01 X5.0874 Y31.7531
G01 X5.0880 Y31.7500
G00 Z2.0000
G00 X6.3500 Y40.6400
G01 F25.00
G01 Z-2.1000
G01 F120.00
G01 X6.3500 Y40.6400
G01 X6.3500 Y40.6400
G01 X6.3500 Y40.6400
G01 X6.3500 Y40.6400
G00 Z2.0000
G00 X3.8100 Y40.6400
G01 F25.00
G01 Z-2.1000
G01 F120.00
G01 X3.8100 Y40.6400
G01 X3.8100 Y40.6400
G01 X3.8100 Y40.6400
G01 X3.8100 Y40.6400
G00 Z2.0000
G00 X8.8900 Y40.6400
G01 F25.00
G01 Z-2.1000
G01 F120.00
G01 X8.8900 Y40.6400
G01 X8.8900 Y40.6400
G01 X8.8900 Y40.6400
G01 X8.8900 Y40.6400
G00 Z2.0000
G00 X11.4300 Y40.6400
G01 F25.00
G01 Z-2.1000
G01 F120.00
G01 X11.4300 Y40.6400
G01 X11.4300 Y40.6400
G01 X11.4300 Y40.6400
G01 X11.4300 Y40.6400
G00 Z2.0000
G00 X13.9700 Y40.6400
G01 F25.00
G01 Z-2.1000
G01 F120.00
G01 X13.9700 Y40.6400
G01 X13.9700 Y40.6400
G01 X13.9700 Y40.6400
G01 X13.9700 Y40.6400
G00 Z2.0000
G00 X16.5100 Y40.6400
G01 F25.00
G01 Z-2.1000
G01 F120.00
G01 X16.5100 Y40.6400
G01 X16.5100 Y40.6400
G01 X16.5100 Y40.6400
G01 X16.5100 Y40.6400
G00 Z2.0000
G00 X19.0500 Y40.6400
G01 F25.00
G01 Z-2.1000
G01 F120.00
G01 X19.0500 Y40.6400
G01 X19.0500 Y40.6400
G01 X19.0500 Y40.6400
G01 X19.0500 Y40.6400
G00 Z2.0000
G00 X21.5900 Y40.6400
G01 F25.00
G01 Z-2.1000
G01 F120.00
G01 X21.5900 Y40.6400
G01 X21.5900 Y40.6400
G01 X21.5900 Y40.6400
G01 X21.5900 Y40.6400
G00 Z2.0000
G00 X24.1300 Y40.6400
G01 F25.00
G01 Z-2.1000
G01 F120.00
G01 X24.1300 Y40.6400
G01 X24.1300 Y40.6400
G01 X24.1300 Y40.6400
G01 X24.1300 Y40.6400
G00 Z2.0000
G00 X26.6700 Y40.6400
G01 F25.00
G01 Z-2.1000
G01 F120.00
G01 X26.6700 Y40.6400
G01 X26.6700 Y40.6400
G01 X26.6700 Y40.6400
G01 X26.6700 Y40.6400
G00 Z2.0000
G00 X29.2100 Y40.6400
G01 F25.00
G01 Z-2.1000
G01 F120.00
G01 X29.2100 Y40.6400
G01 X29.2100 Y40.6400
G01 X29.2100 Y40.6400
G01 X29.2100 Y40.6400
G00 Z2.0000
G00 X31.7500 Y40.6400
G01 F25.00
G01 Z-2.1000
G01 F120.00
G01 X31.7500 Y40.6400
G01 X31.7500 Y40.6400
G01 X31.7500 Y40.6400
G01 X31.7500 Y40.6400
G00 Z2.0000
G00 X34.2900 Y40.6400
G01 F25.00
G01 Z-2.1000
G01 F120.00
G01 X34.2900 Y40.6400
G01 X34.2900 Y40.6400
G01 X34.2900 Y40.6400
G01 X34.2900 Y40.6400
G00 Z2.0000
G00 X36.8300 Y40.6400
G01 F25.00
G01 Z-2.1000
G01 F120.00
G01 X36.8300 Y40.6400
G01 X36.8300 Y40.6400
G01 X36.8300 Y40.6400
G01 X36.8300 Y40.6400
G00 Z2.0000
G00 X39.3700 Y40.6400
G01 F25.00
G01 Z-2.1000
G01 F120.00
G01 X39.3700 Y40.6400
G01 X39.3700 Y40.6400
G01 X39.3700 Y40.6400
G01 X39.3700 Y40.6400
G00 Z2.0000
G00 X38.3500 Y47.3650
G01 F25.00
G01 Z-2.1000
G01 F120.00
G01 X38.3500 Y47.3650
G01 X38.3500 Y47.3650
G01 X38.3500 Y47.3650
G01 X38.3500 Y47.3650
G00 Z2.0000
G00 X35.8100 Y47.3650
G01 F25.00
G01 Z-2.1000
G01 F120.00
G01 X35.8100 Y47.3650
G01 X35.8100 Y47.3650
G01 X35.8100 Y47.3650
G01 X35.8100 Y47.3650
G00 Z2.0000
G00 X33.2700 Y47.3650
G01 F25.00
G01 Z-2.1000
G01 F120.00
G01 X33.2700 Y47.3650
G01 X33.2700 Y47.3650
G01 X33.2700 Y47.3650
G01 X33.2700 Y47.3650
G00 Z2.0000
G00 X30.7300 Y47.3650
G01 F25.00
G01 Z-2.1000
G01 F120.00
G01 X30.7300 Y47.3650
G01 X30.7300 Y47.3650
G01 X30.7300 Y47.3650
G01 X30.7300 Y47.3650
G00 Z2.0000
G00 X28.1900 Y47.3650
G01 F25.00
G01 Z-2.1000
G01 F120.00
G01 X28.1900 Y47.3650
G01 X28.1900 Y47.3650
G01 X28.1900 Y47.3650
G01 X28.1900 Y47.3650
G00 Z2.0000
G00 X25.6500 Y47.3650
G01 F25.00
G01 Z-2.1000
G01 F120.00
G01 X25.6500 Y47.3650
G01 X25.6500 Y47.3650
G01 X25.6500 Y47.3650
G01 X25.6500 Y47.3650
G00 Z2.0000
G00 X23.1100 Y47.3650
G01 F25.00
G01 Z-2.1000
G01 F120.00
G01 X23.1100 Y47.3650
G01 X23.1100 Y47.3650
G01 X23.1100 Y47.3650
G01 X23.1100 Y47.3650
G00 Z2.0000
G00 X20.5700 Y47.3650
G01 F25.00
G01 Z-2.1000
G01 F120.00
G01 X20.5700 Y47.3650
G01 X20.5700 Y47.3650
G01 X20.5700 Y47.3650
G01 X20.5700 Y47.3650
G00 Z2.0000
G00 X18.0300 Y47.3650
G01 F25.00
G01 Z-2.1000
G01 F120.00
G01 X18.0300 Y47.3650
G01 X18.0300 Y47.3650
G01 X18.0300 Y47.3650
G01 X18.0300 Y47.3650
G00 Z2.0000
G00 X15.4900 Y47.3650
G01 F25.00
G01 Z-2.1000
G01 F120.00
G01 X15.4900 Y47.3650
G01 X15.4900 Y47.3650
G01 X15.4900 Y47.3650
G01 X15.4900 Y47.3650
G00 Z2.0000
G00 X12.9500 Y47.3650
G01 F25.00
G01 Z-2.1000
G01 F120.00
G01 X12.9500 Y47.3650
G01 X12.9500 Y47.3650
G01 X12.9500 Y47.3650
G01 X12.9500 Y47.3650
G00 Z2.0000
G00 X10.4100 Y47.3650
G01 F25.00
G01 Z-2.1000
G01 F120.00
G01 X10.4100 Y47.3650
G01 X10.4100 Y47.3650
G01 X10.4100 Y47.3650
G01 X10.4100 Y47.3650
G00 Z2.0000
G00 X7.8700 Y47.3650
G01 F25.00
G01 Z-2.1000
G01 F120.00
G01 X7.8700 Y47.3650
G01 X7.8700 Y47.3650
G01 X7.8700 Y47.3650
G01 X7.8700 Y47.3650
G00 Z2.0000
G00 X5.3300 Y47.3650
G01 F25.00
G01 Z-2.1000
G01 F120.00
G01 X5.3300 Y47.3650
G01 X5.3300 Y47.3650
G01 X5.3300 Y47.3650
G01 X5.3300 Y47.3650
G00 Z2.0000
G00 X40.8900 Y47.3650
G01 F25.00
G01 Z-2.1000
G01 F120.00
G01 X40.8900 Y47.3650
G01 X40.8900 Y47.3650
G01 X40.8900 Y47.3650
G01 X40.8900 Y47.3650
G00 Z2.0000
G00 X43.4300 Y47.3650
G01 F25.00
G01 Z-2.1000
G01 F120.00
G01 X43.4300 Y47.3650
G01 X43.4300 Y47.3650
G01 X43.4300 Y47.3650
G01 X43.4300 Y47.3650
G00 Z2.0000
M05
G00 Z2.0000
G00 Z15.00
G00 X0.0 Y0.0

